;FLAVOR:UltiGCode
;LAYER 0
;SKIRT 0
G0 X83.617314 Y82.937376 Z3.000000 F9000.000000
G11
G1 X91.698497 Y82.974058 F1800.000000 E-0.670894
G1 X93.700379 Y85.630301 E-1.308938
G1 X95.926936 Y87.877233 E-2.028484
G1 X99.494177 Y87.851601 E-2.140592
G1 X99.504736 Y88.407308 E-2.935499
G1 X103.445647 Y88.425488 E-4.181979
G1 X107.386918 Y83.665688 E-6.120707
G1 X116.995535 Y83.420621 E-7.117503
G1 X120.338789 Y87.059961 E-7.267533
G1 X120.918606 Y86.594055 E-9.077302
G1 X129.845349 Y87.498053 E-10.944178
G1 X134.898514 Y95.252420 E-11.425675
G1 X134.410882 Y97.589231 E-14.214870
G1 X148.238901 Y97.650196 E-15.824703
G1 X155.167764 Y101.611231 E-17.439338
G1 X159.196378 Y108.528590 E-19.054117
G1 X159.229711 Y116.534206 E-20.669773
G1 X155.251826 Y123.486687 E-22.288947
G1 X148.314992 Y127.526575 E-27.164547
G1 X124.143035 Y127.459799 E-27.229932
G1 X124.021414 Y127.760282 E-27.425509
G1 X124.719653 Y128.433063 E-29.384846
G1 X124.903238 Y138.145245 E-31.029355
G1 X119.245970 Y144.016194 E-31.671231
G1 X117.330114 Y146.557118 E-33.308083
G1 X109.216538 Y146.715512 E-33.978636
G1 X107.174007 Y144.092548 E-34.645086
G1 X104.794027 Y141.800657 E-35.747845
G1 X100.910509 Y145.648864 E-36.671718
G1 X96.480311 Y146.811987 E-42.142182
G1 X69.359352 Y146.688089 E-46.333169
G1 X69.454238 Y125.910401 E-46.579209
G1 X68.234445 Y125.904818 E-47.411615
G1 X68.253187 Y121.777993 E-49.290281
G1 X60.823400 Y116.161199 E-50.544163
G1 X66.395230 Y113.404595 E-50.941391
G1 X66.404192 Y111.435256 E-52.197729
G1 X60.848948 Y108.618347 E-54.076432
G1 X68.338472 Y103.081154 E-54.991754
G1 X68.359185 Y98.543257 E-56.495264
G1 X75.813147 Y98.577282 E-57.989204
G1 X75.846966 Y91.170761 E-59.642551
G1 X81.668433 Y85.400182 E-60.276029
G1 X83.617314 Y82.937376 E-61.906053
;WALL 0
G10
G0 X82.976085 Y97.952990 F9000.000000
G11
G1 X82.993354 Y94.169203 F900.000000 E-62.303858
G1 X84.372635 Y92.802435 E-62.508003
G1 X90.754214 Y92.827318 E-63.178924
G1 X92.123202 Y94.210847 E-63.383550
G1 X92.102784 Y99.299896 E-63.918583
G1 X93.580123 Y99.912584 E-64.086728
G1 X97.972177 Y95.560574 E-64.736772
G1 X108.851035 Y95.606797 E-65.880511
G1 X108.786810 Y93.201728 E-66.133454
G1 X110.824863 Y90.740349 E-66.469421
G1 X113.924483 Y90.661273 E-66.795400
G1 X116.085176 Y93.013294 E-67.131179
G1 X116.210094 Y97.846630 E-67.639492
G1 X117.569373 Y98.475428 E-67.796948
G1 X123.116485 Y94.013199 E-68.545404
G1 X125.716437 Y94.276510 E-68.820144
G1 X127.285474 Y96.684236 E-69.122281
G1 X126.644543 Y99.755737 E-69.452153
G1 X122.483117 Y103.097430 E-70.013257
G1 X123.047967 Y104.690179 E-70.190926
G1 X146.324662 Y104.802602 E-72.638109
G1 X149.947036 Y106.874090 E-73.076814
G1 X152.044416 Y110.475392 E-73.514961
G1 X152.061783 Y114.644512 E-73.953277
G1 X149.990183 Y118.265234 E-74.391837
G1 X146.392763 Y120.360318 E-74.829510
G1 X124.203049 Y120.299932 E-77.162395
G1 X121.940734 Y119.106512 E-77.431304
G1 X113.546533 Y127.428020 E-78.673969
G1 X114.200474 Y128.945714 E-78.847710
G1 X114.901538 Y128.918717 E-78.921470
G1 X117.617012 Y131.533494 E-79.317794
G1 X117.688458 Y135.313742 E-79.715294
G1 X116.341231 Y136.711878 E-79.919421
G1 X109.959557 Y136.834835 E-80.590471
G1 X108.558975 Y135.486109 E-80.794892
G1 X108.487507 Y131.705593 E-81.192421
G1 X109.492257 Y130.664137 E-81.344562
G1 X108.867636 Y129.200876 E-81.511829
G1 X97.818563 Y129.157990 E-82.673462
G1 X95.237582 Y126.554932 E-83.058849
G1 X95.278239 Y117.648341 E-83.995238
G1 X84.834675 Y117.612966 E-85.093209
G1 X85.927763 Y119.681364 E-85.339165
G1 X85.923442 Y120.569249 E-85.432513
G1 X92.833041 Y127.538151 E-86.464255
G1 X92.805650 Y133.537098 E-87.094951
G1 X95.599841 Y133.549891 E-87.388716
G1 X97.258543 Y134.001567 E-87.569451
G1 X98.354747 Y135.107759 E-87.733179
G1 X98.751218 Y136.612350 E-87.896761
G1 X98.340997 Y138.115102 E-88.060531
G1 X97.234911 Y139.211188 E-88.224243
G1 X95.572192 Y139.647756 E-88.404976
G1 X76.551979 Y139.560874 E-90.404653
G1 X76.643840 Y118.778909 E-92.589549
G1 X75.427032 Y118.777637 E-92.717476
G1 X75.486445 Y105.735872 E-94.088613
G1 X81.259701 Y105.759181 E-94.695579
G1 X81.659102 Y104.281270 E-94.856530
G1 X82.764944 Y103.185394 E-95.020209
G1 X84.260203 Y102.793168 E-95.182729
G1 X85.765233 Y103.197879 E-95.346578
G1 X87.964501 Y105.477136 E-95.679567
G1 X91.326485 Y102.145783 E-96.177157
G1 X90.719610 Y100.661478 E-96.345746
G1 X85.637149 Y100.638199 E-96.880088
G1 X82.976085 Y97.952990 E-97.277536
G0 X82.495182 Y98.149619 F9000.000000
G1 X82.514266 Y93.968188 F900.000000 E-97.717148
G1 X84.663716 Y91.838255 E-98.035282
G1 X84.959192 Y91.962182 E-98.068968
G1 X84.957855 Y92.324792 E-98.107091
G1 X90.178545 Y92.346500 E-98.655963
G1 X90.177396 Y91.986613 E-98.693800
G1 X90.473969 Y91.865070 E-98.727496
G1 X92.604118 Y94.014223 E-99.045624
G1 X92.583116 Y98.979412 E-99.567635
G1 X93.469485 Y99.346418 E-99.668494
G1 X97.775551 Y95.079670 E-100.305808
G1 X108.358129 Y95.125931 E-101.418399
G1 X108.302469 Y93.034045 E-101.638403
G1 X110.594387 Y90.266068 E-102.016219
G1 X114.130366 Y90.175866 E-102.388089
G1 X116.560373 Y92.821056 E-102.765720
G1 X116.682236 Y97.536479 E-103.261633
G1 X117.500678 Y97.914574 E-103.356417
G1 X122.969147 Y93.515822 E-104.094248
G1 X125.993240 Y93.822090 E-104.413807
G1 X127.795848 Y96.588251 E-104.760923
G1 X127.079229 Y100.022439 E-105.129747
G1 X123.049052 Y103.256969 E-105.673038
G1 X123.388587 Y104.212065 E-105.779606
G1 X146.452668 Y104.322815 E-108.204435
G1 X150.297029 Y106.521272 E-108.670026
G1 X152.523877 Y110.344880 E-109.135219
G1 X152.542313 Y114.771198 E-109.600577
G1 X150.342919 Y118.615276 E-110.066191
G1 X146.521627 Y120.840738 E-110.531100
G1 X124.083016 Y120.779617 E-112.890152
G1 X122.029944 Y119.694382 E-113.134298
G1 X114.115323 Y127.540150 E-114.305943
G1 X114.512818 Y128.452371 E-114.410557
G1 X115.087349 Y128.431306 E-114.471000
G1 X118.093172 Y131.325648 E-114.909699
G1 X118.172130 Y135.503564 E-115.349015
G1 X116.074407 Y137.680541 E-115.666853
G1 X115.775502 Y137.562136 E-115.700653
G1 X115.770784 Y137.203270 E-115.738385
G1 X110.550210 Y137.303547 E-116.287342
G1 X110.556896 Y137.664912 E-116.325340
G1 X110.263270 Y137.793299 E-116.359032
G1 X108.082803 Y135.693940 E-116.677253
G1 X108.003837 Y131.515863 E-117.116586
G1 X108.925454 Y130.559882 E-117.256191
G1 X108.549934 Y129.681860 E-117.356589
G1 X97.617635 Y129.637076 E-118.505946
G1 X94.756677 Y126.751644 E-118.933139
G1 X94.796053 Y118.126144 E-119.839975
G1 X85.626779 Y118.087721 E-120.803979
G1 X86.408282 Y119.563900 E-120.979581
G1 X86.404482 Y120.370641 E-121.064398
G1 X93.313943 Y127.341567 E-122.096282
G1 X93.287837 Y133.059297 E-122.697411
G1 X95.665099 Y133.070185 E-122.947343
G1 X97.508884 Y133.572260 E-123.148244
G1 X98.786167 Y134.861192 E-123.339020
G1 X99.248184 Y136.614566 E-123.529650
G1 X98.770188 Y138.365563 E-123.720474
G1 X97.481316 Y139.642768 E-123.911239
G1 X95.633066 Y140.128040 E-124.112137
G1 X76.069791 Y140.038676 E-126.168909
G1 X76.162870 Y119.257474 E-128.353726
G1 X74.944847 Y119.255439 E-128.481781
G1 X75.008640 Y105.253684 E-129.953846
G1 X80.892467 Y105.278770 E-130.572437
G1 X81.229840 Y104.030897 E-130.708340
G1 X82.518579 Y102.753771 E-130.899089
G1 X84.273933 Y102.293331 E-131.089878
G1 X86.018707 Y102.768991 E-131.280007
G1 X87.971309 Y104.794644 E-131.575802
G1 X90.760803 Y102.030578 E-131.988660
G1 X90.396713 Y101.140048 E-132.089807
G1 X85.436012 Y101.117286 E-132.611347
G1 X82.495182 Y98.149619 E-133.050591
G0 X82.014279 Y98.346249 F9000.000000
G1 X82.035178 Y93.767175 F900.000000 E-133.532009
G1 X85.148864 Y90.681775 E-133.992857
G1 X85.444326 Y90.805694 E-134.026541
G1 X85.440001 Y91.847170 E-134.136036
G1 X89.699484 Y91.865883 E-134.583853
G1 X89.702690 Y90.825655 E-134.693216
G1 X89.999272 Y90.704295 E-134.726906
G1 X93.085028 Y93.817593 E-135.187751
G1 X93.063485 Y98.658559 E-135.696703
G1 X93.358693 Y98.780188 E-135.730270
G1 X97.578924 Y94.598767 E-136.354859
G1 X107.864646 Y94.645053 E-137.436241
G1 X107.818122 Y92.866369 E-137.623304
G1 X110.363912 Y89.791787 E-138.042969
G1 X114.336248 Y89.690459 E-138.460730
G1 X117.035567 Y92.628816 E-138.880214
G1 X117.154378 Y97.226327 E-139.363726
G1 X117.431863 Y97.353550 E-139.395819
G1 X122.821809 Y93.018445 E-140.123024
G1 X126.270041 Y93.367669 E-140.487402
G1 X128.306221 Y96.492265 E-140.879496
G1 X127.513916 Y100.289140 E-141.287272
G1 X123.615410 Y103.416203 E-141.812695
G1 X123.729154 Y103.733802 E-141.848162
G1 X146.580719 Y103.843138 E-144.250648
G1 X150.647022 Y106.168454 E-144.743115
G1 X153.003339 Y110.214368 E-145.235355
G1 X153.022845 Y114.897882 E-145.727752
G1 X150.695655 Y118.965318 E-146.220420
G1 X146.650492 Y121.321158 E-146.712566
G1 X123.962983 Y121.259303 E-149.097786
G1 X122.119519 Y120.282604 E-149.317117
G1 X114.684113 Y127.652280 E-150.417744
G1 X114.819951 Y127.965706 E-150.453657
G1 X115.273145 Y127.943898 E-150.501358
G1 X118.569333 Y131.117802 E-150.982433
G1 X118.655802 Y135.693385 E-151.463565
G1 X115.613237 Y138.850890 E-151.924559
G1 X115.314989 Y138.733822 E-151.958244
G1 X115.296786 Y137.692306 E-152.067759
G1 X111.039031 Y137.774221 E-152.515473
G1 X111.058304 Y138.814317 E-152.624841
G1 X110.764675 Y138.942522 E-152.658525
G1 X107.606636 Y135.901778 E-153.119428
G1 X107.520167 Y131.326133 E-153.600566
G1 X108.358317 Y130.456082 E-153.727576
G1 X108.232432 Y130.163405 E-153.761072
G1 X97.416708 Y130.116163 E-154.898175
G1 X94.275772 Y126.948358 E-155.367174
G1 X94.313867 Y118.603946 E-156.244458
G1 X86.424373 Y118.569064 E-157.073914
G1 X86.888792 Y119.446045 E-157.178244
G1 X86.885511 Y120.171661 E-157.254531
G1 X93.794846 Y127.144985 E-158.286584
G1 X93.770024 Y132.581496 E-158.858148
G1 X95.730355 Y132.590478 E-159.064246
G1 X97.759223 Y133.142952 E-159.285315
G1 X99.217586 Y134.614623 E-159.503137
G1 X99.745149 Y136.616779 E-159.720815
G1 X99.199378 Y138.616021 E-159.938693
G1 X97.727722 Y140.074347 E-160.156511
G1 X95.693940 Y140.608324 E-160.377576
G1 X75.587604 Y140.516479 E-162.491442
G1 X75.681892 Y119.736660 E-164.676114
G1 X74.462663 Y119.733237 E-164.804296
G1 X74.530835 Y104.771495 E-166.377288
G1 X80.524779 Y104.798287 E-167.007457
G1 X80.800577 Y103.780530 E-167.118316
G1 X82.272213 Y102.322151 E-167.336137
G1 X84.276365 Y101.796456 E-167.553968
G1 X86.272180 Y102.340103 E-167.771439
G1 X87.978115 Y104.112150 E-168.030041
G1 X90.195120 Y101.915375 E-168.358167
G1 X90.073878 Y101.618772 E-168.391854
G1 X85.234878 Y101.596372 E-168.900599
G1 X82.014279 Y98.346249 E-169.381640
;INFILL 0
G0 X83.402881 Y98.042729 F9000.000000
G1 X88.384874 Y93.060736 F1500.000000 E-168.761568
G0 X89.060610 Y93.063823 F9000.000000
G1 X83.740743 Y98.383690 F1500.000000 E-168.099443
G0 X84.078604 Y98.724651 F9000.000000
G1 X89.737626 Y93.065629 F1500.000000 E-167.395105
G0 X90.416449 Y93.065629 F9000.000000
G1 X84.416466 Y99.065612 F1500.000000 E-166.648331
G0 X84.754328 Y99.406572 F9000.000000
G1 X90.871849 Y93.289051 F1500.000000 E-165.886928
G0 X91.209721 Y93.630002 F9000.000000
G1 X85.092190 Y99.747533 F1500.000000 E-165.125524
G0 X85.430051 Y100.088494 F9000.000000
G1 X91.547592 Y93.970953 F1500.000000 E-164.364118
G0 X91.882763 Y94.314605 F9000.000000
G1 X85.798434 Y100.398933 F1500.000000 E-163.606846
G0 X86.474169 Y100.402021 F9000.000000
G1 X91.879649 Y94.996541 F1500.000000 E-162.934065
G0 X91.876536 Y95.678476 F9000.000000
G1 X87.149902 Y100.405110 F1500.000000 E-162.345775
G0 X87.825636 Y100.408199 F9000.000000
G1 X91.873423 Y96.360413 F1500.000000 E-161.841977
G0 X91.870310 Y97.042348 F9000.000000
G1 X88.501369 Y100.411288 F1500.000000 E-161.422669
G0 X89.177103 Y100.414377 F9000.000000
G1 X91.867197 Y97.724283 F1500.000000 E-161.087853
G0 X91.864083 Y98.406219 F9000.000000
G1 X89.852839 Y100.417463 F1500.000000 E-160.837528
G0 X90.528579 Y100.420547 F9000.000000
G1 X91.863682 Y99.085443 F1500.000000 E-160.671357
G0 X92.080518 Y99.547430 F9000.000000
G1 X90.975290 Y100.652658 F1500.000000 E-160.533798
G0 X91.172294 Y101.134477 F9000.000000
G1 X92.559610 Y99.747160 F1500.000000 E-160.361129
G0 X93.038703 Y99.946890 F9000.000000
G1 X91.369298 Y101.616295 F1500.000000 E-160.153350
G0 X91.562284 Y102.102131 F9000.000000
G1 X93.519691 Y100.144724 F1500.000000 E-159.909726
G10
G0 X98.540078 Y95.803160 F9000.000000
G11
G1 X75.803883 Y118.539355 F1500.000000 E-157.079917
G0 X75.670527 Y117.993888 F9000.000000
G1 X87.948020 Y105.716395 F1500.000000 E-155.551827
G0 X87.570262 Y105.415331 F9000.000000
G1 X75.673638 Y117.311954 F1500.000000 E-154.071141
G0 X75.676749 Y116.630021 F9000.000000
G1 X87.236073 Y105.070697 F1500.000000 E-152.632436
G0 X86.902063 Y104.725884 F9000.000000
G1 X75.679861 Y115.948087 F1500.000000 E-151.235690
G0 X75.682972 Y115.266153 F9000.000000
G1 X86.569243 Y104.379882 F1500.000000 E-149.880755
G0 X86.236423 Y104.033880 F9000.000000
G1 X75.686083 Y114.584220 F1500.000000 E-148.567632
G0 X75.689194 Y113.902287 F9000.000000
G1 X85.903602 Y103.687879 F1500.000000 E-147.296319
G0 X85.529615 Y103.383042 F9000.000000
G1 X75.692305 Y113.220353 F1500.000000 E-146.071940
G0 X75.695415 Y112.538420 F9000.000000
G1 X84.994658 Y103.239178 F1500.000000 E-144.914531
G0 X84.459701 Y103.095312 F9000.000000
G1 X75.698526 Y111.856486 F1500.000000 E-143.824092
G0 X75.701637 Y111.174553 F9000.000000
G1 X80.878168 Y105.998022 F1500.000000 E-143.179807
G0 X80.199970 Y105.997397 F9000.000000
G1 X75.704748 Y110.492620 F1500.000000 E-142.620319
G0 X75.707859 Y109.810686 F9000.000000
G1 X79.524235 Y105.994310 F1500.000000 E-142.145323
G0 X78.848498 Y105.991224 F9000.000000
G1 X75.710970 Y109.128753 F1500.000000 E-141.754817
G0 X75.714081 Y108.446819 F9000.000000
G1 X78.172763 Y105.988137 F1500.000000 E-141.448803
G0 X77.497026 Y105.985051 F9000.000000
G1 X75.717192 Y107.764886 F1500.000000 E-141.227280
G0 X75.720303 Y107.082952 F9000.000000
G1 X76.821291 Y105.981964 F1500.000000 E-141.090248
G0 X76.145555 Y105.978878 F9000.000000
G1 X75.723413 Y106.401019 F1500.000000 E-141.037707
G10
G0 X81.650367 Y105.225823 F9000.000000
G11
G1 X83.683689 Y103.192501 F1500.000000 E-140.784634
G10
G0 X83.217932 Y97.548856 F9000.000000
G11
G1 X87.709139 Y93.057649 F1500.000000 E-140.225647
G0 X87.033404 Y93.054561 F9000.000000
G1 X83.221045 Y96.866920 F1500.000000 E-139.751150
G0 X83.224156 Y96.184986 F9000.000000
G1 X86.357670 Y93.051473 F1500.000000 E-139.361144
G0 X85.681935 Y93.048385 F9000.000000
G1 X83.227269 Y95.503051 F1500.000000 E-139.055630
G0 X83.230381 Y94.821116 F9000.000000
G1 X85.006201 Y93.045297 F1500.000000 E-138.834607
G0 X84.982259 Y91.711594 F9000.000000
G1 X85.201590 Y91.492263 F1500.000000 E-138.807308
G10
G0 X89.939586 Y91.506024 F9000.000000
G11
G1 X90.199095 Y91.246515 F1500.000000 E-138.775009
G0 X90.535521 Y92.267735 F9000.000000
G1 X90.411047 Y92.392208 F1500.000000 E-138.759517
G10
G0 X99.215815 Y95.806246 F9000.000000
G11
G1 X76.479619 Y118.542441 F1500.000000 E-135.929708
G0 X76.881395 Y118.819488 F9000.000000
G1 X99.891550 Y95.809333 F1500.000000 E-133.065802
G0 X100.567286 Y95.812420 F9000.000000
G1 X76.881395 Y119.498310 F1500.000000 E-130.117791
G0 X76.880494 Y120.178034 F9000.000000
G1 X101.243022 Y95.815506 F1500.000000 E-127.085565
G0 X101.918757 Y95.818593 F9000.000000
G1 X76.877380 Y120.859970 F1500.000000 E-123.968847
G0 X76.874266 Y121.541907 F9000.000000
G1 X102.594493 Y95.821680 F1500.000000 E-120.767638
G0 X103.270229 Y95.824766 F9000.000000
G1 X76.871152 Y122.223844 F1500.000000 E-117.481937
G0 X76.868037 Y122.905781 F9000.000000
G1 X103.945965 Y95.827853 F1500.000000 E-114.111745
G0 X104.621700 Y95.830940 F9000.000000
G1 X76.864923 Y123.587718 F1500.000000 E-110.657061
G0 X76.861809 Y124.269654 F9000.000000
G1 X105.297437 Y95.834026 F1500.000000 E-107.117885
G0 X105.973172 Y95.837113 F9000.000000
G1 X76.858694 Y124.951591 F1500.000000 E-103.494218
G0 X76.855580 Y125.633528 F9000.000000
G1 X84.672501 Y117.816607 F1500.000000 E-102.521303
G0 X84.906995 Y118.260936 F9000.000000
G1 X76.852466 Y126.315465 F1500.000000 E-101.518815
G0 X76.849351 Y126.997402 F9000.000000
