;FLAVOR:UltiGCode
G0 X116.939 Y-32.6082 Z0.4 F9000
G11
G1 X129.24 Y-29.5276 Z0.4 E5.07209 F900
G1 X129.322 Y-29.4786 Z0.4 E5.11045 F900
G1 X139.545 Y-21.9756 Z0.4 E10.1826 F900
G1 X139.624 Y-21.9046 Z0.4 E10.2252 F900
G1 X139.691 Y-21.8147 Z0.4 E10.2701 F900
G1 X146.514 Y-10.4615 Z0.4 E15.5684 F900
G1 X146.562 Y-10.36 Z0.4 E15.6132 F900
G1 X146.587 Y-10.2559 Z0.4 E15.6561 F900
G1 X148.411 Y2.36555 Z0.4 E20.7571 F900
G1 X148.416 Y2.47307 Z0.4 E20.8002 F900
G1 X148.401 Y2.56795 Z0.4 E20.8385 F900
G1 X148.358 Y2.68928 Z0.4 E20.89 F900
G1 X145.278 Y14.9896 Z0.4 E25.9621 F900
G1 X145.229 Y15.072 Z0.4 E26.0005 F900
G1 X137.726 Y25.2945 Z0.4 E31.0727 F900
G1 X137.662 Y25.3652 Z0.4 E31.1106 F900
G1 X126.319 Y32.1822 Z0.4 E36.4044 F900
G1 X126.099 Y32.3144 Z0.4 E36.507 F900
G1 X126.006 Y32.3372 Z0.4 E36.5453 F900
G1 X113.384 Y34.1606 Z0.4 E41.6463 F900
G1 X113.277 Y34.1656 Z0.4 E41.6893 F900
G1 X113.171 Y34.1498 Z0.4 E41.7321 F900
G1 X100.871 Y31.0692 Z0.4 E46.8043 F900
G1 X100.77 Y31.0332 Z0.4 E46.8471 F900
G1 X100.678 Y30.9786 Z0.4 E46.8898 F900
G1 X90.4555 Y23.4756 Z0.4 E51.962 F900
G1 X90.3848 Y23.4124 Z0.4 E52 F900
G1 X83.5678 Y12.0687 Z0.4 E57.2937 F900
G1 X83.4356 Y11.8487 Z0.4 E57.3964 F900
G1 X83.4154 Y11.7666 Z0.4 E57.4302 F900
G1 X83.4095 Y11.6372 Z0.4 E57.482 F900
G1 X81.5861 Y-0.984079 Z0.4 E62.583 F900
G1 X81.5986 Y-1.06795 Z0.4 E62.6169 F900
G1 X81.6418 Y-1.18928 Z0.4 E62.6684 F900
G1 X84.7224 Y-13.4896 Z0.4 E67.7405 F900
G1 X84.7714 Y-13.572 Z0.4 E67.7788 F900
G1 X92.2744 Y-23.7945 Z0.4 E72.851 F900
G1 X92.3376 Y-23.8652 Z0.4 E72.889 F900
G1 X103.681 Y-30.6822 Z0.4 E78.1828 F900
G1 X103.901 Y-30.8144 Z0.4 E78.2854 F900
G1 X103.994 Y-30.8372 Z0.4 E78.3236 F900
G1 X116.616 Y-32.6606 Z0.4 E83.4246 F900
G1 X116.723 Y-32.6656 Z0.4 E83.4677 F900
G1 X116.818 Y-32.6514 Z0.4 E83.5061 F900
G0 X116.636 Y-31.6532 Z0.4 F9000
G1 X128.83 Y-28.5993 Z0.4 E88.5343 F900
G1 X138.88 Y-21.2228 Z0.4 E93.521 F900
G1 X145.61 Y-10.0235 Z0.4 E98.7474 F900
G1 X147.403 Y2.38604 Z0.4 E103.763 F900
G1 X144.349 Y14.58 Z0.4 E108.791 F900
G1 X136.995 Y24.5993 Z0.4 E113.762 F900
G1 X125.736 Y31.3658 Z0.4 E119.017 F900
G1 X113.329 Y33.1583 Z0.4 E124.031 F900
G1 X101.199 Y30.1205 Z0.4 E129.033 F900
G1 X91.1507 Y22.7454 Z0.4 E134.019 F900
G1 X84.4024 Y11.516 Z0.4 E139.259 F900
G1 X82.6056 Y-0.921052 Z0.4 E144.286 F900
G1 X85.6507 Y-13.08 Z0.4 E149.299 F900
G1 X93.0046 Y-23.0993 Z0.4 E154.271 F900
G1 X104.264 Y-29.8658 Z0.4 E159.525 F900
G0 X104.613 Y-29.3657 Z0.4 F9000
G1 X104.772 Y-29.2066 Z0.4 E159.566 F900
G1 X144.595 Y10.6163 Z0.4 E169.703 F900
G1 X144.754 Y10.7754 Z0.4 E169.744 F900
G0 X144.626 Y11.2843 Z0.4 F9000
G1 X144.467 Y11.1252 Z0.4 E169.784 F900
G1 X104.3 Y-29.0416 Z0.4 E180.009 F900
G1 X104.141 Y-29.2007 Z0.4 E180.049 F900
G0 X103.744 Y-28.9618 Z0.4 F9000
G1 X103.903 Y-28.8027 Z0.4 E180.09 F900
G1 X144.34 Y11.6342 Z0.4 E190.384 F900
G1 X144.499 Y11.7933 Z0.4 E190.424 F900
G0 X144.371 Y12.3022 Z0.4 F9000
G1 X144.212 Y12.1431 Z0.4 E190.465 F900
G1 X103.505 Y-28.5639 Z0.4 E200.827 F900
G1 X103.346 Y-28.723 Z0.4 E200.867 F900
G0 X102.949 Y-28.4841 Z0.4 F9000
G1 X103.108 Y-28.325 Z0.4 E200.908 F900
G1 X144.085 Y12.6521 Z0.4 E211.339 F900
G1 X144.244 Y12.8111 Z0.4 E211.379 F900
G0 X144.116 Y13.3201 Z0.4 F9000
G1 X143.957 Y13.161 Z0.4 E211.42 F900
G1 X102.71 Y-28.0861 Z0.4 E221.92 F900
G1 X102.551 Y-28.2452 Z0.4 E221.96 F900
G0 X102.154 Y-28.0063 Z0.4 F9000
G1 X102.313 Y-27.8472 Z0.4 E222.001 F900
G1 X143.83 Y13.6699 Z0.4 E232.569 F900
G1 X143.989 Y13.829 Z0.4 E232.61 F900
G0 X143.861 Y14.338 Z0.4 F9000
G1 X143.702 Y14.1789 Z0.4 E232.65 F900
G1 X101.915 Y-27.6083 Z0.4 E243.287 F900
G1 X101.756 Y-27.7674 Z0.4 E243.328 F900
G0 X101.359 Y-27.5285 Z0.4 F9000
G1 X101.518 Y-27.3694 Z0.4 E243.368 F900
G1 X143.457 Y14.5701 Z0.4 E254.045 F900
G1 X143.616 Y14.7292 Z0.4 E254.085 F900
G0 X143.347 Y15.0962 Z0.4 F9000
G1 X143.188 Y14.9371 Z0.4 E254.126 F900
G1 X101.12 Y-27.1306 Z0.4 E264.834 F900
G1 X100.961 Y-27.2897 Z0.4 E264.875 F900
G0 X100.564 Y-27.0508 Z0.4 F9000
G1 X100.723 Y-26.8917 Z0.4 E264.915 F900
G1 X142.918 Y15.3042 Z0.4 E275.657 F900
G1 X143.078 Y15.4633 Z0.4 E275.697 F900
G0 X142.808 Y15.8303 Z0.4 F9000
G1 X142.649 Y15.6712 Z0.4 E275.738 F900
G1 X100.325 Y-26.6528 Z0.4 E286.511 F900
G1 X100.166 Y-26.8119 Z0.4 E286.552 F900
G0 X99.7685 Y-26.573 Z0.4 F9000
G1 X99.9276 Y-26.4139 Z0.4 E286.592 F900
G1 X142.38 Y16.0382 Z0.4 E297.399 F900
G1 X142.539 Y16.1973 Z0.4 E297.439 F900
G0 X142.269 Y16.5643 Z0.4 F9000
G1 X142.11 Y16.4052 Z0.4 E297.48 F900
G1 X99.5301 Y-26.175 Z0.4 E308.319 F900
G1 X99.371 Y-26.3341 Z0.4 E308.36 F900
G0 X98.9735 Y-26.0952 Z0.4 F9000
G1 X99.1326 Y-25.9361 Z0.4 E308.4 F900
G1 X141.841 Y16.7722 Z0.4 E319.272 F900
G1 X142 Y16.9313 Z0.4 E319.312 F900
G0 X141.731 Y17.2983 Z0.4 F9000
G1 X141.572 Y17.1392 Z0.4 E319.353 F900
G1 X98.7351 Y-25.6972 Z0.4 E330.257 F900
G1 X98.576 Y-25.8563 Z0.4 E330.298 F900
G0 X98.1785 Y-25.6175 Z0.4 F9000
G1 X98.3376 Y-25.4584 Z0.4 E330.338 F900
G1 X141.302 Y17.5063 Z0.4 E341.275 F900
G1 X141.461 Y17.6654 Z0.4 E341.316 F900
G0 X141.192 Y18.0324 Z0.4 F9000
G1 X141.033 Y17.8733 Z0.4 E341.356 F900
G1 X97.9401 Y-25.2195 Z0.4 E352.326 F900
G1 X97.781 Y-25.3786 Z0.4 E352.366 F900
G0 X97.3835 Y-25.1397 Z0.4 F9000
G1 X97.5426 Y-24.9806 Z0.4 E352.407 F900
G1 X140.763 Y18.2403 Z0.4 E363.409 F900
G1 X140.923 Y18.3994 Z0.4 E363.45 F900
G0 X140.653 Y18.7664 Z0.4 F9000
G1 X140.494 Y18.6073 Z0.4 E363.49 F900
G1 X97.145 Y-24.7417 Z0.4 E374.525 F900
G1 X96.9859 Y-24.9008 Z0.4 E374.566 F900
G0 X96.5884 Y-24.6619 Z0.4 F9000
G1 X96.7475 Y-24.5028 Z0.4 E374.606 F900
G1 X140.225 Y18.9743 Z0.4 E385.674 F900
G1 X140.384 Y19.1334 Z0.4 E385.714 F900
G0 X140.114 Y19.5004 Z0.4 F9000
G1 X139.955 Y19.3413 Z0.4 E385.755 F900
G1 X96.35 Y-24.2639 Z0.4 E396.855 F900
G1 X96.1909 Y-24.423 Z0.4 E396.895 F900
G0 X95.7934 Y-24.1842 Z0.4 F9000
G1 X95.9525 Y-24.0251 Z0.4 E396.936 F900
G1 X139.686 Y19.7084 Z0.4 E408.068 F900
G1 X139.845 Y19.8675 Z0.4 E408.109 F900
G0 X139.576 Y20.2345 Z0.4 F9000
G1 X139.417 Y20.0754 Z0.4 E408.149 F900
G1 X95.555 Y-23.7862 Z0.4 E419.315 F900
G1 X95.3959 Y-23.9453 Z0.4 E419.355 F900
G0 X94.9984 Y-23.7064 Z0.4 F9000
G1 X95.1575 Y-23.5473 Z0.4 E419.396 F900
G1 X139.147 Y20.4424 Z0.4 E430.594 F900
G1 X139.306 Y20.6015 Z0.4 E430.634 F900
G0 X139.037 Y20.9685 Z0.4 F9000
G1 X138.878 Y20.8094 Z0.4 E430.675 F900
G1 X94.76 Y-23.3084 Z0.4 E441.905 F900
G1 X94.6009 Y-23.4675 Z0.4 E441.946 F900
G0 X94.2034 Y-23.2286 Z0.4 F9000
G1 X94.3625 Y-23.0695 Z0.4 E441.986 F900
G1 X138.608 Y21.1764 Z0.4 E453.249 F900
G1 X138.768 Y21.3355 Z0.4 E453.29 F900
G0 X138.498 Y21.7026 Z0.4 F9000
G1 X138.339 Y21.5435 Z0.4 E453.33 F900
G1 X93.9649 Y-22.8306 Z0.4 E464.626 F900
G1 X93.8058 Y-22.9897 Z0.4 E464.667 F900
G0 X93.4083 Y-22.7509 Z0.4 F9000
G1 X93.5674 Y-22.5918 Z0.4 E464.707 F900
G1 X138.07 Y21.9105 Z0.4 E476.036 F900
G1 X138.229 Y22.0696 Z0.4 E476.076 F900
G0 X137.959 Y22.4366 Z0.4 F9000
G1 X137.8 Y22.2775 Z0.4 E476.117 F900
G1 X93.2772 Y-22.2456 Z0.4 E487.45 F900
G1 X93.1181 Y-22.4047 Z0.4 E487.491 F900
G0 X92.8488 Y-22.0376 Z0.4 F9000
G1 X93.0079 Y-21.8785 Z0.4 E487.531 F900
G1 X137.531 Y22.6445 Z0.4 E498.865 F900
G1 X137.69 Y22.8036 Z0.4 E498.906 F900
G0 X137.421 Y23.1706 Z0.4 F9000
G1 X137.262 Y23.0115 Z0.4 E498.946 F900
G1 X92.7385 Y-21.5115 Z0.4 E510.28 F900
G1 X92.5794 Y-21.6706 Z0.4 E510.32 F900
G0 X92.31 Y-21.3036 Z0.4 F9000
G1 X92.4691 Y-21.1445 Z0.4 E510.361 F900
G1 X136.992 Y23.3785 Z0.4 E521.694 F900
G1 X137.151 Y23.5376 Z0.4 E521.735 F900
G0 X136.882 Y23.9047 Z0.4 F9000
G1 X136.723 Y23.7456 Z0.4 E521.775 F900
G1 X92.1997 Y-20.7775 Z0.4 E533.109 F900
G1 X92.0406 Y-20.9366 Z0.4 E533.15 F900
G0 X91.7712 Y-20.5696 Z0.4 F9000
G1 X91.9303 Y-20.4105 Z0.4 E533.19 F900
G1 X136.433 Y24.0918 Z0.4 E544.519 F900
G1 X136.592 Y24.2509 Z0.4 E544.559 F900
G0 X136.194 Y24.4897 Z0.4 F9000
G1 X136.035 Y24.3306 Z0.4 E544.6 F900
G1 X91.661 Y-20.0435 Z0.4 E555.895 F900
G1 X91.5019 Y-20.2026 Z0.4 E555.936 F900
G0 X91.2325 Y-19.8355 Z0.4 F9000
G1 X91.3916 Y-19.6764 Z0.4 E555.976 F900
G1 X135.638 Y24.5695 Z0.4 E567.24 F900
G1 X135.797 Y24.7286 Z0.4 E567.28 F900
G0 X135.399 Y24.9675 Z0.4 F9000
G1 X135.24 Y24.8084 Z0.4 E567.321 F900
G1 X91.1222 Y-19.3094 Z0.4 E578.551 F900
G1 X90.9631 Y-19.4685 Z0.4 E578.592 F900
G0 X90.6937 Y-19.1015 Z0.4 F9000
G1 X90.8528 Y-18.9424 Z0.4 E578.632 F900
G1 X134.843 Y25.0473 Z0.4 E589.83 F900
G1 X135.002 Y25.2064 Z0.4 E589.871 F900
G0 X134.604 Y25.4453 Z0.4 F9000
G1 X134.445 Y25.2862 Z0.4 E589.911 F900
G1 X90.5834 Y-18.5754 Z0.4 E601.076 F900
G1 X90.4243 Y-18.7345 Z0.4 E601.117 F900
G0 X90.155 Y-18.3675 Z0.4 F9000
G1 X90.3141 Y-18.2084 Z0.4 E601.157 F900
G1 X134.047 Y25.5251 Z0.4 E612.29 F900
G1 X134.207 Y25.6842 Z0.4 E612.331 F900
G0 X133.809 Y25.923 Z0.4 F9000
G1 X133.65 Y25.7639 Z0.4 E612.371 F900
G1 X90.0447 Y-17.8413 Z0.4 E623.471 F900
G1 X89.8856 Y-18.0004 Z0.4 E623.512 F900
G0 X89.6162 Y-17.6334 Z0.4 F9000
G1 X89.7753 Y-17.4743 Z0.4 E623.552 F900
G1 X133.252 Y26.0028 Z0.4 E634.62 F900
G1 X133.412 Y26.1619 Z0.4 E634.66 F900
G0 X133.014 Y26.4008 Z0.4 F9000
G1 X132.855 Y26.2417 Z0.4 E634.701 F900
G1 X89.5059 Y-17.1073 Z0.4 E645.736 F900
G1 X89.3468 Y-17.2664 Z0.4 E645.776 F900
G0 X89.0775 Y-16.8994 Z0.4 F9000
G1 X89.2366 Y-16.7403 Z0.4 E645.817 F900
G1 X132.457 Y26.4806 Z0.4 E656.819 F900
G1 X132.617 Y26.6397 Z0.4 E656.859 F900
G0 X132.219 Y26.8786 Z0.4 F9000
G1 X132.06 Y26.7195 Z0.4 E656.9 F900
G1 X88.9672 Y-16.3733 Z0.4 E667.869 F900
G1 X88.8081 Y-16.5324 Z0.4 E667.91 F900
G0 X88.5387 Y-16.1654 Z0.4 F9000
G1 X88.6978 Y-16.0063 Z0.4 E667.95 F900
G1 X131.662 Y26.9584 Z0.4 E678.887 F900
G1 X131.822 Y27.1175 Z0.4 E678.928 F900
G0 X131.424 Y27.3563 Z0.4 F9000
G1 X131.265 Y27.1972 Z0.4 E678.968 F900
G1 X88.4284 Y-15.6392 Z0.4 E689.873 F900
G1 X88.2693 Y-15.7983 Z0.4 E689.913 F900
G0 X87.9999 Y-15.4313 Z0.4 F9000
G1 X88.159 Y-15.2722 Z0.4 E689.954 F900
G1 X130.867 Y27.4361 Z0.4 E700.826 F900
G1 X131.026 Y27.5952 Z0.4 E700.866 F900
G0 X130.629 Y27.8341 Z0.4 F9000
G1 X130.47 Y27.675 Z0.4 E700.907 F900
G1 X87.8897 Y-14.9052 Z0.4 E711.746 F900
G1 X87.7306 Y-15.0643 Z0.4 E711.786 F900
G0 X87.4612 Y-14.6973 Z0.4 F9000
G1 X87.6203 Y-14.5382 Z0.4 E711.827 F900
G1 X130.072 Y27.9139 Z0.4 E722.633 F900
G1 X130.231 Y28.073 Z0.4 E722.674 F900
G0 X129.834 Y28.3119 Z0.4 F9000
G1 X129.675 Y28.1528 Z0.4 E722.714 F900
G1 X87.3509 Y-14.1712 Z0.4 E733.488 F900
G1 X87.1918 Y-14.3303 Z0.4 E733.529 F900
G0 X86.9224 Y-13.9633 Z0.4 F9000
G1 X87.0815 Y-13.8042 Z0.4 E733.569 F900
G1 X129.277 Y28.3917 Z0.4 E744.311 F900
G1 X129.436 Y28.5508 Z0.4 E744.351 F900
G0 X129.039 Y28.7897 Z0.4 F9000
G1 X128.88 Y28.6306 Z0.4 E744.392 F900
G1 X86.8121 Y-13.4371 Z0.4 E755.1 F900
G1 X86.6531 Y-13.5962 Z0.4 E755.141 F900
G0 X86.3837 Y-13.2292 Z0.4 F9000
G1 X86.5428 Y-13.0701 Z0.4 E755.181 F900
G1 X128.482 Y28.8694 Z0.4 E765.857 F900
G1 X128.641 Y29.0285 Z0.4 E765.898 F900
G0 X128.244 Y29.2674 Z0.4 F9000
G1 X128.085 Y29.1083 Z0.4 E765.938 F900
G1 X86.2976 Y-12.6789 Z0.4 E776.576 F900
G1 X86.1385 Y-12.838 Z0.4 E776.616 F900
G0 X86.0111 Y-12.329 Z0.4 F9000
G1 X86.1702 Y-12.1699 Z0.4 E776.657 F900
G1 X127.687 Y29.3472 Z0.4 E787.225 F900
G1 X127.846 Y29.5063 Z0.4 E787.266 F900
G0 X127.449 Y29.7452 Z0.4 F9000
G1 X127.29 Y29.5861 Z0.4 E787.306 F900
G1 X86.0427 Y-11.661 Z0.4 E797.806 F900
G1 X85.8836 Y-11.8201 Z0.4 E797.846 F900
G0 X85.7562 Y-11.3112 Z0.4 F9000
G1 X85.9153 Y-11.1521 Z0.4 E797.887 F900
G1 X126.892 Y29.825 Z0.4 E808.318 F900
G1 X127.051 Y29.9841 Z0.4 E808.358 F900
G0 X126.654 Y30.223 Z0.4 F9000
G1 X126.495 Y30.0639 Z0.4 E808.399 F900
G1 X85.7878 Y-10.6431 Z0.4 E818.761 F900
G1 X85.6287 Y-10.8022 Z0.4 E818.802 F900
G0 X85.5012 Y-10.2933 Z0.4 F9000
G1 X85.6603 Y-10.1342 Z0.4 E818.842 F900
G1 X126.097 Y30.3027 Z0.4 E829.136 F900
G1 X126.256 Y30.4618 Z0.4 E829.176 F900
G0 X125.859 Y30.7007 Z0.4 F9000
G1 X125.7 Y30.5416 Z0.4 E829.217 F900
G1 X85.5329 Y-9.62525 Z0.4 E839.442 F900
G1 X85.3738 Y-9.78434 Z0.4 E839.482 F900
G0 X85.2463 Y-9.27541 Z0.4 F9000
G1 X85.4054 Y-9.11631 Z0.4 E839.523 F900
G1 X125.228 Y30.7066 Z0.4 E849.66 F900
G1 X125.387 Y30.8657 Z0.4 E849.7 F900
G0 X124.831 Y30.946 Z0.4 F9000
G1 X124.672 Y30.7869 Z0.4 E849.741 F900
G1 X85.278 Y-8.60737 Z0.4 E859.769 F900
G1 X85.1189 Y-8.76647 Z0.4 E859.81 F900
G0 X84.9914 Y-8.25754 Z0.4 F9000
G1 X85.1505 Y-8.09844 Z0.4 E859.85 F900
G1 X124.116 Y30.8673 Z0.4 E869.769 F900
G1 X124.275 Y31.0264 Z0.4 E869.81 F900
G0 X123.719 Y31.1067 Z0.4 F9000
G1 X123.56 Y30.9476 Z0.4 E869.85 F900
G1 X85.023 Y-7.5895 Z0.4 E879.66 F900
G1 X84.8639 Y-7.7486 Z0.4 E879.701 F900
G0 X84.7365 Y-7.23967 Z0.4 F9000
G1 X84.8956 Y-7.08057 Z0.4 E879.741 F900
G1 X123.004 Y31.028 Z0.4 E889.442 F900
G1 X123.163 Y31.1871 Z0.4 E889.482 F900
G0 X122.607 Y31.2674 Z0.4 F9000
G1 X122.448 Y31.1083 Z0.4 E889.523 F900
G1 X84.7681 Y-6.57163 Z0.4 E899.115 F900
G1 X84.609 Y-6.73073 Z0.4 E899.155 F900
G0 X84.4815 Y-6.2218 Z0.4 F9000
G1 X84.6406 Y-6.0627 Z0.4 E899.196 F900
G1 X121.892 Y31.1886 Z0.4 E908.678 F900
G1 X122.051 Y31.3477 Z0.4 E908.719 F900
G0 X121.495 Y31.4281 Z0.4 F9000
G1 X121.336 Y31.269 Z0.4 E908.759 F900
G1 X84.5132 Y-5.55376 Z0.4 E918.133 F900
G1 X84.3541 Y-5.71286 Z0.4 E918.173 F900
G0 X84.2266 Y-5.20393 Z0.4 F9000
G1 X84.3857 Y-5.04483 Z0.4 E918.214 F900
G1 X120.78 Y31.3493 Z0.4 E927.478 F900
G1 X120.939 Y31.5084 Z0.4 E927.519 F900
G0 X120.383 Y31.5887 Z0.4 F9000
G1 X120.224 Y31.4296 Z0.4 E927.559 F900
G1 X84.2583 Y-4.53589 Z0.4 E936.715 F900
G1 X84.0992 Y-4.69499 Z0.4 E936.755 F900
G0 X83.9717 Y-4.18606 Z0.4 F9000
G1 X84.1308 Y-4.02696 Z0.4 E936.796 F900
G1 X119.668 Y31.51 Z0.4 E945.842 F900
G1 X119.827 Y31.6691 Z0.4 E945.882 F900
G0 X119.271 Y31.7494 Z0.4 F9000
G1 X119.112 Y31.5903 Z0.4 E945.923 F900
G1 X84.0033 Y-3.51802 Z0.4 E954.86 F900
G1 X83.8442 Y-3.67712 Z0.4 E954.9 F900
G0 X83.7168 Y-3.16818 Z0.4 F9000
G1 X83.8759 Y-3.00909 Z0.4 E954.941 F900
G1 X118.556 Y31.6706 Z0.4 E963.769 F900
G1 X118.715 Y31.8297 Z0.4 E963.809 F900
G0 X118.159 Y31.9101 Z0.4 F9000
G1 X118 Y31.751 Z0.4 E963.85 F900
G1 X83.7484 Y-2.50015 Z0.4 E972.569 F900
G1 X83.5893 Y-2.65925 Z0.4 E972.609 F900
G0 X83.4619 Y-2.15031 Z0.4 F9000
G1 X83.621 Y-1.99121 Z0.4 E972.65 F900
G1 X117.443 Y31.8313 Z0.4 E981.26 F900
G1 X117.603 Y31.9904 Z0.4 E981.3 F900
G0 X117.047 Y32.0707 Z0.4 F9000
G1 X116.887 Y31.9116 Z0.4 E981.341 F900
G1 X83.4935 Y-1.48228 Z0.4 E989.841 F900
G1 X83.3344 Y-1.64138 Z0.4 E989.882 F900
G0 X83.2069 Y-1.13244 Z0.4 F9000
G1 X83.366 Y-0.973344 Z0.4 E989.922 F900
G1 X116.331 Y31.992 Z0.4 E998.314 F900
G1 X116.49 Y32.1511 Z0.4 E998.354 F900
G0 X115.934 Y32.2314 Z0.4 F9000
G1 X115.775 Y32.0723 Z0.4 E998.395 F900
G1 X83.432 Y-0.270992 Z0.4 E1006.63 F900
G1 X83.2729 Y-0.430091 Z0.4 E1006.67 F900
G0 X83.3804 Y0.313772 Z0.4 F9000
G1 X83.5395 Y0.472871 Z0.4 E1006.71 F900
G1 X115.219 Y32.1527 Z0.4 E1014.77 F900
G1 X115.378 Y32.3118 Z0.4 E1014.81 F900
G0 X114.822 Y32.3921 Z0.4 F9000
G1 X114.663 Y32.233 Z0.4 E1014.85 F900
G1 X83.6469 Y1.21673 Z0.4 E1022.75 F900
G1 X83.4878 Y1.05764 Z0.4 E1022.79 F900
G0 X83.5953 Y1.8015 Z0.4 F9000
G1 X83.7544 Y1.9606 Z0.4 E1022.83 F900
G1 X114.107 Y32.3133 Z0.4 E1030.56 F900
G1 X114.266 Y32.4724 Z0.4 E1030.6 F900
G0 X113.71 Y32.5528 Z0.4 F9000
G1 X113.551 Y32.3937 Z0.4 E1030.64 F900
G1 X83.8619 Y2.70446 Z0.4 E1038.2 F900
G1 X83.7028 Y2.54536 Z0.4 E1038.24 F900
G0 X83.8102 Y3.28923 Z0.4 F9000
G1 X83.9693 Y3.44833 Z0.4 E1038.28 F900
G1 X112.799 Y32.2784 Z0.4 E1045.62 F900
G1 X112.958 Y32.4375 Z0.4 E1045.66 F900
G0 X112.109 Y32.2248 Z0.4 F9000
G1 X111.95 Y32.0657 Z0.4 E1045.7 F900
G1 X84.0768 Y4.19219 Z0.4 E1052.79 F900
G1 X83.9177 Y4.03309 Z0.4 E1052.83 F900
G0 X84.0252 Y4.77695 Z0.4 F9000
G1 X84.1843 Y4.93605 Z0.4 E1052.87 F900
G1 X111.101 Y31.8531 Z0.4 E1059.73 F900
G1 X111.26 Y32.0122 Z0.4 E1059.77 F900
G0 X110.411 Y31.7996 Z0.4 F9000
G1 X110.252 Y31.6405 Z0.4 E1059.81 F900
G1 X84.2917 Y5.67992 Z0.4 E1066.42 F900
G1 X84.1326 Y5.52082 Z0.4 E1066.46 F900
G0 X84.2401 Y6.26468 Z0.4 F9000
G1 X84.3992 Y6.42378 Z0.4 E1066.5 F900
G1 X109.403 Y31.4278 Z0.4 E1072.86 F900
G1 X109.562 Y31.5869 Z0.4 E1072.9 F900
G0 X108.713 Y31.3743 Z0.4 F9000
G1 X108.554 Y31.2152 Z0.4 E1072.94 F900
G1 X84.5067 Y7.16764 Z0.4 E1079.06 F900
G1 X84.3476 Y7.00855 Z0.4 E1079.1 F900
G0 X84.455 Y7.75241 Z0.4 F9000
G1 X84.6141 Y7.91151 Z0.4 E1079.14 F900
G1 X107.705 Y31.0026 Z0.4 E1085.02 F900
G1 X107.864 Y31.1617 Z0.4 E1085.06 F900
G0 X107.015 Y30.949 Z0.4 F9000
G1 X106.856 Y30.7899 Z0.4 E1085.1 F900
G1 X84.7216 Y8.65537 Z0.4 E1090.74 F900
G1 X84.5625 Y8.49627 Z0.4 E1090.78 F900
G0 X84.67 Y9.24014 Z0.4 F9000
G1 X84.8291 Y9.39924 Z0.4 E1090.82 F900
G1 X106.007 Y30.5773 Z0.4 E1096.21 F900
G1 X106.166 Y30.7364 Z0.4 E1096.25 F900
G0 X105.317 Y30.5237 Z0.4 F9000
G1 X105.158 Y30.3646 Z0.4 E1096.29 F900
G1 X84.9365 Y10.1431 Z0.4 E1101.44 F900
G1 X84.7774 Y9.984 Z0.4 E1101.48 F900
G0 X84.8849 Y10.7279 Z0.4 F9000
G1 X85.044 Y10.887 Z0.4 E1101.52 F900
G1 X104.309 Y30.152 Z0.4 E1106.42 F900
G1 X104.468 Y30.3111 Z0.4 E1106.46 F900
G0 X103.619 Y30.0985 Z0.4 F9000
G1 X103.46 Y29.9394 Z0.4 E1106.5 F900
G1 X85.5668 Y12.0461 Z0.4 E1111.06 F900
G1 X85.4077 Y11.887 Z0.4 E1111.1 F900
G10
G0 X86.366 Y13.4818 Z0.4 F9000
G11
G1 X86.5251 Y13.6409 Z0.4 E1111.14 F900
G1 X102.611 Y29.7267 Z0.4 E1115.24 F900
G1 X102.77 Y29.8858 Z0.4 E1115.28 F900
G0 X101.921 Y29.6732 Z0.4 F9000
G1 X101.762 Y29.5141 Z0.4 E1115.32 F900
G1 X87.4835 Y15.2357 Z0.4 E1118.95 F900
G1 X87.3244 Y15.0766 Z0.4 E1118.99 F900
G10
G0 X88.2828 Y16.6713 Z0.4 F9000
G11
G1 X88.4419 Y16.8304 Z0.4 E1119.03 F900
G1 X99.8222 Y28.2107 Z0.4 E1121.93 F900
G1 X99.9813 Y28.3698 Z0.4 E1121.97 F900
G10
G0 X97.5891 Y26.6141 Z0.4 F9000
G11
G1 X97.43 Y26.455 Z0.4 E1122.01 F900
G1 X89.4003 Y18.4252 Z0.4 E1124.05 F900
G1 X89.2412 Y18.2661 Z0.4 E1124.09 F900
G10
G0 X90.1995 Y19.8609 Z0.4 F9000
G11
G1 X90.3586 Y20.02 Z0.4 E1124.14 F900
G1 X95.0379 Y24.6992 Z0.4 E1125.33 F900
G1 X95.197 Y24.8583 Z0.4 E1125.37 F900
G10
G0 X92.8048 Y23.1025 Z0.4 F9000
G11
G1 X92.6457 Y22.9434 Z0.4 E1125.41 F900
G1 X91.317 Y21.6147 Z0.4 E1125.75 F900
G1 X91.1579 Y21.4556 Z0.4 E1125.79 F900
G10
G0 X105.169 Y-29.446 Z0.4 F9000
G11
G1 X105.328 Y-29.2869 Z0.4 E1125.83 F900
G1 X144.722 Y10.1074 Z0.4 E1135.85 F900
G1 X144.881 Y10.2665 Z0.4 E1135.9 F900
G0 X145.009 Y9.75754 Z0.4 F9000
G1 X144.85 Y9.59844 Z0.4 E1135.94 F900
G1 X105.884 Y-29.3673 Z0.4 E1145.85 F900
G1 X105.725 Y-29.5264 Z0.4 E1145.9 F900
G0 X106.281 Y-29.6067 Z0.4 F9000
G1 X106.44 Y-29.4476 Z0.4 E1145.94 F900
G1 X144.977 Y9.0895 Z0.4 E1155.75 F900
G1 X145.136 Y9.2486 Z0.4 E1155.79 F900
G0 X145.264 Y8.73967 Z0.4 F9000
G1 X145.104 Y8.58057 Z0.4 E1155.83 F900
G1 X106.996 Y-29.528 Z0.4 E1165.53 F900
G1 X106.837 Y-29.6871 Z0.4 E1165.57 F900
G0 X107.393 Y-29.7674 Z0.4 F9000
G1 X107.552 Y-29.6083 Z0.4 E1165.61 F900
G1 X145.232 Y8.07163 Z0.4 E1175.2 F900
G1 X145.391 Y8.23073 Z0.4 E1175.24 F900
G0 X145.518 Y7.7218 Z0.4 F9000
G1 X145.359 Y7.5627 Z0.4 E1175.28 F900
G1 X108.108 Y-29.6886 Z0.4 E1184.76 F900
G1 X107.949 Y-29.8477 Z0.4 E1184.8 F900
G0 X108.505 Y-29.9281 Z0.4 F9000
G1 X108.664 Y-29.769 Z0.4 E1184.84 F900
G1 X145.487 Y7.05376 Z0.4 E1194.22 F900
G1 X145.646 Y7.21286 Z0.4 E1194.26 F900
G0 X145.773 Y6.70393 Z0.4 F9000
G1 X145.614 Y6.54483 Z0.4 E1194.3 F900
G1 X109.22 Y-29.8493 Z0.4 E1203.56 F900
G1 X109.061 Y-30.0084 Z0.4 E1203.6 F900
G0 X109.617 Y-30.0887 Z0.4 F9000
G1 X109.776 Y-29.9296 Z0.4 E1203.64 F900
G1 X145.742 Y6.03589 Z0.4 E1212.8 F900
G1 X145.901 Y6.19499 Z0.4 E1212.84 F900
G0 X146.028 Y5.68605 Z0.4 F9000
G1 X145.869 Y5.52696 Z0.4 E1212.88 F900
G1 X110.332 Y-30.01 Z0.4 E1221.93 F900
G1 X110.173 Y-30.1691 Z0.4 E1221.97 F900
G0 X110.729 Y-30.2494 Z0.4 F9000
G1 X110.888 Y-30.0903 Z0.4 E1222.01 F900
G1 X145.997 Y5.01802 Z0.4 E1230.95 F900
G1 X146.156 Y5.17712 Z0.4 E1230.99 F900
G0 X146.283 Y4.66818 Z0.4 F9000
G1 X146.124 Y4.50909 Z0.4 E1231.03 F900
G1 X111.444 Y-30.1706 Z0.4 E1239.85 F900
G1 X111.285 Y-30.3297 Z0.4 E1239.9 F900
G0 X111.841 Y-30.4101 Z0.4 F9000
G1 X112 Y-30.251 Z0.4 E1239.94 F900
G1 X146.252 Y4.00015 Z0.4 E1248.65 F900
G1 X146.411 Y4.15925 Z0.4 E1248.69 F900
G0 X146.538 Y3.65031 Z0.4 F9000
G1 X146.379 Y3.49121 Z0.4 E1248.74 F900
G1 X112.557 Y-30.3313 Z0.4 E1257.35 F900
G1 X112.397 Y-30.4904 Z0.4 E1257.39 F900
G0 X112.953 Y-30.5707 Z0.4 F9000
G1 X113.113 Y-30.4116 Z0.4 E1257.43 F900
G1 X146.507 Y2.98228 Z0.4 E1265.93 F900
G1 X146.666 Y3.14138 Z0.4 E1265.97 F900
G0 X146.793 Y2.63244 Z0.4 F9000
G1 X146.634 Y2.47334 Z0.4 E1266.01 F900
G1 X113.669 Y-30.492 Z0.4 E1274.4 F900
G1 X113.51 Y-30.6511 Z0.4 E1274.44 F900
G0 X114.066 Y-30.7314 Z0.4 F9000
G1 X114.225 Y-30.5723 Z0.4 E1274.48 F900
G1 X146.584 Y1.78715 Z0.4 E1282.72 F900
G1 X146.743 Y1.94625 Z0.4 E1282.76 F900
G0 X146.636 Y1.20239 Z0.4 F9000
G1 X146.477 Y1.04329 Z0.4 E1282.8 F900
G1 X114.781 Y-30.6527 Z0.4 E1290.87 F900
G1 X114.622 Y-30.8118 Z0.4 E1290.91 F900
G0 X115.178 Y-30.8921 Z0.4 F9000
G1 X115.337 Y-30.733 Z0.4 E1290.95 F900
G1 X146.369 Y0.299426 Z0.4 E1298.85 F900
G1 X146.528 Y0.458525 Z0.4 E1298.89 F900
G0 X146.421 Y-0.285339 Z0.4 F9000
G1 X146.262 Y-0.444438 Z0.4 E1298.93 F900
G1 X115.893 Y-30.8133 Z0.4 E1306.66 F900
G1 X115.734 Y-30.9724 Z0.4 E1306.7 F900
G0 X116.29 Y-31.0528 Z0.4 F9000
G1 X116.449 Y-30.8937 Z0.4 E1306.74 F900
G1 X146.154 Y-1.1883 Z0.4 E1314.3 F900
G1 X146.313 Y-1.0292 Z0.4 E1314.34 F900
G0 X146.206 Y-1.77307 Z0.4 F9000
G1 X146.047 Y-1.93217 Z0.4 E1314.38 F900
G1 X117.219 Y-30.7598 Z0.4 E1321.72 F900
G1 X117.06 Y-30.9189 Z0.4 E1321.76 F900
G0 X117.909 Y-30.7062 Z0.4 F9000
G1 X118.068 Y-30.5471 Z0.4 E1321.8 F900
G1 X145.939 Y-2.67603 Z0.4 E1328.9 F900
G1 X146.098 Y-2.51693 Z0.4 E1328.94 F900
G0 X145.991 Y-3.26079 Z0.4 F9000
G1 X145.832 Y-3.41989 Z0.4 E1328.98 F900
G1 X118.917 Y-30.3345 Z0.4 E1335.83 F900
G1 X118.758 Y-30.4936 Z0.4 E1335.87 F900
G0 X119.607 Y-30.281 Z0.4 F9000
G1 X119.766 Y-30.1219 Z0.4 E1335.91 F900
G1 X145.724 Y-4.16376 Z0.4 E1342.52 F900
G1 X145.884 Y-4.00466 Z0.4 E1342.56 F900
G0 X145.776 Y-4.74852 Z0.4 F9000
G1 X145.617 Y-4.90762 Z0.4 E1342.6 F900
G1 X120.615 Y-29.9092 Z0.4 E1348.96 F900
G1 X120.456 Y-30.0683 Z0.4 E1349 F900
G0 X121.305 Y-29.8557 Z0.4 F9000
G1 X121.464 Y-29.6966 Z0.4 E1349.05 F900
G1 X145.509 Y-5.65149 Z0.4 E1355.17 F900
G1 X145.669 Y-5.49239 Z0.4 E1355.21 F900
G0 X145.561 Y-6.23625 Z0.4 F9000
G1 X145.402 Y-6.39535 Z0.4 E1355.25 F900
G1 X122.313 Y-29.4839 Z0.4 E1361.12 F900
G1 X122.154 Y-29.643 Z0.4 E1361.16 F900
G0 X123.003 Y-29.4304 Z0.4 F9000
G1 X123.162 Y-29.2713 Z0.4 E1361.21 F900
G1 X145.295 Y-7.13921 Z0.4 E1366.84 F900
G1 X145.454 Y-6.98011 Z0.4 E1366.88 F900
G0 X145.346 Y-7.72398 Z0.4 F9000
G1 X145.187 Y-7.88308 Z0.4 E1366.92 F900
G1 X124.011 Y-29.0587 Z0.4 E1372.31 F900
G1 X123.852 Y-29.2178 Z0.4 E1372.35 F900
G0 X124.701 Y-29.0051 Z0.4 F9000
G1 X124.861 Y-28.846 Z0.4 E1372.39 F900
G1 X145.08 Y-8.62694 Z0.4 E1377.54 F900
G1 X145.239 Y-8.46784 Z0.4 E1377.58 F900
G0 X145.131 Y-9.21171 Z0.4 F9000
G1 X144.972 Y-9.37081 Z0.4 E1377.62 F900
G1 X125.71 Y-28.6334 Z0.4 E1382.52 F900
G1 X125.55 Y-28.7925 Z0.4 E1382.56 F900
G0 X126.399 Y-28.5799 Z0.4 F9000
G1 X126.559 Y-28.4208 Z0.4 E1382.6 F900
G1 X144.476 Y-10.5029 Z0.4 E1387.17 F900
G1 X144.636 Y-10.3438 Z0.4 E1387.21 F900
G10
G0 X143.677 Y-11.9386 Z0.4 F9000
G11
G1 X143.518 Y-12.0977 Z0.4 E1387.25 F900
G1 X127.408 Y-28.2081 Z0.4 E1391.35 F900
G1 X127.249 Y-28.3672 Z0.4 E1391.39 F900
G0 X128.098 Y-28.1546 Z0.4 F9000
G1 X128.257 Y-27.9955 Z0.4 E1391.43 F900
G1 X142.56 Y-13.6925 Z0.4 E1395.07 F900
G1 X142.719 Y-13.5334 Z0.4 E1395.11 F900
G10
G0 X141.76 Y-15.1281 Z0.4 F9000
G11
G1 X141.601 Y-15.2872 Z0.4 E1395.15 F900
G1 X130.178 Y-26.7107 Z0.4 E1398.06 F900
G1 X130.019 Y-26.8698 Z0.4 E1398.1 F900
G10
G0 X132.411 Y-25.1141 Z0.4 F9000
G11
G1 X132.57 Y-24.955 Z0.4 E1398.14 F900
G1 X140.643 Y-16.882 Z0.4 E1400.19 F900
G1 X140.802 Y-16.7229 Z0.4 E1400.23 F900
G10
G0 X139.844 Y-18.3177 Z0.4 F9000
G11
G1 X139.685 Y-18.4768 Z0.4 E1400.28 F900
G1 X134.962 Y-23.1992 Z0.4 E1401.48 F900
G1 X134.803 Y-23.3583 Z0.4 E1401.52 F900
G10
G0 X137.195 Y-21.6025 Z0.4 F9000
G11
G1 X137.354 Y-21.4434 Z0.4 E1401.56 F900
G1 X138.726 Y-20.0715 Z0.4 E1401.91 F900
G1 X138.885 Y-19.9124 Z0.4 E1401.95 F900
G10
G0 X116.523 Y-32.4863 Z0.8 F9000
G11
G1 X116.714 Y-32.4951 Z0.8 E1402.02 F900
G1 X116.892 Y-32.4685 Z0.8 E1402.1 F900
G1 X117.092 Y-32.3971 Z0.8 E1402.18 F900
G1 X129.167 Y-29.3731 Z0.8 E1407.16 F900
G1 X129.322 Y-29.2812 Z0.8 E1407.23 F900
G1 X139.356 Y-21.916 Z0.8 E1412.21 F900
G1 X139.498 Y-21.789 Z0.8 E1412.29 F900
G1 X139.618 Y-21.629 Z0.8 E1412.37 F900
G1 X146.316 Y-10.4841 Z0.8 E1417.57 F900
G1 X146.401 Y-10.3033 Z0.8 E1417.65 F900
G1 X146.446 Y-10.1173 Z0.8 E1417.73 F900
G1 X148.236 Y2.2725 Z0.8 E1422.73 F900
G1 X148.245 Y2.46428 Z0.8 E1422.81 F900
G1 X148.218 Y2.6421 Z0.8 E1422.88 F900
G1 X148.147 Y2.84242 Z0.8 E1422.97 F900
G1 X145.123 Y14.917 Z0.8 E1427.95 F900
G1 X145.031 Y15.0715 Z0.8 E1428.02 F900
G1 X137.666 Y25.1064 Z0.8 E1433 F900
G1 X137.547 Y25.2396 Z0.8 E1433.07 F900
G1 X126.411 Y31.9314 Z0.8 E1438.26 F900
G1 X126.042 Y32.1533 Z0.8 E1438.44 F900
G1 X125.867 Y32.1963 Z0.8 E1438.51 F900
G1 X113.477 Y33.9863 Z0.8 E1443.52 F900
G1 X113.286 Y33.9951 Z0.8 E1443.59 F900
G1 X113.097 Y33.9669 Z0.8 E1443.67 F900
G1 X101.022 Y30.9428 Z0.8 E1448.65 F900
G1 X100.843 Y30.8787 Z0.8 E1448.72 F900
G1 X100.678 Y30.7812 Z0.8 E1448.8 F900
G1 X90.6436 Y23.416 Z0.8 E1453.78 F900
G1 X90.5104 Y23.2968 Z0.8 E1453.85 F900
G1 X83.8186 Y12.1614 Z0.8 E1459.05 F900
G1 X83.5967 Y11.792 Z0.8 E1459.22 F900
G1 X83.5563 Y11.628 Z0.8 E1459.29 F900
G1 X83.5465 Y11.4144 Z0.8 E1459.37 F900
G1 X81.7566 Y-0.97529 Z0.8 E1464.38 F900
G1 X81.7815 Y-1.1421 Z0.8 E1464.45 F900
G1 X81.8529 Y-1.34242 Z0.8 E1464.53 F900
G1 X84.8769 Y-13.417 Z0.8 E1469.51 F900
G1 X84.9688 Y-13.5715 Z0.8 E1469.58 F900
G1 X92.334 Y-23.6064 Z0.8 E1474.56 F900
G1 X92.4532 Y-23.7396 Z0.8 E1474.64 F900
G1 X103.589 Y-30.4314 Z0.8 E1479.83 F900
G1 X103.958 Y-30.6533 Z0.8 E1480 F900
G1 X104.133 Y-30.6963 Z0.8 E1480.08 F900
G10
G0 X116.648 Y-31.494 Z0.8 F9000
G11
G1 X116.802 Y-31.4389 Z0.8 E1480.14 F900
G1 X128.778 Y-28.4396 Z0.8 E1485.08 F900
G1 X138.762 Y-21.1117 Z0.8 E1490.03 F900
G1 X145.457 Y-9.97128 Z0.8 E1495.23 F900
G1 X147.244 Y2.39773 Z0.8 E1500.23 F900
G1 X147.189 Y2.55242 Z0.8 E1500.3 F900
G1 X144.19 Y14.5282 Z0.8 E1505.24 F900
G1 X136.898 Y24.4629 Z0.8 E1510.17 F900
G1 X125.896 Y31.0742 Z0.8 E1515.3 F900
G1 X125.661 Y31.2157 Z0.8 E1515.41 F900
G1 X113.337 Y32.9961 Z0.8 E1520.39 F900
G1 X101.268 Y29.9734 Z0.8 E1525.37 F900
G1 X91.2871 Y22.6479 Z0.8 E1530.32 F900
G1 X84.6758 Y11.6463 Z0.8 E1535.45 F900
G1 X84.5485 Y11.4346 Z0.8 E1535.55 F900
G1 X84.5432 Y11.3197 Z0.8 E1535.6 F900
G1 X82.7718 Y-0.941897 Z0.8 E1540.55 F900
G1 X82.8111 Y-1.05242 Z0.8 E1540.6 F900
G1 X85.8104 Y-13.0282 Z0.8 E1545.54 F900
G1 X93.1021 Y-22.9629 Z0.8 E1550.47 F900
G1 X104.104 Y-29.5742 Z0.8 E1555.6 F900
G1 X104.339 Y-29.7157 Z0.8 E1555.71 F900
G10
G0 X100.995 Y-27.1147 Z0.8 F9000
G11
G1 X101.154 Y-26.9556 Z0.8 E1555.75 F900
G1 X143.014 Y14.9047 Z0.8 E1566.41 F900
G1 X143.173 Y15.0638 Z0.8 E1566.45 F900
G10
G0 X137.307 Y23.0566 Z0.8 F9000
G11
G1 X137.147 Y22.8975 Z0.8 E1566.49 F900
G1 X92.8525 Y-21.3975 Z0.8 E1577.76 F900
G1 X92.6934 Y-21.5566 Z0.8 E1577.81 F900
G10
G0 X86.8269 Y-13.5638 Z0.8 F9000
G11
G1 X86.986 Y-13.4047 Z0.8 E1577.85 F900
G1 X128.846 Y28.4556 Z0.8 E1588.5 F900
G1 X129.005 Y28.6147 Z0.8 E1588.54 F900
G10
G0 X118.265 Y31.7338 Z0.8 F9000
G11
G1 X118.106 Y31.5747 Z0.8 E1588.58 F900
G1 X83.9432 Y-2.58824 Z0.8 E1597.28 F900
G1 X83.7841 Y-2.74734 Z0.8 E1597.32 F900
G10
G0 X87.1744 Y14.5023 Z0.8 F9000
G11
G1 X87.3335 Y14.6614 Z0.8 E1597.36 F900
G1 X102.109 Y29.4366 Z0.8 E1601.12 F900
G1 X102.268 Y29.5957 Z0.8 E1601.16 F900
G10
G0 X146.216 Y4.24734 Z0.8 F9000
G11
G1 X146.057 Y4.08824 Z0.8 E1601.2 F900
G1 X111.894 Y-30.0747 Z0.8 E1609.9 F900
G1 X111.735 Y-30.2338 Z0.8 E1609.94 F900
G10
G0 X127.762 Y-28.066 Z0.8 F9000
G11
G1 X127.921 Y-27.9069 Z0.8 E1609.98 F900
G1 X142.736 Y-13.0923 Z0.8 E1613.75 F900
G1 X142.895 Y-12.9332 Z0.8 E1613.79 F900
G10
G0 X116.966 Y-32.2856 Z1.2 F9000
G11
G1 X117.246 Y-32.1861 Z1.2 E1613.91 F900
G1 X129.094 Y-29.2186 Z1.2 E1618.8 F900
G1 X129.321 Y-29.0839 Z1.2 E1618.9 F900
G1 X139.168 Y-21.8563 Z1.2 E1623.79 F900
G1 X139.373 Y-21.6735 Z1.2 E1623.9 F900
G1 X139.545 Y-21.4432 Z1.2 E1624.01 F900
G1 X146.117 Y-10.5067 Z1.2 E1629.12 F900
G1 X146.24 Y-10.2466 Z1.2 E1629.23 F900
G1 X146.305 Y-9.97874 Z1.2 E1629.34 F900
G1 X148.062 Y2.17946 Z1.2 E1634.26 F900
G1 X148.075 Y2.45548 Z1.2 E1634.37 F900
G1 X148.036 Y2.71625 Z1.2 E1634.47 F900
G1 X147.936 Y2.99556 Z1.2 E1634.59 F900
G1 X144.969 Y14.8444 Z1.2 E1639.48 F900
G1 X144.834 Y15.071 Z1.2 E1639.58 F900
G1 X137.606 Y24.9183 Z1.2 E1644.47 F900
G1 X137.431 Y25.114 Z1.2 E1644.57 F900
G1 X126.504 Y31.6805 Z1.2 E1649.67 F900
G1 X125.985 Y31.9923 Z1.2 E1649.91 F900
G1 X125.729 Y32.0554 Z1.2 E1650.02 F900
G1 X113.571 Y33.8119 Z1.2 E1654.93 F900
G1 X113.295 Y33.8246 Z1.2 E1655.04 F900
G1 X113.023 Y33.784 Z1.2 E1655.15 F900
G1 X101.174 Y30.8164 Z1.2 E1660.04 F900
G1 X100.915 Y30.7242 Z1.2 E1660.15 F900
G1 X100.679 Y30.5839 Z1.2 E1660.26 F900
G1 X90.8317 Y23.3563 Z1.2 E1665.15 F900
G1 X90.636 Y23.1812 Z1.2 E1665.25 F900
G1 X84.0695 Y12.2542 Z1.2 E1670.35 F900
G1 X83.7577 Y11.7353 Z1.2 E1670.59 F900
G1 X83.6973 Y11.4894 Z1.2 E1670.69 F900
G1 X83.6835 Y11.1915 Z1.2 E1670.81 F900
G1 X81.927 Y-0.9665 Z1.2 E1675.73 F900
G1 X81.9644 Y-1.21625 Z1.2 E1675.83 F900
G1 X82.0639 Y-1.49556 Z1.2 E1675.95 F900
G1 X85.0314 Y-13.3444 Z1.2 E1680.83 F900
G1 X85.1661 Y-13.571 Z1.2 E1680.94 F900
G1 X92.3937 Y-23.4183 Z1.2 E1685.82 F900
G1 X92.5688 Y-23.614 Z1.2 E1685.93 F900
G1 X103.496 Y-30.1805 Z1.2 E1691.03 F900
G1 X104.015 Y-30.4923 Z1.2 E1691.27 F900
G1 X104.271 Y-30.5554 Z1.2 E1691.38 F900
G1 X116.429 Y-32.3119 Z1.2 E1696.29 F900
G1 X116.705 Y-32.3246 Z1.2 E1696.4 F900
G0 X116.689 Y-31.3228 Z1.2 F9000
G1 X116.956 Y-31.2278 Z1.2 E1696.51 F900
G1 X128.726 Y-28.2798 Z1.2 E1701.37 F900
G1 X138.537 Y-21.0789 Z1.2 E1706.23 F900
G1 X138.632 Y-20.9947 Z1.2 E1706.28 F900
G1 X138.714 Y-20.8847 Z1.2 E1706.34 F900
G1 X145.234 Y-10.0351 Z1.2 E1711.4 F900
G1 X145.292 Y-9.91109 Z1.2 E1711.46 F900
G1 X145.323 Y-9.78746 Z1.2 E1711.51 F900
G1 X147.065 Y2.27417 Z1.2 E1716.38 F900
G1 X147.073 Y2.43904 Z1.2 E1716.45 F900
G1 X146.978 Y2.70555 Z1.2 E1716.56 F900
G1 X144.03 Y14.4765 Z1.2 E1721.42 F900
G1 X136.8 Y24.3264 Z1.2 E1726.3 F900
G1 X125.989 Y30.8234 Z1.2 E1731.35 F900
G1 X125.586 Y31.0656 Z1.2 E1731.54 F900
G1 X113.476 Y32.8152 Z1.2 E1736.43 F900
G1 X113.346 Y32.8212 Z1.2 E1736.48 F900
G1 X113.219 Y32.8022 Z1.2 E1736.53 F900
G1 X101.464 Y29.8582 Z1.2 E1741.38 F900
G1 X101.342 Y29.8149 Z1.2 E1741.43 F900
G1 X101.232 Y29.749 Z1.2 E1741.49 F900
G1 X91.4236 Y22.5503 Z1.2 E1746.35 F900
G1 X84.9266 Y11.7391 Z1.2 E1751.4 F900
G1 X84.6918 Y11.3484 Z1.2 E1751.58 F900
G1 X84.6802 Y11.0968 Z1.2 E1751.68 F900
G1 X82.9373 Y-0.96736 Z1.2 E1756.56 F900
G1 X83.0222 Y-1.20555 Z1.2 E1756.66 F900
G1 X85.9702 Y-12.9765 Z1.2 E1761.51 F900
G1 X93.1997 Y-22.8264 Z1.2 E1766.4 F900
G1 X104.011 Y-29.3234 Z1.2 E1771.44 F900
G1 X104.414 Y-29.5656 Z1.2 E1771.63 F900
G1 X116.524 Y-31.3152 Z1.2 E1776.53 F900
G10
G0 X111.875 Y-30.0931 Z1.2 F9000
G11
G1 X112.035 Y-29.934 Z1.2 E1776.57 F900
G1 X145.919 Y3.95013 Z1.2 E1785.19 F900
G1 X146.078 Y4.10923 Z1.2 E1785.23 F900
G10
G0 X143.059 Y14.9497 Z1.2 F9000
G11
G1 X142.9 Y14.7906 Z1.2 E1785.27 F900
G1 X101.276 Y-26.8337 Z1.2 E1795.87 F900
G1 X101.116 Y-26.9928 Z1.2 E1795.91 F900
G10
G0 X92.8074 Y-21.4426 Z1.2 F9000
G11
G1 X92.9665 Y-21.2835 Z1.2 E1795.95 F900
G1 X137.033 Y22.7835 Z1.2 E1807.17 F900
G1 X137.193 Y22.9426 Z1.2 E1807.21 F900
G10
G0 X128.884 Y28.4928 Z1.2 F9000
G11
G1 X128.724 Y28.3337 Z1.2 E1807.25 F900
G1 X87.1001 Y-13.2906 Z1.2 E1817.84 F900
G1 X86.941 Y-13.4497 Z1.2 E1817.88 F900
G10
G0 X83.9222 Y-2.60923 Z1.2 F9000
G11
G1 X84.0813 Y-2.45013 Z1.2 E1817.93 F900
G1 X117.965 Y31.434 Z1.2 E1826.55 F900
G1 X118.125 Y31.5931 Z1.2 E1826.59 F900
G10
G0 X102.049 Y29.3765 Z1.2 F9000
G11
G1 X101.89 Y29.2174 Z1.2 E1826.63 F900
G1 X87.8224 Y15.1503 Z1.2 E1830.21 F900
G1 X87.6633 Y14.9912 Z1.2 E1830.25 F900
G10
G0 X127.992 Y-27.8356 Z1.2 F9000
G11
G1 X128.151 Y-27.6765 Z1.2 E1830.29 F900
G1 X142.273 Y-13.5553 Z1.2 E1833.89 F900
G1 X142.432 Y-13.3962 Z1.2 E1833.93 F900
G10
G0 X116.697 Y-32.1541 Z1.6 F9000
G11
G1 X117.04 Y-32.1027 Z1.6 E1834.07 F900
G1 X117.399 Y-31.975 Z1.6 E1834.22 F900
G1 X129.022 Y-29.0641 Z1.6 E1839.01 F900
G1 X129.321 Y-28.8865 Z1.6 E1839.15 F900
G1 X138.98 Y-21.7967 Z1.6 E1843.94 F900
G1 X139.247 Y-21.5579 Z1.6 E1844.09 F900
G1 X139.472 Y-21.2575 Z1.6 E1844.24 F900
G1 X145.919 Y-10.5293 Z1.6 E1849.24 F900
G1 X146.079 Y-10.1899 Z1.6 E1849.39 F900
G1 X146.164 Y-9.84015 Z1.6 E1849.54 F900
G1 X147.888 Y2.08642 Z1.6 E1854.36 F900
G1 X147.904 Y2.44669 Z1.6 E1854.5 F900
G1 X147.853 Y2.79039 Z1.6 E1854.64 F900
G1 X147.725 Y3.14869 Z1.6 E1854.79 F900
G1 X144.814 Y14.7718 Z1.6 E1859.59 F900
G1 X144.637 Y15.0705 Z1.6 E1859.73 F900
G1 X137.547 Y24.7302 Z1.6 E1864.52 F900
G1 X137.316 Y24.9883 Z1.6 E1864.66 F900
G1 X126.597 Y31.4297 Z1.6 E1869.66 F900
G1 X125.929 Y31.8313 Z1.6 E1869.97 F900
G1 X125.59 Y31.9145 Z1.6 E1870.11 F900
G1 X113.664 Y33.6375 Z1.6 E1874.93 F900
G1 X113.303 Y33.6541 Z1.6 E1875.08 F900
G1 X112.949 Y33.6011 Z1.6 E1875.22 F900
G1 X101.325 Y30.6901 Z1.6 E1880.01 F900
G1 X100.988 Y30.5697 Z1.6 E1880.16 F900
G1 X100.679 Y30.3865 Z1.6 E1880.3 F900
G1 X91.0198 Y23.2967 Z1.6 E1885.09 F900
G1 X90.7617 Y23.0656 Z1.6 E1885.23 F900
G1 X84.3203 Y12.347 Z1.6 E1890.23 F900
G1 X83.9187 Y11.6787 Z1.6 E1890.54 F900
G1 X83.8382 Y11.3509 Z1.6 E1890.68 F900
G1 X83.8206 Y10.9687 Z1.6 E1890.83 F900
G1 X82.0975 Y-0.957709 Z1.6 E1895.65 F900
G1 X82.1473 Y-1.29039 Z1.6 E1895.79 F900
G1 X82.275 Y-1.64869 Z1.6 E1895.94 F900
G1 X85.1859 Y-13.2718 Z1.6 E1900.73 F900
G1 X85.3635 Y-13.5705 Z1.6 E1900.87 F900
G1 X92.4533 Y-23.2302 Z1.6 E1905.66 F900
G1 X92.6844 Y-23.4883 Z1.6 E1905.8 F900
G1 X103.403 Y-29.9297 Z1.6 E1910.8 F900
G1 X104.071 Y-30.3313 Z1.6 E1911.12 F900
G1 X104.41 Y-30.4145 Z1.6 E1911.26 F900
G1 X116.336 Y-32.1375 Z1.6 E1916.08 F900
G0 X116.645 Y-31.1507 Z1.6 F9000
G1 X116.796 Y-31.1281 Z1.6 E1916.14 F900
G1 X117.109 Y-31.0168 Z1.6 E1916.27 F900
G1 X128.637 Y-28.1296 Z1.6 E1921.02 F900
G1 X128.768 Y-28.0517 Z1.6 E1921.08 F900
G1 X138.349 Y-21.0192 Z1.6 E1925.84 F900
G1 X138.506 Y-20.8791 Z1.6 E1925.92 F900
G1 X138.641 Y-20.6989 Z1.6 E1926.01 F900
G1 X145.036 Y-10.0577 Z1.6 E1930.98 F900
G1 X145.131 Y-9.8544 Z1.6 E1931.07 F900
G1 X145.182 Y-9.64887 Z1.6 E1931.15 F900
G1 X146.891 Y2.18113 Z1.6 E1935.93 F900
G1 X146.901 Y2.39523 Z1.6 E1936.02 F900
G1 X146.878 Y2.5463 Z1.6 E1936.08 F900
G1 X146.767 Y2.85869 Z1.6 E1936.21 F900
G1 X143.88 Y14.3868 Z1.6 E1940.97 F900
G1 X143.802 Y14.5179 Z1.6 E1941.03 F900
G1 X136.769 Y24.0994 Z1.6 E1945.78 F900
G1 X136.671 Y24.2089 Z1.6 E1945.84 F900
G1 X126.082 Y30.5725 Z1.6 E1950.78 F900
G1 X125.543 Y30.8963 Z1.6 E1951.03 F900
G1 X125.399 Y30.9317 Z1.6 E1951.09 F900
G1 X113.569 Y32.6408 Z1.6 E1955.87 F900
G1 X113.355 Y32.6507 Z1.6 E1955.96 F900
G1 X113.145 Y32.6193 Z1.6 E1956.05 F900
G1 X101.615 Y29.7318 Z1.6 E1960.8 F900
G1 X101.415 Y29.6604 Z1.6 E1960.88 F900
G1 X101.232 Y29.5517 Z1.6 E1960.97 F900
G1 X91.6506 Y22.5192 Z1.6 E1965.72 F900
G1 X91.5411 Y22.4211 Z1.6 E1965.78 F900
G1 X85.1775 Y11.8319 Z1.6 E1970.72 F900
G1 X84.8351 Y11.2622 Z1.6 E1970.99 F900
G1 X84.8173 Y10.874 Z1.6 E1971.15 F900
G1 X83.1028 Y-0.992814 Z1.6 E1975.94 F900
G1 X83.2332 Y-1.35869 Z1.6 E1976.1 F900
G1 X86.1204 Y-12.8868 Z1.6 E1980.85 F900
G1 X86.1983 Y-13.0179 Z1.6 E1980.91 F900
G1 X93.2308 Y-22.5994 Z1.6 E1985.67 F900
G1 X93.3289 Y-22.7089 Z1.6 E1985.72 F900
G1 X103.918 Y-29.0725 Z1.6 E1990.67 F900
G1 X104.457 Y-29.3963 Z1.6 E1990.92 F900
G1 X104.601 Y-29.4317 Z1.6 E1990.98 F900
G1 X116.431 Y-31.1408 Z1.6 E1995.76 F900
G10
G0 X112.016 Y-29.9525 Z1.6 F9000
G11
G1 X112.175 Y-29.7934 Z1.6 E1995.8 F900
G1 X145.781 Y3.81203 Z1.6 E2004.35 F900
G1 X145.94 Y3.97113 Z1.6 E2004.39 F900
G10
G0 X142.945 Y14.8357 Z1.6 F9000
G11
G1 X142.786 Y14.6766 Z1.6 E2004.43 F900
G1 X101.397 Y-26.7119 Z1.6 E2014.97 F900
G1 X101.238 Y-26.871 Z1.6 E2015.01 F900
G10
G0 X92.9215 Y-21.3285 Z1.6 F9000
G11
G1 X93.0806 Y-21.1694 Z1.6 E2015.05 F900
G1 X136.919 Y22.6694 Z1.6 E2026.21 F900
G1 X137.079 Y22.8285 Z1.6 E2026.25 F900
G10
G0 X128.762 Y28.371 Z1.6 F9000
G11
G1 X128.603 Y28.2119 Z1.6 E2026.29 F900
G1 X87.2141 Y-13.1766 Z1.6 E2036.83 F900
G1 X87.055 Y-13.3357 Z1.6 E2036.87 F900
G10
G0 X84.0603 Y-2.47113 Z1.6 F9000
G11
G1 X84.2194 Y-2.31203 Z1.6 E2036.91 F900
G1 X117.825 Y31.2934 Z1.6 E2045.46 F900
G1 X117.984 Y31.4525 Z1.6 E2045.5 F900
G10
G0 X101.738 Y29.0663 Z1.6 F9000
G11
G1 X101.579 Y28.9073 Z1.6 E2045.54 F900
G1 X88.3113 Y15.6392 Z1.6 E2048.92 F900
G1 X88.1522 Y15.4801 Z1.6 E2048.96 F900
G10
G0 X128.262 Y-27.5663 Z1.6 F9000
G11
G1 X128.421 Y-27.4072 Z1.6 E2049 F900
G1 X141.81 Y-14.0182 Z1.6 E2052.41 F900
G1 X141.969 Y-13.8591 Z1.6 E2052.45 F900
G10
G0 X116.688 Y-31.9836 Z2 F9000
G11
G1 X117.115 Y-31.9198 Z2 E2052.62 F900
G1 X117.552 Y-31.764 Z2 E2052.81 F900
G1 X128.949 Y-28.9095 Z2 E2057.51 F900
G1 X129.32 Y-28.6892 Z2 E2057.68 F900
G1 X138.792 Y-21.737 Z2 E2062.38 F900
G1 X139.121 Y-21.4423 Z2 E2062.56 F900
G1 X139.399 Y-21.0717 Z2 E2062.74 F900
G1 X145.72 Y-10.5519 Z2 E2067.65 F900
G1 X145.917 Y-10.1332 Z2 E2067.84 F900
G1 X146.024 Y-9.70156 Z2 E2068.02 F900
G1 X147.713 Y1.99338 Z2 E2072.74 F900
G1 X147.734 Y2.4379 Z2 E2072.92 F900
G1 X147.67 Y2.86454 Z2 E2073.09 F900
G1 X147.514 Y3.30183 Z2 E2073.28 F900
G1 X144.66 Y14.6992 Z2 E2077.98 F900
G1 X144.439 Y15.07 Z2 E2078.15 F900
G1 X137.487 Y24.5421 Z2 E2082.85 F900
G1 X137.2 Y24.8627 Z2 E2083.02 F900
G1 X126.69 Y31.1788 Z2 E2087.93 F900
G1 X125.872 Y31.6703 Z2 E2088.31 F900
G1 X125.452 Y31.7736 Z2 E2088.48 F900
G1 X113.757 Y33.4632 Z2 E2093.21 F900
G1 X113.312 Y33.4836 Z2 E2093.39 F900
G1 X112.875 Y33.4182 Z2 E2093.56 F900
G1 X101.477 Y30.5637 Z2 E2098.26 F900
G1 X101.06 Y30.4152 Z2 E2098.44 F900
G1 X100.68 Y30.1892 Z2 E2098.62 F900
G1 X91.2079 Y23.237 Z2 E2103.32 F900
G1 X90.8873 Y22.95 Z2 E2103.49 F900
G1 X84.5712 Y12.4397 Z2 E2108.39 F900
G1 X84.0797 Y11.622 Z2 E2108.78 F900
G1 X83.9791 Y11.2123 Z2 E2108.94 F900
G1 X83.9576 Y10.7459 Z2 E2109.13 F900
G1 X82.268 Y-0.948917 Z2 E2113.86 F900
G1 X82.3302 Y-1.36454 Z2 E2114.03 F900
G1 X82.486 Y-1.80183 Z2 E2114.21 F900
G1 X85.3405 Y-13.1992 Z2 E2118.91 F900
G1 X85.5608 Y-13.57 Z2 E2119.08 F900
G1 X92.513 Y-23.0421 Z2 E2123.78 F900
G1 X92.8 Y-23.3627 Z2 E2123.96 F900
G1 X103.31 Y-29.6788 Z2 E2128.86 F900
G1 X104.128 Y-30.1703 Z2 E2129.24 F900
G1 X104.548 Y-30.2736 Z2 E2129.42 F900
G1 X116.243 Y-31.9632 Z2 E2134.14 F900
G0 X116.636 Y-30.9802 Z2 F9000
G1 X116.87 Y-30.9452 Z2 E2134.24 F900
G1 X117.262 Y-30.8057 Z2 E2134.4 F900
G1 X128.564 Y-27.9751 Z2 E2139.06 F900
G1 X128.767 Y-27.8543 Z2 E2139.16 F900
G1 X138.161 Y-20.9596 Z2 E2143.82 F900
G1 X138.38 Y-20.7635 Z2 E2143.94 F900
G1 X138.568 Y-20.5132 Z2 E2144.06 F900
G1 X144.837 Y-10.0803 Z2 E2148.93 F900
G1 X144.97 Y-9.79771 Z2 E2149.06 F900
G1 X145.041 Y-9.51028 Z2 E2149.17 F900
G1 X146.716 Y2.08808 Z2 E2153.86 F900
G1 X146.73 Y2.38644 Z2 E2153.98 F900
G1 X146.695 Y2.62045 Z2 E2154.08 F900
G1 X146.556 Y3.01183 Z2 E2154.24 F900
G1 X143.725 Y14.3142 Z2 E2158.9 F900
G1 X143.604 Y14.5174 Z2 E2159 F900
G1 X136.71 Y23.9113 Z2 E2163.66 F900
G1 X136.556 Y24.0833 Z2 E2163.75 F900
G1 X126.175 Y30.3217 Z2 E2168.59 F900
G1 X125.486 Y30.7352 Z2 E2168.92 F900
G1 X125.26 Y30.7908 Z2 E2169.01 F900
G1 X113.662 Y32.4665 Z2 E2173.7 F900
G1 X113.364 Y32.4802 Z2 E2173.82 F900
G1 X113.071 Y32.4364 Z2 E2173.93 F900
G1 X101.767 Y29.6055 Z2 E2178.6 F900
G1 X101.488 Y29.5059 Z2 E2178.71 F900
G1 X101.233 Y29.3543 Z2 E2178.83 F900
G1 X91.8387 Y22.4596 Z2 E2183.49 F900
G1 X91.6667 Y22.3056 Z2 E2183.59 F900
G1 X85.4283 Y11.9246 Z2 E2188.43 F900
G1 X85.0148 Y11.2365 Z2 E2188.75 F900
G1 X84.9735 Y11.0686 Z2 E2188.82 F900
G1 X84.9543 Y10.6512 Z2 E2188.99 F900
G1 X83.2788 Y-0.946399 Z2 E2193.68 F900
G1 X83.3048 Y-1.12045 Z2 E2193.75 F900
G1 X83.4443 Y-1.51183 Z2 E2193.91 F900
G1 X86.2749 Y-12.8142 Z2 E2198.57 F900
G1 X86.3957 Y-13.0174 Z2 E2198.67 F900
G1 X93.2904 Y-22.4113 Z2 E2203.33 F900
G1 X93.4444 Y-22.5833 Z2 E2203.42 F900
G1 X103.825 Y-28.8217 Z2 E2208.26 F900
G1 X104.514 Y-29.2352 Z2 E2208.59 F900
G1 X104.74 Y-29.2908 Z2 E2208.68 F900
G1 X116.338 Y-30.9665 Z2 E2213.37 F900
G10
G0 X112.157 Y-29.8119 Z2 F9000
G11
G1 X112.316 Y-29.6528 Z2 E2213.41 F900
G1 X145.643 Y3.67392 Z2 E2221.89 F900
G1 X145.802 Y3.83302 Z2 E2221.93 F900
G10
G0 X142.831 Y14.7217 Z2 F9000
G11
G1 X142.672 Y14.5626 Z2 E2221.97 F900
G1 X101.519 Y-26.59 Z2 E2232.45 F900
G1 X101.36 Y-26.7491 Z2 E2232.49 F900
G10
G0 X93.0355 Y-21.2145 Z2 F9000
G11
G1 X93.1946 Y-21.0554 Z2 E2232.53 F900
G1 X136.805 Y22.5554 Z2 E2243.63 F900
G1 X136.964 Y22.7145 Z2 E2243.67 F900
G10
G0 X128.64 Y28.2491 Z2 F9000
G11
G1 X128.481 Y28.09 Z2 E2243.71 F900
G1 X87.3281 Y-13.0626 Z2 E2254.19 F900
G1 X87.169 Y-13.2217 Z2 E2254.23 F900
G10
G0 X84.1984 Y-2.33302 Z2 F9000
G11
G1 X84.3575 Y-2.17392 Z2 E2254.27 F900
G1 X117.684 Y31.1528 Z2 E2262.75 F900
G1 X117.843 Y31.3119 Z2 E2262.79 F900
G10
G0 X100.995 Y28.3231 Z2 F9000
G11
G1 X100.836 Y28.164 Z2 E2262.83 F900
G1 X88.8002 Y16.1281 Z2 E2265.9 F900
G1 X88.6411 Y15.969 Z2 E2265.94 F900
G10
G0 X129.005 Y-26.8231 Z2 F9000
G11
G1 X129.164 Y-26.664 Z2 E2265.98 F900
G1 X141.347 Y-14.4812 Z2 E2269.08 F900
G1 X141.506 Y-14.3221 Z2 E2269.12 F900
G10
G0 X116.679 Y-31.8131 Z2.4 F9000
G11
G1 X117.189 Y-31.7369 Z2.4 E2269.33 F900
G1 X117.705 Y-31.5529 Z2.4 E2269.54 F900
G1 X128.877 Y-28.755 Z2.4 E2274.15 F900
G1 X129.319 Y-28.4918 Z2.4 E2274.36 F900
G1 X138.604 Y-21.6774 Z2.4 E2278.96 F900
G1 X138.996 Y-21.3267 Z2.4 E2279.17 F900
G1 X139.325 Y-20.886 Z2.4 E2279.39 F900
G1 X145.522 Y-10.5745 Z2.4 E2284.21 F900
G1 X145.756 Y-10.0765 Z2.4 E2284.43 F900
G1 X145.883 Y-9.56297 Z2.4 E2284.64 F900
G1 X147.539 Y1.90034 Z2.4 E2289.27 F900
G1 X147.563 Y2.42911 Z2.4 E2289.48 F900
G1 X147.487 Y2.93868 Z2.4 E2289.69 F900
G1 X147.303 Y3.45497 Z2.4 E2289.91 F900
G1 X144.505 Y14.6266 Z2.4 E2294.51 F900
G1 X144.242 Y15.0695 Z2.4 E2294.72 F900
G1 X137.427 Y24.3539 Z2.4 E2299.33 F900
G1 X137.084 Y24.7371 Z2.4 E2299.53 F900
G1 X126.783 Y30.928 Z2.4 E2304.34 F900
G1 X125.815 Y31.5092 Z2.4 E2304.79 F900
G1 X125.313 Y31.6327 Z2.4 E2305 F900
G1 X113.85 Y33.2888 Z2.4 E2309.63 F900
G1 X113.321 Y33.3131 Z2.4 E2309.84 F900
G1 X112.8 Y33.2353 Z2.4 E2310.05 F900
G1 X101.629 Y30.4374 Z2.4 E2314.66 F900
G1 X101.133 Y30.2607 Z2.4 E2314.87 F900
G1 X100.681 Y29.9918 Z2.4 E2315.08 F900
G1 X91.3961 Y23.1774 Z2.4 E2319.69 F900
G1 X91.0129 Y22.8344 Z2.4 E2319.89 F900
G1 X84.822 Y12.5325 Z2.4 E2324.7 F900
G1 X84.2408 Y11.5653 Z2.4 E2325.15 F900
G1 X84.12 Y11.0737 Z2.4 E2325.36 F900
G1 X84.0946 Y10.523 Z2.4 E2325.58 F900
G1 X82.4385 Y-0.940126 Z2.4 E2330.21 F900
G1 X82.5131 Y-1.43868 Z2.4 E2330.41 F900
G1 X82.6971 Y-1.95497 Z2.4 E2330.63 F900
G1 X85.495 Y-13.1266 Z2.4 E2335.24 F900
G1 X85.7582 Y-13.5695 Z2.4 E2335.44 F900
G1 X92.5726 Y-22.8539 Z2.4 E2340.05 F900
G1 X92.9156 Y-23.2371 Z2.4 E2340.26 F900
G1 X103.217 Y-29.428 Z2.4 E2345.06 F900
G1 X104.185 Y-30.0092 Z2.4 E2345.51 F900
G1 X104.687 Y-30.1327 Z2.4 E2345.72 F900
G1 X116.15 Y-31.7888 Z2.4 E2350.35 F900
G0 X116.628 Y-30.8097 Z2.4 F9000
G1 X116.945 Y-30.7623 Z2.4 E2350.48 F900
G1 X117.415 Y-30.5947 Z2.4 E2350.68 F900
G1 X128.492 Y-27.8206 Z2.4 E2355.25 F900
G1 X128.767 Y-27.657 Z2.4 E2355.38 F900
G1 X137.973 Y-20.8999 Z2.4 E2359.95 F900
G1 X138.255 Y-20.6479 Z2.4 E2360.1 F900
G1 X138.494 Y-20.3274 Z2.4 E2360.26 F900
G1 X144.639 Y-10.1029 Z2.4 E2365.03 F900
G1 X144.809 Y-9.74102 Z2.4 E2365.19 F900
G1 X144.9 Y-9.3717 Z2.4 E2365.34 F900
G1 X146.542 Y1.99504 Z2.4 E2369.93 F900
G1 X146.56 Y2.37766 Z2.4 E2370.09 F900
G1 X146.512 Y2.69459 Z2.4 E2370.22 F900
G1 X146.345 Y3.16496 Z2.4 E2370.42 F900
G1 X143.571 Y14.2416 Z2.4 E2374.98 F900
G1 X143.407 Y14.5169 Z2.4 E2375.11 F900
G1 X136.65 Y23.7231 Z2.4 E2379.68 F900
G1 X136.44 Y23.9577 Z2.4 E2379.8 F900
G1 X126.267 Y30.0708 Z2.4 E2384.55 F900
G1 X125.43 Y30.5742 Z2.4 E2384.94 F900
G1 X125.122 Y30.6499 Z2.4 E2385.07 F900
G1 X113.755 Y32.2921 Z2.4 E2389.66 F900
G1 X113.372 Y32.3097 Z2.4 E2389.82 F900
G1 X112.996 Y32.2535 Z2.4 E2389.97 F900
G1 X101.919 Y29.4791 Z2.4 E2394.54 F900
G1 X101.56 Y29.3514 Z2.4 E2394.69 F900
G1 X101.233 Y29.157 Z2.4 E2394.84 F900
G1 X92.0269 Y22.3999 Z2.4 E2399.41 F900
G1 X91.7923 Y22.19 Z2.4 E2399.54 F900
G1 X85.6792 Y12.0174 Z2.4 E2404.28 F900
G1 X85.1758 Y11.1798 Z2.4 E2404.67 F900
G1 X85.1144 Y10.93 Z2.4 E2404.78 F900
G1 X85.0913 Y10.4283 Z2.4 E2404.98 F900
G1 X83.4493 Y-0.937613 Z2.4 E2409.57 F900
G1 X83.4877 Y-1.19459 Z2.4 E2409.67 F900
G1 X83.6553 Y-1.66496 Z2.4 E2409.87 F900
G1 X86.4294 Y-12.7416 Z2.4 E2414.44 F900
G1 X86.593 Y-13.0169 Z2.4 E2414.57 F900
G1 X93.3501 Y-22.2231 Z2.4 E2419.14 F900
G1 X93.56 Y-22.4577 Z2.4 E2419.26 F900
G1 X103.733 Y-28.5708 Z2.4 E2424.01 F900
G1 X104.57 Y-29.0742 Z2.4 E2424.4 F900
G1 X104.878 Y-29.1499 Z2.4 E2424.53 F900
G1 X116.245 Y-30.7921 Z2.4 E2429.12 F900
G10
G0 X112.297 Y-29.6713 Z2.4 F9000
G11
G1 X112.456 Y-29.5122 Z2.4 E2429.16 F900
G1 X145.504 Y3.53582 Z2.4 E2437.58 F900
G1 X145.664 Y3.69492 Z2.4 E2437.62 F900
G10
G0 X142.717 Y14.6076 Z2.4 F9000
G11
G1 X142.558 Y14.4485 Z2.4 E2437.66 F900
G1 X101.641 Y-26.4681 Z2.4 E2448.07 F900
G1 X101.482 Y-26.6272 Z2.4 E2448.11 F900
G10
G0 X93.1495 Y-21.1005 Z2.4 F9000
G11
G1 X93.3086 Y-20.9414 Z2.4 E2448.15 F900
G1 X136.691 Y22.4414 Z2.4 E2459.2 F900
G1 X136.85 Y22.6005 Z2.4 E2459.24 F900
G10
G0 X128.518 Y28.1272 Z2.4 F9000
G11
G1 X128.359 Y27.9681 Z2.4 E2459.28 F900
G1 X87.4422 Y-12.9485 Z2.4 E2469.69 F900
G1 X87.2831 Y-13.1076 Z2.4 E2469.73 F900
G10
G0 X84.3365 Y-2.19492 Z2.4 F9000
G11
G1 X84.4956 Y-2.03582 Z2.4 E2469.77 F900
G1 X117.544 Y31.0122 Z2.4 E2478.19 F900
G1 X117.703 Y31.1713 Z2.4 E2478.23 F900
G10
G0 X100.252 Y27.5798 Z2.4 F9000
G11
G1 X100.093 Y27.4207 Z2.4 E2478.27 F900
G1 X89.2891 Y16.617 Z2.4 E2481.02 F900
G1 X89.13 Y16.4579 Z2.4 E2481.06 F900
G10
G0 X129.748 Y-26.0799 Z2.4 F9000
G11
G1 X129.907 Y-25.9208 Z2.4 E2481.1 F900
G1 X140.884 Y-14.9442 Z2.4 E2483.89 F900
G1 X141.043 Y-14.7851 Z2.4 E2483.93 F900
G10
G0 X116.67 Y-31.6426 Z2.8 F9000
G11
G1 X117.263 Y-31.554 Z2.8 E2484.17 F900
G1 X117.858 Y-31.3419 Z2.8 E2484.43 F900
G1 X128.804 Y-28.6005 Z2.8 E2488.94 F900
G1 X129.319 Y-28.2945 Z2.8 E2489.18 F900
G1 X138.416 Y-21.6177 Z2.8 E2493.69 F900
G1 X138.87 Y-21.2111 Z2.8 E2493.94 F900
G1 X139.252 Y-20.7003 Z2.8 E2494.19 F900
G1 X145.324 Y-10.5971 Z2.8 E2498.91 F900
G1 X145.595 Y-10.0198 Z2.8 E2499.16 F900
G1 X145.742 Y-9.42438 Z2.8 E2499.41 F900
G1 X147.364 Y1.8073 Z2.8 E2503.95 F900
G1 X147.393 Y2.42032 Z2.8 E2504.19 F900
G1 X147.304 Y3.01283 Z2.8 E2504.43 F900
G1 X147.092 Y3.6081 Z2.8 E2504.69 F900
G1 X144.351 Y14.554 Z2.8 E2509.2 F900
G1 X144.044 Y15.069 Z2.8 E2509.44 F900
G1 X137.368 Y24.1658 Z2.8 E2513.95 F900
G1 X136.969 Y24.6114 Z2.8 E2514.19 F900
G1 X126.875 Y30.6771 Z2.8 E2518.9 F900
G1 X125.759 Y31.3482 Z2.8 E2519.42 F900
G1 X125.174 Y31.4918 Z2.8 E2519.66 F900
G1 X113.943 Y33.1144 Z2.8 E2524.2 F900
G1 X113.33 Y33.1426 Z2.8 E2524.45 F900
G1 X112.726 Y33.0524 Z2.8 E2524.69 F900
G1 X101.78 Y30.311 Z2.8 E2529.21 F900
G1 X101.206 Y30.1062 Z2.8 E2529.45 F900
G1 X100.681 Y29.7945 Z2.8 E2529.69 F900
G1 X91.5842 Y23.1177 Z2.8 E2534.21 F900
G1 X91.1386 Y22.7188 Z2.8 E2534.45 F900
G1 X85.0729 Y12.6253 Z2.8 E2539.16 F900
G1 X84.4018 Y11.5086 Z2.8 E2539.68 F900
G1 X84.2609 Y10.9351 Z2.8 E2539.91 F900
G1 X84.2317 Y10.3002 Z2.8 E2540.17 F900
G1 X82.609 Y-0.931336 Z2.8 E2544.71 F900
G1 X82.696 Y-1.51283 Z2.8 E2544.94 F900
G1 X82.9081 Y-2.1081 Z2.8 E2545.2 F900
G1 X85.6495 Y-13.054 Z2.8 E2549.71 F900
G1 X85.9555 Y-13.569 Z2.8 E2549.95 F900
G1 X92.6323 Y-22.6658 Z2.8 E2554.46 F900
G1 X93.0312 Y-23.1114 Z2.8 E2554.7 F900
G1 X103.125 Y-29.1771 Z2.8 E2559.41 F900
G1 X104.241 Y-29.8482 Z2.8 E2559.93 F900
G1 X104.826 Y-29.9918 Z2.8 E2560.17 F900
G1 X116.057 Y-31.6144 Z2.8 E2564.71 F900
G0 X116.619 Y-30.6392 Z2.8 F9000
G1 X117.019 Y-30.5794 Z2.8 E2564.88 F900
G1 X117.568 Y-30.3836 Z2.8 E2565.11 F900
G1 X128.419 Y-27.6661 Z2.8 E2569.58 F900
G1 X128.766 Y-27.4596 Z2.8 E2569.74 F900
G1 X137.785 Y-20.8402 Z2.8 E2574.22 F900
G1 X138.129 Y-20.5323 Z2.8 E2574.4 F900
G1 X138.421 Y-20.1417 Z2.8 E2574.6 F900
G1 X144.441 Y-10.1255 Z2.8 E2579.27 F900
G1 X144.648 Y-9.68434 Z2.8 E2579.47 F900
G1 X144.759 Y-9.23311 Z2.8 E2579.65 F900
G1 X146.368 Y1.90199 Z2.8 E2584.15 F900
G1 X146.389 Y2.36886 Z2.8 E2584.34 F900
G1 X146.329 Y2.76873 Z2.8 E2584.5 F900
G1 X146.134 Y3.3181 Z2.8 E2584.74 F900
G1 X143.416 Y14.169 Z2.8 E2589.21 F900
G1 X143.21 Y14.5164 Z2.8 E2589.37 F900
G1 X136.59 Y23.535 Z2.8 E2593.85 F900
G1 X136.324 Y23.832 Z2.8 E2594.01 F900
G1 X126.36 Y29.82 Z2.8 E2598.66 F900
G1 X125.373 Y30.4132 Z2.8 E2599.12 F900
G1 X124.983 Y30.509 Z2.8 E2599.28 F900
G1 X113.848 Y32.1177 Z2.8 E2603.78 F900
G1 X113.381 Y32.1392 Z2.8 E2603.97 F900
G1 X112.922 Y32.0706 Z2.8 E2604.15 F900
G1 X102.07 Y29.3527 Z2.8 E2608.63 F900
G1 X101.633 Y29.1969 Z2.8 E2608.81 F900
G1 X101.234 Y28.9596 Z2.8 E2609 F900
G1 X92.215 Y22.3402 Z2.8 E2613.47 F900
G1 X91.918 Y22.0744 Z2.8 E2613.63 F900
G1 X85.93 Y12.1102 Z2.8 E2618.28 F900
G1 X85.3368 Y11.1231 Z2.8 E2618.74 F900
G1 X85.2553 Y10.7914 Z2.8 E2618.88 F900
G1 X85.2284 Y10.2055 Z2.8 E2619.11 F900
G1 X83.6198 Y-0.92882 Z2.8 E2623.61 F900
G1 X83.6706 Y-1.26873 Z2.8 E2623.75 F900
G1 X83.8664 Y-1.8181 Z2.8 E2623.98 F900
G1 X86.5839 Y-12.669 Z2.8 E2628.46 F900
G1 X86.7904 Y-13.0164 Z2.8 E2628.62 F900
G1 X93.4098 Y-22.035 Z2.8 E2633.1 F900
G1 X93.6756 Y-22.332 Z2.8 E2633.25 F900
G1 X103.64 Y-28.32 Z2.8 E2637.9 F900
G1 X104.627 Y-28.9132 Z2.8 E2638.37 F900
G1 X105.017 Y-29.009 Z2.8 E2638.53 F900
G1 X116.152 Y-30.6177 Z2.8 E2643.03 F900
G10
G0 X112.438 Y-29.5307 Z2.8 F9000
G11
G1 X112.597 Y-29.3716 Z2.8 E2643.07 F900
G1 X145.366 Y3.39771 Z2.8 E2651.41 F900
G1 X145.525 Y3.55681 Z2.8 E2651.45 F900
G10
G0 X142.603 Y14.4936 Z2.8 F9000
G11
G1 X142.444 Y14.3345 Z2.8 E2651.49 F900
G1 X101.763 Y-26.3463 Z2.8 E2661.85 F900
G1 X101.604 Y-26.5054 Z2.8 E2661.89 F900
G10
G0 X93.2636 Y-20.9864 Z2.8 F9000
G11
G1 X93.4227 Y-20.8273 Z2.8 E2661.93 F900
G1 X136.577 Y22.3273 Z2.8 E2672.91 F900
G1 X136.736 Y22.4864 Z2.8 E2672.95 F900
G10
G0 X128.396 Y28.0054 Z2.8 F9000
G11
G1 X128.237 Y27.8463 Z2.8 E2672.99 F900
G1 X87.5562 Y-12.8345 Z2.8 E2683.35 F900
G1 X87.3971 Y-12.9936 Z2.8 E2683.39 F900
G10
G0 X84.4746 Y-2.05681 Z2.8 F9000
G11
G1 X84.6337 Y-1.89771 Z2.8 E2683.43 F900
G1 X117.403 Y30.8716 Z2.8 E2691.77 F900
G1 X117.562 Y31.0307 Z2.8 E2691.81 F900
G10
G0 X99.5087 Y26.8366 Z2.8 F9000
G11
G1 X99.3496 Y26.6775 Z2.8 E2691.85 F900
G1 X89.778 Y17.1059 Z2.8 E2694.29 F900
G1 X89.6189 Y16.9468 Z2.8 E2694.33 F900
G10
G0 X130.491 Y-25.3366 Z2.8 F9000
G11
G1 X130.65 Y-25.1775 Z2.8 E2694.37 F900
G1 X140.421 Y-15.4072 Z2.8 E2696.86 F900
G1 X140.58 Y-15.2481 Z2.8 E2696.9 F900
G10
G0 X116.662 Y-31.4721 Z3.2 F9000
G11
G1 X117.337 Y-31.3711 Z3.2 E2697.17 F900
G1 X118.011 Y-31.1308 Z3.2 E2697.46 F900
G1 X128.731 Y-28.446 Z3.2 E2701.88 F900
G1 X129.318 Y-28.0971 Z3.2 E2702.15 F900
G1 X138.228 Y-21.558 Z3.2 E2706.57 F900
G1 X138.744 Y-21.0955 Z3.2 E2706.85 F900
G1 X139.179 Y-20.5145 Z3.2 E2707.14 F900
G1 X145.125 Y-10.6198 Z3.2 E2711.76 F900
G1 X145.434 Y-9.96316 Z3.2 E2712.05 F900
G1 X145.601 Y-9.28579 Z3.2 E2712.33 F900
G1 X147.19 Y1.71426 Z3.2 E2716.77 F900
G1 X147.222 Y2.41153 Z3.2 E2717.05 F900
G1 X147.121 Y3.08697 Z3.2 E2717.32 F900
G1 X146.881 Y3.76124 Z3.2 E2717.61 F900
G1 X144.196 Y14.4814 Z3.2 E2722.03 F900
G1 X143.847 Y15.0684 Z3.2 E2722.3 F900
G1 X137.308 Y23.9777 Z3.2 E2726.72 F900
G1 X136.853 Y24.4858 Z3.2 E2727 F900
G1 X126.968 Y30.4263 Z3.2 E2731.61 F900
G1 X125.702 Y31.1872 Z3.2 E2732.2 F900
G1 X125.036 Y31.3509 Z3.2 E2732.48 F900
G1 X114.036 Y32.9401 Z3.2 E2736.92 F900
G1 X113.338 Y32.9721 Z3.2 E2737.2 F900
G1 X112.652 Y32.8695 Z3.2 E2737.48 F900
G1 X101.932 Y30.1846 Z3.2 E2741.9 F900
G1 X101.278 Y29.9517 Z3.2 E2742.18 F900
G1 X100.682 Y29.5971 Z3.2 E2742.45 F900
G1 X91.7723 Y23.058 Z3.2 E2746.87 F900
G1 X91.2642 Y22.6033 Z3.2 E2747.15 F900
G1 X85.3237 Y12.7181 Z3.2 E2751.76 F900
G1 X84.5628 Y11.4519 Z3.2 E2752.35 F900
G1 X84.4018 Y10.7965 Z3.2 E2752.62 F900
G1 X84.3687 Y10.0773 Z3.2 E2752.91 F900
G1 X82.7795 Y-0.922545 Z3.2 E2757.35 F900
G1 X82.8789 Y-1.58697 Z3.2 E2757.62 F900
G1 X83.1192 Y-2.26124 Z3.2 E2757.91 F900
G1 X85.804 Y-12.9814 Z3.2 E2762.33 F900
G1 X86.1529 Y-13.5684 Z3.2 E2762.6 F900
G1 X92.692 Y-22.4777 Z3.2 E2767.02 F900
G1 X93.1467 Y-22.9858 Z3.2 E2767.3 F900
G1 X103.032 Y-28.9263 Z3.2 E2771.91 F900
G1 X104.298 Y-29.6872 Z3.2 E2772.5 F900
G1 X104.964 Y-29.8509 Z3.2 E2772.77 F900
G1 X115.964 Y-31.4401 Z3.2 E2777.22 F900
G0 X116.61 Y-30.4687 Z3.2 F9000
G1 X117.093 Y-30.3965 Z3.2 E2777.42 F900
G1 X117.721 Y-30.1726 Z3.2 E2777.68 F900
G1 X128.346 Y-27.5116 Z3.2 E2782.06 F900
G1 X128.766 Y-27.2623 Z3.2 E2782.26 F900
G1 X137.597 Y-20.7806 Z3.2 E2786.64 F900
G1 X138.003 Y-20.4168 Z3.2 E2786.86 F900
G1 X138.348 Y-19.956 Z3.2 E2787.09 F900
G1 X144.242 Y-10.1481 Z3.2 E2791.67 F900
G1 X144.487 Y-9.62765 Z3.2 E2791.9 F900
G1 X144.618 Y-9.09451 Z3.2 E2792.12 F900
G1 X146.193 Y1.80895 Z3.2 E2796.52 F900
G1 X146.219 Y2.36007 Z3.2 E2796.74 F900
G1 X146.147 Y2.84288 Z3.2 E2796.94 F900
G1 X145.923 Y3.47124 Z3.2 E2797.21 F900
G1 X143.262 Y14.0964 Z3.2 E2801.59 F900
G1 X143.012 Y14.5158 Z3.2 E2801.78 F900
G1 X136.531 Y23.3469 Z3.2 E2806.16 F900
G1 X136.209 Y23.7064 Z3.2 E2806.36 F900
G1 X126.453 Y29.5691 Z3.2 E2810.91 F900
G1 X125.316 Y30.2521 Z3.2 E2811.44 F900
G1 X124.845 Y30.3681 Z3.2 E2811.63 F900
G1 X113.941 Y31.9434 Z3.2 E2816.04 F900
G1 X113.39 Y31.9687 Z3.2 E2816.26 F900
G1 X112.848 Y31.8877 Z3.2 E2816.48 F900
G1 X102.222 Y29.2264 Z3.2 E2820.86 F900
G1 X101.705 Y29.0423 Z3.2 E2821.08 F900
G1 X101.234 Y28.7623 Z3.2 E2821.3 F900
G1 X92.4031 Y22.2806 Z3.2 E2825.68 F900
G1 X92.0436 Y21.9588 Z3.2 E2825.88 F900
G1 X86.1809 Y12.203 Z3.2 E2830.43 F900
G1 X85.4979 Y11.0664 Z3.2 E2830.96 F900
G1 X85.3962 Y10.6528 Z3.2 E2831.13 F900
G1 X85.3654 Y9.98265 Z3.2 E2831.4 F900
G1 X83.7902 Y-0.92003 Z3.2 E2835.8 F900
G1 X83.8535 Y-1.34288 Z3.2 E2835.98 F900
G1 X84.0774 Y-1.97124 Z3.2 E2836.24 F900
G1 X86.7384 Y-12.5964 Z3.2 E2840.62 F900
G1 X86.9877 Y-13.0158 Z3.2 E2840.82 F900
G1 X93.4694 Y-21.8469 Z3.2 E2845.2 F900
G1 X93.7912 Y-22.2064 Z3.2 E2845.39 F900
G1 X103.547 Y-28.0691 Z3.2 E2849.95 F900
G1 X104.684 Y-28.7521 Z3.2 E2850.48 F900
G1 X105.155 Y-28.8681 Z3.2 E2850.67 F900
G1 X116.059 Y-30.4434 Z3.2 E2855.08 F900
G10
G0 X112.578 Y-29.3901 Z3.2 F9000
G11
G1 X112.738 Y-29.231 Z3.2 E2855.12 F900
G1 X145.228 Y3.25972 Z3.2 E2863.39 F900
G1 X145.387 Y3.41881 Z3.2 E2863.43 F900
G10
G0 X142.489 Y14.3796 Z3.2 F9000
G11
G1 X142.33 Y14.2205 Z3.2 E2863.47 F900
G1 X101.885 Y-26.2244 Z3.2 E2873.77 F900
G1 X101.726 Y-26.3835 Z3.2 E2873.81 F900
G10
G0 X93.3776 Y-20.8724 Z3.2 F9000
G11
G1 X93.5367 Y-20.7133 Z3.2 E2873.85 F900
G1 X136.463 Y22.2133 Z3.2 E2884.77 F900
G1 X136.622 Y22.3724 Z3.2 E2884.81 F900
G10
G0 X128.274 Y27.8835 Z3.2 F9000
G11
G1 X128.115 Y27.7244 Z3.2 E2884.85 F900
G1 X87.6702 Y-12.7205 Z3.2 E2895.15 F900
G1 X87.5111 Y-12.8796 Z3.2 E2895.19 F900
G10
G0 X84.6126 Y-1.91881 Z3.2 F9000
G11
G1 X84.7717 Y-1.75972 Z3.2 E2895.23 F900
G1 X117.262 Y30.731 Z3.2 E2903.5 F900
G1 X117.422 Y30.8901 Z3.2 E2903.54 F900
G10
G0 X98.7655 Y26.0933 Z3.2 F9000
G11
G1 X98.6064 Y25.9342 Z3.2 E2903.58 F900
G1 X90.2669 Y17.5948 Z3.2 E2905.71 F900
G1 X90.1078 Y17.4357 Z3.2 E2905.75 F900
G10
G0 X131.235 Y-24.5933 Z3.2 F9000
G11
G1 X131.394 Y-24.4342 Z3.2 E2905.79 F900
G1 X139.958 Y-15.8702 Z3.2 E2907.97 F900
G1 X140.117 Y-15.7111 Z3.2 E2908.01 F900
G10
G0 X116.653 Y-31.3017 Z3.6 F9000
G11
G1 X117.411 Y-31.1882 Z3.6 E2908.31 F900
G1 X118.164 Y-30.9198 Z3.6 E2908.63 F900
G1 X128.659 Y-28.2915 Z3.6 E2912.96 F900
G1 X129.318 Y-27.8998 Z3.6 E2913.27 F900
G1 X138.04 Y-21.4984 Z3.6 E2917.6 F900
G1 X138.619 Y-20.9799 Z3.6 E2917.91 F900
G1 X139.106 Y-20.3288 Z3.6 E2918.23 F900
G1 X144.927 Y-10.6424 Z3.6 E2922.75 F900
G1 X145.273 Y-9.90647 Z3.6 E2923.08 F900
G1 X145.46 Y-9.1472 Z3.6 E2923.39 F900
G1 X147.016 Y1.62121 Z3.6 E2927.74 F900
G1 X147.052 Y2.40274 Z3.6 E2928.06 F900
G1 X146.938 Y3.16111 Z3.6 E2928.36 F900
G1 X146.67 Y3.91438 Z3.6 E2928.68 F900
G1 X144.042 Y14.4088 Z3.6 E2933.01 F900
G1 X143.65 Y15.0679 Z3.6 E2933.32 F900
G1 X137.248 Y23.7896 Z3.6 E2937.64 F900
G1 X136.738 Y24.3602 Z3.6 E2937.95 F900
G1 X127.061 Y30.1754 Z3.6 E2942.47 F900
G1 X125.645 Y31.0261 Z3.6 E2943.13 F900
G1 X124.897 Y31.21 Z3.6 E2943.43 F900
G1 X114.129 Y32.7657 Z3.6 E2947.79 F900
G1 X113.347 Y32.8017 Z3.6 E2948.1 F900
G1 X112.578 Y32.6866 Z3.6 E2948.41 F900
G1 X102.083 Y30.0583 Z3.6 E2952.74 F900
G1 X101.351 Y29.7972 Z3.6 E2953.05 F900
G1 X100.682 Y29.3998 Z3.6 E2953.36 F900
G1 X91.9604 Y22.9984 Z3.6 E2957.69 F900
G1 X91.3898 Y22.4877 Z3.6 E2957.99 F900
G1 X85.5746 Y12.8108 Z3.6 E2962.51 F900
G1 X84.7239 Y11.3952 Z3.6 E2963.17 F900
G1 X84.5427 Y10.6579 Z3.6 E2963.47 F900
G1 X84.5057 Y9.85451 Z3.6 E2963.8 F900
G1 X82.95 Y-0.913754 Z3.6 E2968.15 F900
G1 X83.0618 Y-1.66111 Z3.6 E2968.45 F900
G1 X83.3302 Y-2.41438 Z3.6 E2968.77 F900
G1 X85.9585 Y-12.9088 Z3.6 E2973.1 F900
G1 X86.3502 Y-13.5679 Z3.6 E2973.4 F900
G1 X92.7516 Y-22.2896 Z3.6 E2977.73 F900
G1 X93.2623 Y-22.8602 Z3.6 E2978.04 F900
G1 X102.939 Y-28.6754 Z3.6 E2982.55 F900
G1 X104.355 Y-29.5261 Z3.6 E2983.21 F900
G1 X105.103 Y-29.71 Z3.6 E2983.52 F900
G1 X115.871 Y-31.2657 Z3.6 E2987.87 F900
G0 X116.601 Y-30.2982 Z3.6 F9000
G1 X117.167 Y-30.2136 Z3.6 E2988.1 F900
G1 X117.874 Y-29.9615 Z3.6 E2988.4 F900
G1 X128.274 Y-27.357 Z3.6 E2992.69 F900
G1 X128.765 Y-27.0649 Z3.6 E2992.92 F900
G1 X137.409 Y-20.7209 Z3.6 E2997.21 F900
G1 X137.878 Y-20.3012 Z3.6 E2997.46 F900
G1 X138.275 Y-19.7702 Z3.6 E2997.73 F900
G1 X144.044 Y-10.1707 Z3.6 E3002.21 F900
G1 X144.326 Y-9.57096 Z3.6 E3002.47 F900
G1 X144.477 Y-8.95593 Z3.6 E3002.72 F900
G1 X146.019 Y1.71591 Z3.6 E3007.04 F900
G1 X146.048 Y2.35128 Z3.6 E3007.29 F900
G1 X145.964 Y2.91702 Z3.6 E3007.52 F900
G1 X145.712 Y3.62438 Z3.6 E3007.82 F900
G1 X143.107 Y14.0238 Z3.6 E3012.11 F900
G1 X142.815 Y14.5153 Z3.6 E3012.34 F900
G1 X136.471 Y23.1588 Z3.6 E3016.63 F900
G1 X136.093 Y23.5808 Z3.6 E3016.85 F900
G1 X126.546 Y29.3183 Z3.6 E3021.31 F900
G1 X125.26 Y30.0911 Z3.6 E3021.91 F900
G1 X124.706 Y30.2272 Z3.6 E3022.14 F900
G1 X114.034 Y31.769 Z3.6 E3026.45 F900
G1 X113.399 Y31.7982 Z3.6 E3026.7 F900
G1 X112.774 Y31.7048 Z3.6 E3026.96 F900
G1 X102.373 Y29.1 Z3.6 E3031.25 F900
G1 X101.778 Y28.8878 Z3.6 E3031.5 F900
G1 X101.235 Y28.5649 Z3.6 E3031.75 F900
G1 X92.5912 Y22.2209 Z3.6 E3036.04 F900
G1 X92.1692 Y21.8432 Z3.6 E3036.27 F900
G1 X86.4317 Y12.2957 Z3.6 E3040.72 F900
G1 X85.6589 Y11.0097 Z3.6 E3041.32 F900
G1 X85.5371 Y10.5142 Z3.6 E3041.53 F900
G1 X85.5024 Y9.75981 Z3.6 E3041.83 F900
G1 X83.9607 Y-0.91124 Z3.6 E3046.14 F900
G1 X84.0364 Y-1.41702 Z3.6 E3046.35 F900
G1 X84.2885 Y-2.12438 Z3.6 E3046.65 F900
G1 X86.893 Y-12.5238 Z3.6 E3050.94 F900
G1 X87.1851 Y-13.0153 Z3.6 E3051.16 F900
G1 X93.5291 Y-21.6588 Z3.6 E3055.45 F900
G1 X93.9068 Y-22.0808 Z3.6 E3055.68 F900
G1 X103.454 Y-27.8183 Z3.6 E3060.13 F900
G1 X104.74 Y-28.5911 Z3.6 E3060.73 F900
G1 X105.294 Y-28.7272 Z3.6 E3060.96 F900
G1 X115.966 Y-30.269 Z3.6 E3065.28 F900
G10
G0 X112.719 Y-29.2495 Z3.6 F9000
G11
G1 X112.878 Y-29.0904 Z3.6 E3065.32 F900
G1 X145.113 Y3.14435 Z3.6 E3073.52 F900
G1 X145.272 Y3.30345 Z3.6 E3073.56 F900
G10
G0 X142.374 Y14.2648 Z3.6 F9000
G11
G1 X142.215 Y14.1057 Z3.6 E3073.6 F900
G1 X102.007 Y-26.1026 Z3.6 E3083.84 F900
G1 X101.848 Y-26.2617 Z3.6 E3083.88 F900
G10
G0 X93.4916 Y-20.7584 Z3.6 F9000
G11
G1 X93.6507 Y-20.5993 Z3.6 E3083.92 F900
G1 X136.349 Y22.0993 Z3.6 E3094.79 F900
G1 X136.508 Y22.2584 Z3.6 E3094.83 F900
G10
G0 X128.152 Y27.7617 Z3.6 F9000
G11
G1 X127.993 Y27.6026 Z3.6 E3094.87 F900
G1 X87.785 Y-12.6057 Z3.6 E3105.1 F900
G1 X87.6259 Y-12.7648 Z3.6 E3105.15 F900
G10
G0 X84.728 Y-1.80345 Z3.6 F9000
G11
G1 X84.8871 Y-1.64435 Z3.6 E3105.19 F900
G1 X117.122 Y30.5904 Z3.6 E3113.39 F900
G1 X117.281 Y30.7495 Z3.6 E3113.43 F900
G10
G0 X98.0222 Y25.3501 Z3.6 F9000
G11
G1 X97.8631 Y25.191 Z3.6 E3113.47 F900
G1 X90.7558 Y18.0837 Z3.6 E3115.28 F900
G1 X90.5967 Y17.9246 Z3.6 E3115.32 F900
G10
G0 X131.978 Y-23.8501 Z3.6 F9000
G11
G1 X132.137 Y-23.691 Z3.6 E3115.36 F900
G1 X139.495 Y-16.3332 Z3.6 E3117.24 F900
G1 X139.654 Y-16.1741 Z3.6 E3117.28 F900
G10
G0 X116.644 Y-31.1312 Z4 F9000
G11
G1 X117.485 Y-31.0053 Z4 E3117.62 F900
G1 X118.318 Y-30.7087 Z4 E3117.97 F900
G1 X128.586 Y-28.137 Z4 E3122.2 F900
G1 X129.317 Y-27.7024 Z4 E3122.54 F900
G1 X137.851 Y-21.4387 Z4 E3126.78 F900
G1 X138.493 Y-20.8644 Z4 E3127.12 F900
G1 X139.033 Y-20.143 Z4 E3127.48 F900
G1 X144.729 Y-10.665 Z4 E3131.91 F900
G1 X145.112 Y-9.84978 Z4 E3132.27 F900
G1 X145.319 Y-9.00861 Z4 E3132.61 F900
G1 X146.841 Y1.52817 Z4 E3136.87 F900
G1 X146.881 Y2.39395 Z4 E3137.22 F900
G1 X146.755 Y3.23526 Z4 E3137.56 F900
G1 X146.459 Y4.06751 Z4 E3137.91 F900
G1 X143.887 Y14.3362 Z4 E3142.15 F900
G1 X143.452 Y15.0674 Z4 E3142.49 F900
G1 X137.189 Y23.6015 Z4 E3146.72 F900
G1 X136.622 Y24.2345 Z4 E3147.06 F900
G1 X127.154 Y29.9246 Z4 E3151.48 F900
G1 X125.589 Y30.8651 Z4 E3152.21 F900
G1 X124.759 Y31.0691 Z4 E3152.55 F900
G1 X114.222 Y32.5913 Z4 E3156.81 F900
G1 X113.356 Y32.6312 Z4 E3157.16 F900
G1 X112.504 Y32.5037 Z4 E3157.5 F900
G1 X102.235 Y29.9319 Z4 E3161.74 F900
G1 X101.423 Y29.6427 Z4 E3162.08 F900
G1 X100.683 Y29.2024 Z4 E3162.43 F900
G1 X92.1485 Y22.9387 Z4 E3166.66 F900
G1 X91.5155 Y22.3721 Z4 E3167 F900
G1 X85.8254 Y12.9036 Z4 E3171.42 F900
G1 X84.8849 Y11.3385 Z4 E3172.15 F900
G1 X84.6836 Y10.5193 Z4 E3172.49 F900
G1 X84.6427 Y9.63167 Z4 E3172.84 F900
G1 X83.1205 Y-0.904963 Z4 E3177.1 F900
G1 X83.2447 Y-1.73526 Z4 E3177.44 F900
G1 X83.5413 Y-2.56751 Z4 E3177.79 F900
G1 X86.113 Y-12.8362 Z4 E3182.02 F900
G1 X86.5476 Y-13.5674 Z4 E3182.36 F900
G1 X92.8113 Y-22.1015 Z4 E3186.6 F900
G1 X93.3779 Y-22.7345 Z4 E3186.94 F900
G1 X102.846 Y-28.4246 Z4 E3191.36 F900
G1 X104.411 Y-29.3651 Z4 E3192.09 F900
G1 X105.241 Y-29.5691 Z4 E3192.43 F900
G1 X115.778 Y-31.0913 Z4 E3196.69 F900
G0 X116.592 Y-30.1277 Z4 F9000
G1 X117.241 Y-30.0307 Z4 E3196.95 F900
G1 X118.028 Y-29.7505 Z4 E3197.28 F900
G1 X128.201 Y-27.2025 Z4 E3201.48 F900
G1 X128.765 Y-26.8676 Z4 E3201.74 F900
G1 X137.221 Y-20.6613 Z4 E3205.94 F900
G1 X137.752 Y-20.1856 Z4 E3206.22 F900
G1 X138.202 Y-19.5845 Z4 E3206.52 F900
G1 X143.846 Y-10.1933 Z4 E3210.91 F900
G1 X144.165 Y-9.51428 Z4 E3211.21 F900
G1 X144.336 Y-8.81733 Z4 E3211.49 F900
G1 X145.845 Y1.62287 Z4 E3215.71 F900
G1 X145.878 Y2.34249 Z4 E3216 F900
G1 X145.781 Y2.99117 Z4 E3216.26 F900
G1 X145.5 Y3.77752 Z4 E3216.6 F900
G1 X142.953 Y13.9512 Z4 E3220.79 F900
G1 X142.618 Y14.5148 Z4 E3221.05 F900
G1 X136.411 Y22.9707 Z4 E3225.25 F900
G1 X135.978 Y23.4551 Z4 E3225.51 F900
G1 X126.639 Y29.0674 Z4 E3229.87 F900
G1 X125.203 Y29.9301 Z4 E3230.54 F900
G1 X124.567 Y30.0863 Z4 E3230.8 F900
G1 X114.127 Y31.5946 Z4 E3235.02 F900
G1 X113.408 Y31.6277 Z4 E3235.31 F900
G1 X112.7 Y31.5219 Z4 E3235.59 F900
G1 X102.525 Y28.9737 Z4 E3239.79 F900
G1 X101.851 Y28.7333 Z4 E3240.08 F900
G1 X101.235 Y28.3676 Z4 E3240.36 F900
G1 X92.7793 Y22.1613 Z4 E3244.56 F900
G1 X92.2949 Y21.7276 Z4 E3244.82 F900
G1 X86.6826 Y12.3885 Z4 E3249.18 F900
G1 X85.8199 Y10.953 Z4 E3249.85 F900
G1 X85.678 Y10.3756 Z4 E3250.08 F900
G1 X85.6394 Y9.53697 Z4 E3250.42 F900
G1 X84.1312 Y-0.902447 Z4 E3254.64 F900
G1 X84.2193 Y-1.49117 Z4 E3254.88 F900
G1 X84.4995 Y-2.27752 Z4 E3255.21 F900
G1 X87.0475 Y-12.4512 Z4 E3259.41 F900
G1 X87.3824 Y-13.0148 Z4 E3259.67 F900
G1 X93.5887 Y-21.4707 Z4 E3263.86 F900
G1 X94.0224 Y-21.9551 Z4 E3264.12 F900
G1 X103.361 Y-27.5674 Z4 E3268.48 F900
G1 X104.797 Y-28.4301 Z4 E3269.15 F900
G1 X105.433 Y-28.5863 Z4 E3269.41 F900
G1 X115.873 Y-30.0946 Z4 E3273.63 F900
G10
G0 X112.86 Y-29.1089 Z4 F9000
G11
G1 X113.019 Y-28.9498 Z4 E3273.67 F900
G1 X144.998 Y3.02899 Z4 E3281.81 F900
G1 X145.157 Y3.18809 Z4 E3281.85 F900
G10
G0 X142.25 Y14.1408 Z4 F9000
G11
G1 X142.091 Y13.9817 Z4 E3281.89 F900
G1 X102.129 Y-25.9807 Z4 E3292.07 F900
G1 X101.97 Y-26.1398 Z4 E3292.11 F900
G10
G0 X93.6057 Y-20.6443 Z4 F9000
G11
G1 X93.7648 Y-20.4852 Z4 E3292.15 F900
G1 X136.235 Y21.9852 Z4 E3302.96 F900
G1 X136.394 Y22.1443 Z4 E3303 F900
G10
G0 X128.03 Y27.6398 Z4 F9000
G11
G1 X127.871 Y27.4807 Z4 E3303.04 F900
G1 X87.909 Y-12.4817 Z4 E3313.21 F900
G1 X87.7499 Y-12.6408 Z4 E3313.25 F900
G10
G0 X84.8433 Y-1.68809 Z4 F9000
G11
G1 X85.0024 Y-1.52899 Z4 E3313.29 F900
G1 X116.981 Y30.4498 Z4 E3321.44 F900
G1 X117.14 Y30.6089 Z4 E3321.48 F900
G10
G0 X97.279 Y24.6068 Z4 F9000
G11
G1 X97.1199 Y24.4477 Z4 E3321.52 F900
G1 X91.2447 Y18.5726 Z4 E3323.01 F900
G1 X91.0856 Y18.4135 Z4 E3323.05 F900
G10
G0 X132.721 Y-23.1068 Z4 F9000
G11
G1 X132.88 Y-22.9477 Z4 E3323.09 F900
G1 X139.032 Y-16.7962 Z4 E3324.66 F900
G1 X139.191 Y-16.6371 Z4 E3324.7 F900
G10
G0 X116.635 Y-30.9607 Z4.4 F9000
G11
G1 X117.559 Y-30.8224 Z4.4 E3325.07 F900
G1 X118.471 Y-30.4977 Z4.4 E3325.46 F900
G1 X128.514 Y-27.9825 Z4.4 E3329.6 F900
G1 X129.317 Y-27.5051 Z4.4 E3329.97 F900
G1 X137.663 Y-21.3791 Z4.4 E3334.12 F900
G1 X138.368 Y-20.7488 Z4.4 E3334.49 F900
G1 X138.96 Y-19.9573 Z4.4 E3334.89 F900
G1 X144.53 Y-10.6876 Z4.4 E3339.22 F900
G1 X144.951 Y-9.7931 Z4.4 E3339.61 F900
G1 X145.178 Y-8.87002 Z4.4 E3339.99 F900
G1 X146.667 Y1.43513 Z4.4 E3344.16 F900
G1 X146.711 Y2.38516 Z4.4 E3344.54 F900
G1 X146.572 Y3.30941 Z4.4 E3344.91 F900
G1 X146.248 Y4.22066 Z4.4 E3345.3 F900
G1 X143.732 Y14.2636 Z4.4 E3349.44 F900
G1 X143.255 Y15.0669 Z4.4 E3349.81 F900
G1 X137.129 Y23.4133 Z4.4 E3353.95 F900
G1 X136.506 Y24.1089 Z4.4 E3354.33 F900
G1 X127.246 Y29.6737 Z4.4 E3358.65 F900
G1 X125.532 Y30.7041 Z4.4 E3359.45 F900
G1 X124.62 Y30.9281 Z4.4 E3359.82 F900
G1 X114.315 Y32.417 Z4.4 E3363.99 F900
G1 X113.365 Y32.4607 Z4.4 E3364.37 F900
G1 X112.43 Y32.3208 Z4.4 E3364.75 F900
G1 X102.387 Y29.8056 Z4.4 E3368.89 F900
G1 X101.496 Y29.4881 Z4.4 E3369.27 F900
G1 X100.683 Y29.0051 Z4.4 E3369.65 F900
G1 X92.3367 Y22.8791 Z4.4 E3373.79 F900
G1 X91.6411 Y22.2565 Z4.4 E3374.16 F900
G1 X86.0763 Y12.9964 Z4.4 E3378.48 F900
G1 X85.0459 Y11.2819 Z4.4 E3379.28 F900
G1 X84.8245 Y10.3807 Z4.4 E3379.65 F900
G1 X84.7798 Y9.40883 Z4.4 E3380.04 F900
G1 X83.291 Y-0.896173 Z4.4 E3384.21 F900
G1 X83.4276 Y-1.80941 Z4.4 E3384.58 F900
G1 X83.7523 Y-2.72066 Z4.4 E3384.96 F900
G1 X86.2675 Y-12.7636 Z4.4 E3389.1 F900
G1 X86.7449 Y-13.5669 Z4.4 E3389.48 F900
G1 X92.8709 Y-21.9133 Z4.4 E3393.62 F900
G1 X93.4935 Y-22.6089 Z4.4 E3393.99 F900
G1 X102.754 Y-28.1737 Z4.4 E3398.31 F900
G1 X104.468 Y-29.2041 Z4.4 E3399.11 F900
G1 X105.38 Y-29.4281 Z4.4 E3399.49 F900
G1 X115.685 Y-30.917 Z4.4 E3403.65 F900
G0 X116.584 Y-29.9572 Z4.4 F9000
G1 X117.315 Y-29.8478 Z4.4 E3403.95 F900
G1 X118.181 Y-29.5394 Z4.4 E3404.32 F900
G1 X128.129 Y-27.048 Z4.4 E3408.42 F900
G1 X128.764 Y-26.6702 Z4.4 E3408.72 F900
G1 X137.033 Y-20.6016 Z4.4 E3412.82 F900
G1 X137.626 Y-20.07 Z4.4 E3413.14 F900
G1 X138.129 Y-19.3987 Z4.4 E3413.47 F900
G1 X143.647 Y-10.2159 Z4.4 E3417.76 F900
G1 X144.004 Y-9.45759 Z4.4 E3418.09 F900
G1 X144.195 Y-8.67875 Z4.4 E3418.41 F900
G1 X145.67 Y1.52983 Z4.4 E3422.54 F900
G1 X145.707 Y2.3337 Z4.4 E3422.86 F900
G1 X145.598 Y3.06532 Z4.4 E3423.16 F900
G1 X145.289 Y3.93066 Z4.4 E3423.53 F900
G1 X142.798 Y13.8786 Z4.4 E3427.63 F900
G1 X142.42 Y14.5143 Z4.4 E3427.92 F900
G1 X136.352 Y22.7825 Z4.4 E3432.03 F900
G1 X135.862 Y23.3295 Z4.4 E3432.32 F900
G1 X126.731 Y28.8166 Z4.4 E3436.58 F900
G1 X125.146 Y29.769 Z4.4 E3437.32 F900
G1 X124.429 Y29.9454 Z4.4 E3437.62 F900
G1 X114.22 Y31.4203 Z4.4 E3441.74 F900
G1 X113.416 Y31.4572 Z4.4 E3442.06 F900
G1 X112.626 Y31.339 Z4.4 E3442.38 F900
G1 X102.677 Y28.8473 Z4.4 E3446.49 F900
G1 X101.923 Y28.5788 Z4.4 E3446.81 F900
G1 X101.236 Y28.1702 Z4.4 E3447.13 F900
G1 X92.9675 Y22.1016 Z4.4 E3451.23 F900
G1 X92.4205 Y21.612 Z4.4 E3451.52 F900
G1 X86.9334 Y12.4813 Z4.4 E3455.78 F900
G1 X85.981 Y10.8964 Z4.4 E3456.52 F900
G1 X85.8189 Y10.2371 Z4.4 E3456.79 F900
G1 X85.7765 Y9.31413 Z4.4 E3457.16 F900
G1 X84.3017 Y-0.893657 Z4.4 E3461.29 F900
G1 X84.4022 Y-1.56532 Z4.4 E3461.56 F900
G1 X84.7106 Y-2.43066 Z4.4 E3461.93 F900
G1 X87.202 Y-12.3786 Z4.4 E3466.03 F900
G1 X87.5798 Y-13.0143 Z4.4 E3466.33 F900
G1 X93.6484 Y-21.2825 Z4.4 E3470.43 F900
G1 X94.138 Y-21.8295 Z4.4 E3470.72 F900
G1 X103.269 Y-27.3166 Z4.4 E3474.98 F900
G1 X104.854 Y-28.269 Z4.4 E3475.72 F900
G1 X105.571 Y-28.4454 Z4.4 E3476.02 F900
G1 X115.78 Y-29.9203 Z4.4 E3480.14 F900
G10
G0 X113 Y-28.9683 Z4.4 F9000
G11
G1 X113.159 Y-28.8092 Z4.4 E3480.18 F900
G1 X144.882 Y2.91363 Z4.4 E3488.26 F900
G1 X145.041 Y3.07273 Z4.4 E3488.3 F900
G10
G0 X142.126 Y14.0168 Z4.4 F9000
G11
G1 X141.967 Y13.8577 Z4.4 E3488.34 F900
G1 X102.25 Y-25.8588 Z4.4 E3498.45 F900
G1 X102.091 Y-26.0179 Z4.4 E3498.49 F900
G10
G0 X93.7197 Y-20.5303 Z4.4 F9000
G11
G1 X93.8788 Y-20.3712 Z4.4 E3498.53 F900
G1 X136.121 Y21.8712 Z4.4 E3509.29 F900
G1 X136.28 Y22.0303 Z4.4 E3509.33 F900
G10
G0 X127.909 Y27.5179 Z4.4 F9000
G11
G1 X127.75 Y27.3588 Z4.4 E3509.37 F900
G1 X88.033 Y-12.3577 Z4.4 E3519.48 F900
G1 X87.8739 Y-12.5168 Z4.4 E3519.52 F900
G10
G0 X84.9587 Y-1.57273 Z4.4 F9000
G11
G1 X85.1178 Y-1.41363 Z4.4 E3519.56 F900
G1 X116.841 Y30.3092 Z4.4 E3527.63 F900
G1 X117 Y30.4683 Z4.4 E3527.67 F900
G10
G0 X96.5357 Y23.8636 Z4.4 F9000
G11
G1 X96.3766 Y23.7045 Z4.4 E3527.71 F900
G1 X91.7336 Y19.0615 Z4.4 E3528.9 F900
G1 X91.5745 Y18.9024 Z4.4 E3528.94 F900
G10
G0 X133.464 Y-22.3636 Z4.4 F9000
G11
G1 X133.623 Y-22.2045 Z4.4 E3528.98 F900
G1 X138.569 Y-17.2591 Z4.4 E3530.24 F900
G1 X138.728 Y-17.1001 Z4.4 E3530.28 F900
G10
G0 X116.626 Y-30.7902 Z4.8 F9000
G11
G1 X117.634 Y-30.6395 Z4.8 E3530.68 F900
G1 X118.624 Y-30.2867 Z4.8 E3531.1 F900
G1 X128.441 Y-27.828 Z4.8 E3535.15 F900
G1 X129.316 Y-27.3077 Z4.8 E3535.56 F900
G1 X137.475 Y-21.3194 Z4.8 E3539.61 F900
G1 X138.242 Y-20.6332 Z4.8 E3540.02 F900
G1 X138.887 Y-19.7715 Z4.8 E3540.45 F900
G1 X144.332 Y-10.7102 Z4.8 E3544.68 F900
G1 X144.79 Y-9.73641 Z4.8 E3545.11 F900
G1 X145.037 Y-8.73143 Z4.8 E3545.52 F900
G1 X146.493 Y1.34209 Z4.8 E3549.59 F900
G1 X146.54 Y2.37637 Z4.8 E3550.01 F900
G1 X146.39 Y3.38355 Z4.8 E3550.42 F900
G1 X146.037 Y4.37379 Z4.8 E3550.84 F900
G1 X143.578 Y14.191 Z4.8 E3554.88 F900
G1 X143.058 Y15.0664 Z4.8 E3555.29 F900
G1 X137.069 Y23.2252 Z4.8 E3559.34 F900
G1 X136.391 Y23.9832 Z4.8 E3559.75 F900
G1 X127.339 Y29.4229 Z4.8 E3563.97 F900
G1 X125.475 Y30.543 Z4.8 E3564.84 F900
G1 X124.481 Y30.7872 Z4.8 E3565.25 F900
G1 X114.408 Y32.2426 Z4.8 E3569.32 F900
G1 X113.374 Y32.2902 Z4.8 E3569.74 F900
G1 X112.356 Y32.1379 Z4.8 E3570.15 F900
G1 X102.538 Y29.6792 Z4.8 E3574.2 F900
G1 X101.569 Y29.3336 Z4.8 E3574.61 F900
G1 X100.684 Y28.8077 Z4.8 E3575.02 F900
G1 X92.5248 Y22.8194 Z4.8 E3579.07 F900
G1 X91.7668 Y22.1409 Z4.8 E3579.47 F900
G1 X86.3271 Y13.0891 Z4.8 E3583.7 F900
G1 X85.207 Y11.2252 Z4.8 E3584.57 F900
G1 X84.9654 Y10.2421 Z4.8 E3584.97 F900
G1 X84.9168 Y9.18599 Z4.8 E3585.4 F900
G1 X83.4615 Y-0.887382 Z4.8 E3589.47 F900
G1 X83.6105 Y-1.88355 Z4.8 E3589.87 F900
G1 X83.9633 Y-2.87379 Z4.8 E3590.29 F900
G1 X86.422 Y-12.691 Z4.8 E3594.34 F900
G1 X86.9423 Y-13.5664 Z4.8 E3594.75 F900
G1 X92.9306 Y-21.7252 Z4.8 E3598.79 F900
G1 X93.6091 Y-22.4832 Z4.8 E3599.2 F900
G1 X102.661 Y-27.9229 Z4.8 E3603.43 F900
G1 X104.525 Y-29.043 Z4.8 E3604.3 F900
G1 X105.519 Y-29.2872 Z4.8 E3604.7 F900
G1 X115.592 Y-30.7426 Z4.8 E3608.78 F900
G0 X116.575 Y-29.7868 Z4.8 F9000
G1 X117.389 Y-29.6649 Z4.8 E3609.11 F900
G1 X118.334 Y-29.3284 Z4.8 E3609.51 F900
G1 X128.056 Y-26.8935 Z4.8 E3613.52 F900
G1 X128.764 Y-26.4729 Z4.8 E3613.84 F900
G1 X136.844 Y-20.542 Z4.8 E3617.85 F900
G1 X137.501 Y-19.9544 Z4.8 E3618.21 F900
G1 X138.056 Y-19.213 Z4.8 E3618.58 F900
G1 X143.449 Y-10.2385 Z4.8 E3622.77 F900
G1 X143.843 Y-9.4009 Z4.8 E3623.14 F900
G1 X144.054 Y-8.54016 Z4.8 E3623.49 F900
G1 X145.496 Y1.43679 Z4.8 E3627.52 F900
G1 X145.537 Y2.32491 Z4.8 E3627.88 F900
G1 X145.415 Y3.13946 Z4.8 E3628.21 F900
G1 X145.078 Y4.08379 Z4.8 E3628.61 F900
G1 X142.644 Y13.806 Z4.8 E3632.62 F900
G1 X142.223 Y14.5138 Z4.8 E3632.95 F900
G1 X136.292 Y22.5944 Z4.8 E3636.96 F900
G1 X135.746 Y23.2038 Z4.8 E3637.28 F900
G1 X126.824 Y28.5657 Z4.8 E3641.45 F900
G1 X125.09 Y29.608 Z4.8 E3642.26 F900
G1 X124.29 Y29.8045 Z4.8 E3642.59 F900
G1 X114.313 Y31.2459 Z4.8 E3646.62 F900
G1 X113.425 Y31.2868 Z4.8 E3646.97 F900
G1 X112.551 Y31.1561 Z4.8 E3647.33 F900
G1 X102.828 Y28.7209 Z4.8 E3651.34 F900
G1 X101.996 Y28.4243 Z4.8 E3651.69 F900
G1 X101.236 Y27.9729 Z4.8 E3652.04 F900
G1 X93.1556 Y22.042 Z4.8 E3656.05 F900
G1 X92.5462 Y21.4965 Z4.8 E3656.38 F900
G1 X87.1843 Y12.574 Z4.8 E3660.54 F900
G1 X86.142 Y10.8397 Z4.8 E3661.35 F900
G1 X85.9598 Y10.0985 Z4.8 E3661.66 F900
G1 X85.9135 Y9.09129 Z4.8 E3662.06 F900
G1 X84.4722 Y-0.884866 Z4.8 E3666.09 F900
G1 X84.5851 Y-1.63946 Z4.8 E3666.4 F900
G1 X84.9216 Y-2.58379 Z4.8 E3666.8 F900
G1 X87.3565 Y-12.306 Z4.8 E3670.81 F900
G1 X87.7771 Y-13.0138 Z4.8 E3671.14 F900
G1 X93.708 Y-21.0944 Z4.8 E3675.15 F900
G1 X94.2535 Y-21.7038 Z4.8 E3675.47 F900
G1 X103.176 Y-27.0657 Z4.8 E3679.64 F900
G1 X104.91 Y-28.108 Z4.8 E3680.45 F900
G1 X105.71 Y-28.3045 Z4.8 E3680.78 F900
G1 X115.687 Y-29.7459 Z4.8 E3684.81 F900
G10
G0 X113.141 Y-28.8276 Z4.8 F9000
G11
G1 X113.3 Y-28.6685 Z4.8 E3684.85 F900
G1 X144.737 Y2.76873 Z4.8 E3692.85 F900
G1 X144.896 Y2.92783 Z4.8 E3692.89 F900
G10
G0 X142.002 Y13.8929 Z4.8 F9000
G11
G1 X141.843 Y13.7338 Z4.8 E3692.93 F900
G1 X102.372 Y-25.737 Z4.8 E3702.98 F900
G1 X102.213 Y-25.8961 Z4.8 E3703.02 F900
G10
G0 X93.8337 Y-20.4163 Z4.8 F9000
G11
G1 X93.9928 Y-20.2572 Z4.8 E3703.06 F900
G1 X136.007 Y21.7572 Z4.8 E3713.76 F900
G1 X136.166 Y21.9163 Z4.8 E3713.8 F900
G10
G0 X127.787 Y27.3961 Z4.8 F9000
G11
G1 X127.628 Y27.237 Z4.8 E3713.84 F900
G1 X88.1569 Y-12.2338 Z4.8 E3723.89 F900
G1 X87.9978 Y-12.3929 Z4.8 E3723.93 F900
G10
G0 X85.1036 Y-1.42783 Z4.8 F9000
G11
G1 X85.2627 Y-1.26873 Z4.8 E3723.97 F900
G1 X116.7 Y30.1685 Z4.8 E3731.97 F900
G1 X116.859 Y30.3276 Z4.8 E3732.01 F900
G10
G0 X95.7925 Y23.1203 Z4.8 F9000
G11
G1 X95.6334 Y22.9612 Z4.8 E3732.05 F900
G1 X92.2225 Y19.5504 Z4.8 E3732.92 F900
G1 X92.0634 Y19.3913 Z4.8 E3732.96 F900
G10
G0 X134.208 Y-21.6203 Z4.8 F9000
G11
G1 X134.367 Y-21.4612 Z4.8 E3733 F900
G1 X138.106 Y-17.7221 Z4.8 E3733.95 F900
G1 X138.265 Y-17.563 Z4.8 E3733.99 F900
G10
G0 X116.618 Y-30.6197 Z5.2 F9000
G11
G1 X117.708 Y-30.4567 Z5.2 E3734.43 F900
G1 X118.777 Y-30.0756 Z5.2 E3734.89 F900
G1 X128.368 Y-27.6735 Z5.2 E3738.84 F900
G1 X129.316 Y-27.1104 Z5.2 E3739.28 F900
G1 X137.287 Y-21.2598 Z5.2 E3743.24 F900
G1 X138.116 Y-20.5176 Z5.2 E3743.68 F900
G1 X138.814 Y-19.5858 Z5.2 E3744.15 F900
G1 X144.134 Y-10.7328 Z5.2 E3748.28 F900
G1 X144.629 Y-9.67973 Z5.2 E3748.75 F900
G1 X144.896 Y-8.59284 Z5.2 E3749.19 F900
G1 X146.318 Y1.24905 Z5.2 E3753.17 F900
G1 X146.37 Y2.36757 Z5.2 E3753.62 F900
G1 X146.207 Y3.4577 Z5.2 E3754.06 F900
G1 X145.826 Y4.52693 Z5.2 E3754.51 F900
G1 X143.423 Y14.1184 Z5.2 E3758.47 F900
G1 X142.86 Y15.0659 Z5.2 E3758.91 F900
G1 X137.01 Y23.0371 Z5.2 E3762.86 F900
G1 X136.275 Y23.8576 Z5.2 E3763.31 F900
G1 X127.432 Y29.172 Z5.2 E3767.43 F900
G1 X125.418 Y30.382 Z5.2 E3768.37 F900
G1 X124.343 Y30.6463 Z5.2 E3768.81 F900
G1 X114.501 Y32.0682 Z5.2 E3772.79 F900
G1 X113.382 Y32.1197 Z5.2 E3773.24 F900
G1 X112.281 Y31.955 Z5.2 E3773.69 F900
G1 X102.69 Y29.5528 Z5.2 E3777.64 F900
G1 X101.641 Y29.1791 Z5.2 E3778.09 F900
G1 X100.684 Y28.6104 Z5.2 E3778.53 F900
G1 X92.7129 Y22.7598 Z5.2 E3782.49 F900
G1 X91.8924 Y22.0253 Z5.2 E3782.93 F900
G1 X86.578 Y13.1819 Z5.2 E3787.05 F900
G1 X85.368 Y11.1685 Z5.2 E3787.99 F900
G1 X85.1063 Y10.1035 Z5.2 E3788.43 F900
G1 X85.0538 Y8.96315 Z5.2 E3788.89 F900
G1 X83.632 Y-0.878591 Z5.2 E3792.87 F900
G1 X83.7933 Y-1.9577 Z5.2 E3793.3 F900
G1 X84.1744 Y-3.02693 Z5.2 E3793.76 F900
G1 X86.5765 Y-12.6184 Z5.2 E3797.71 F900
G1 X87.1396 Y-13.5659 Z5.2 E3798.15 F900
G1 X92.9902 Y-21.5371 Z5.2 E3802.11 F900
G1 X93.7247 Y-22.3576 Z5.2 E3802.55 F900
G1 X102.568 Y-27.672 Z5.2 E3806.68 F900
G1 X104.582 Y-28.882 Z5.2 E3807.62 F900
G1 X105.657 Y-29.1463 Z5.2 E3808.06 F900
G1 X115.499 Y-30.5682 Z5.2 E3812.04 F900
G0 X116.566 Y-29.6163 Z5.2 F9000
G1 X117.464 Y-29.482 Z5.2 E3812.4 F900
G1 X118.487 Y-29.1174 Z5.2 E3812.83 F900
G1 X127.983 Y-26.739 Z5.2 E3816.75 F900
G1 X128.763 Y-26.2755 Z5.2 E3817.11 F900
G1 X136.656 Y-20.4823 Z5.2 E3821.03 F900
G1 X137.375 Y-19.8388 Z5.2 E3821.41 F900
G1 X137.983 Y-19.0272 Z5.2 E3821.82 F900
G1 X143.25 Y-10.2612 Z5.2 E3825.91 F900
G1 X143.682 Y-9.34422 Z5.2 E3826.32 F900
G1 X143.914 Y-8.40157 Z5.2 E3826.7 F900
G1 X145.322 Y1.34375 Z5.2 E3830.64 F900
G1 X145.366 Y2.31612 Z5.2 E3831.03 F900
G1 X145.232 Y3.2136 Z5.2 E3831.4 F900
G1 X144.867 Y4.23693 Z5.2 E3831.83 F900
G1 X142.489 Y13.7334 Z5.2 E3835.75 F900
G1 X142.026 Y14.5133 Z5.2 E3836.11 F900
G1 X136.232 Y22.4063 Z5.2 E3840.03 F900
G1 X135.631 Y23.0782 Z5.2 E3840.39 F900
G1 X126.917 Y28.3149 Z5.2 E3844.45 F900
G1 X125.033 Y29.447 Z5.2 E3845.33 F900
G1 X124.152 Y29.6636 Z5.2 E3845.69 F900
G1 X114.406 Y31.0715 Z5.2 E3849.63 F900
G1 X113.434 Y31.1163 Z5.2 E3850.02 F900
G1 X112.477 Y30.9732 Z5.2 E3850.41 F900
G1 X102.98 Y28.5946 Z5.2 E3854.33 F900
G1 X102.068 Y28.2698 Z5.2 E3854.71 F900
G1 X101.237 Y27.7755 Z5.2 E3855.1 F900
G1 X93.3437 Y21.9823 Z5.2 E3859.02 F900
G1 X92.6718 Y21.3809 Z5.2 E3859.38 F900
G1 X87.4351 Y12.6668 Z5.2 E3863.44 F900
G1 X86.303 Y10.783 Z5.2 E3864.32 F900
G1 X86.1007 Y9.95988 Z5.2 E3864.66 F900
G1 X86.0505 Y8.86845 Z5.2 E3865.1 F900
G1 X84.6427 Y-0.876074 Z5.2 E3869.04 F900
G1 X84.768 Y-1.71361 Z5.2 E3869.38 F900
G1 X85.1326 Y-2.73693 Z5.2 E3869.81 F900
G1 X87.511 Y-12.2334 Z5.2 E3873.73 F900
G1 X87.9745 Y-13.0133 Z5.2 E3874.09 F900
G1 X93.7677 Y-20.9063 Z5.2 E3878.01 F900
G1 X94.3691 Y-21.5782 Z5.2 E3878.37 F900
G1 X103.083 Y-26.8149 Z5.2 E3882.43 F900
G1 X104.967 Y-27.947 Z5.2 E3883.31 F900
G1 X105.848 Y-28.1636 Z5.2 E3883.67 F900
G1 X115.594 Y-29.5715 Z5.2 E3887.61 F900
G10
G0 X113.282 Y-28.687 Z5.2 F9000
G11
G1 X113.441 Y-28.5279 Z5.2 E3887.65 F900
G1 X144.588 Y2.61927 Z5.2 E3895.58 F900
G1 X144.747 Y2.77837 Z5.2 E3895.62 F900
G10
G0 X141.878 Y13.7689 Z5.2 F9000
G11
G1 X141.719 Y13.6098 Z5.2 E3895.66 F900
G1 X102.494 Y-25.6151 Z5.2 E3905.65 F900
G1 X102.335 Y-25.7742 Z5.2 E3905.69 F900
G10
G0 X93.9478 Y-20.3022 Z5.2 F9000
G11
G1 X94.1069 Y-20.1431 Z5.2 E3905.73 F900
G1 X135.893 Y21.6431 Z5.2 E3916.37 F900
G1 X136.052 Y21.8022 Z5.2 E3916.41 F900
G10
G0 X127.665 Y27.2742 Z5.2 F9000
G11
G1 X127.506 Y27.1151 Z5.2 E3916.45 F900
G1 X88.2809 Y-12.1098 Z5.2 E3926.43 F900
G1 X88.1218 Y-12.2689 Z5.2 E3926.47 F900
G10
G0 X85.253 Y-1.27837 Z5.2 F9000
G11
G1 X85.4121 Y-1.11927 Z5.2 E3926.51 F900
G1 X116.559 Y30.0279 Z5.2 E3934.44 F900
G1 X116.718 Y30.187 Z5.2 E3934.48 F900
G10
G0 X95.0492 Y22.3771 Z5.2 F9000
G11
G1 X94.8901 Y22.218 Z5.2 E3934.52 F900
G1 X92.7114 Y20.0393 Z5.2 E3935.08 F900
G1 X92.5523 Y19.8802 Z5.2 E3935.12 F900
G10
G0 X134.951 Y-20.8771 Z5.2 F9000
G11
G1 X135.11 Y-20.718 Z5.2 E3935.16 F900
G1 X137.643 Y-18.1851 Z5.2 E3935.8 F900
G1 X137.802 Y-18.026 Z5.2 E3935.84 F900
G10
G0 X116.609 Y-30.4492 Z5.6 F9000
G11
G1 X117.782 Y-30.2738 Z5.6 E3936.32 F900
G1 X118.93 Y-29.8646 Z5.6 E3936.81 F900
G1 X128.296 Y-27.519 Z5.6 E3940.67 F900
G1 X129.315 Y-26.913 Z5.6 E3941.14 F900
G1 X137.099 Y-21.2001 Z5.6 E3945 F900
G1 X137.991 Y-20.402 Z5.6 E3945.48 F900
G1 X138.74 Y-19.4 Z5.6 E3945.98 F900
G1 X143.935 Y-10.7554 Z5.6 E3950.02 F900
G1 X144.468 Y-9.62304 Z5.6 E3950.52 F900
G1 X144.755 Y-8.45426 Z5.6 E3951 F900
G1 X146.144 Y1.15601 Z5.6 E3954.88 F900
G1 X146.199 Y2.35878 Z5.6 E3955.37 F900
G1 X146.024 Y3.53184 Z5.6 E3955.84 F900
G1 X145.615 Y4.68006 Z5.6 E3956.33 F900
G1 X143.269 Y14.0458 Z5.6 E3960.19 F900
G1 X142.663 Y15.0653 Z5.6 E3960.66 F900
G1 X136.95 Y22.849 Z5.6 E3964.53 F900
G1 X136.16 Y23.732 Z5.6 E3965 F900
G1 X127.525 Y28.9212 Z5.6 E3969.03 F900
G1 X125.362 Y30.221 Z5.6 E3970.04 F900
G1 X124.204 Y30.5054 Z5.6 E3970.52 F900
G1 X114.594 Y31.8939 Z5.6 E3974.4 F900
G1 X113.391 Y31.9492 Z5.6 E3974.88 F900
G1 X112.207 Y31.7721 Z5.6 E3975.36 F900
G1 X102.841 Y29.4265 Z5.6 E3979.22 F900
G1 X101.714 Y29.0246 Z5.6 E3979.7 F900
G1 X100.685 Y28.413 Z5.6 E3980.18 F900
G1 X92.901 Y22.7001 Z5.6 E3984.04 F900
G1 X92.018 Y21.9097 Z5.6 E3984.52 F900
G1 X86.8288 Y13.2747 Z5.6 E3988.55 F900
G1 X85.529 Y11.1118 Z5.6 E3989.56 F900
G1 X85.2472 Y9.96496 Z5.6 E3990.03 F900
G1 X85.1908 Y8.74031 Z5.6 E3990.52 F900
G1 X83.8025 Y-0.8698 Z5.6 E3994.4 F900
G1 X83.9762 Y-2.03184 Z5.6 E3994.87 F900
G1 X84.3854 Y-3.18006 Z5.6 E3995.36 F900
G1 X86.731 Y-12.5458 Z5.6 E3999.22 F900
G1 X87.337 Y-13.5653 Z5.6 E3999.7 F900
G1 X93.0499 Y-21.349 Z5.6 E4003.56 F900
G1 X93.8403 Y-22.232 Z5.6 E4004.03 F900
G1 X102.475 Y-27.4212 Z5.6 E4008.06 F900
G1 X104.638 Y-28.721 Z5.6 E4009.07 F900
G1 X105.796 Y-29.0054 Z5.6 E4009.55 F900
G1 X115.406 Y-30.3939 Z5.6 E4013.43 F900
G0 X116.557 Y-29.4458 Z5.6 F9000
G1 X117.538 Y-29.2991 Z5.6 E4013.83 F900
G1 X118.64 Y-28.9063 Z5.6 E4014.3 F900
G1 X127.911 Y-26.5845 Z5.6 E4018.12 F900
G1 X128.763 Y-26.0782 Z5.6 E4018.52 F900
G1 X136.468 Y-20.4226 Z5.6 E4022.34 F900
G1 X137.25 Y-19.7232 Z5.6 E4022.76 F900
G1 X137.909 Y-18.8415 Z5.6 E4023.2 F900
G1 X143.052 Y-10.2838 Z5.6 E4027.19 F900
G1 X143.521 Y-9.28753 Z5.6 E4027.63 F900
G1 X143.773 Y-8.26299 Z5.6 E4028.06 F900
G1 X145.147 Y1.2507 Z5.6 E4031.9 F900
G1 X145.196 Y2.30733 Z5.6 E4032.32 F900
G1 X145.049 Y3.28775 Z5.6 E4032.72 F900
G1 X144.656 Y4.39007 Z5.6 E4033.19 F900
G1 X142.335 Y13.6608 Z5.6 E4037.01 F900
G1 X141.828 Y14.5128 Z5.6 E4037.41 F900
G1 X136.173 Y22.2182 Z5.6 E4041.23 F900
G1 X135.515 Y22.9526 Z5.6 E4041.63 F900
G1 X127.01 Y28.064 Z5.6 E4045.59 F900
G1 X124.976 Y29.2859 Z5.6 E4046.54 F900
G1 X124.013 Y29.5227 Z5.6 E4046.94 F900
G1 X114.499 Y30.8972 Z5.6 E4050.79 F900
G1 X113.443 Y30.9458 Z5.6 E4051.21 F900
G1 X112.403 Y30.7903 Z5.6 E4051.63 F900
G1 X103.131 Y28.4682 Z5.6 E4055.45 F900
G1 X102.141 Y28.1153 Z5.6 E4055.87 F900
G1 X101.237 Y27.5782 Z5.6 E4056.29 F900
G1 X93.5318 Y21.9226 Z5.6 E4060.12 F900
G1 X92.7974 Y21.2653 Z5.6 E4060.51 F900
G1 X87.686 Y12.7596 Z5.6 E4064.48 F900
G1 X86.4641 Y10.7263 Z5.6 E4065.43 F900
G1 X86.2416 Y9.82129 Z5.6 E4065.8 F900
G1 X86.1875 Y8.64561 Z5.6 E4066.27 F900
G1 X84.8132 Y-0.867283 Z5.6 E4070.12 F900
G1 X84.9509 Y-1.78775 Z5.6 E4070.49 F900
G1 X85.3437 Y-2.89007 Z5.6 E4070.96 F900
G1 X87.6655 Y-12.1608 Z5.6 E4074.78 F900
G1 X88.1718 Y-13.0128 Z5.6 E4075.18 F900
G1 X93.8274 Y-20.7182 Z5.6 E4079 F900
G1 X94.4847 Y-21.4526 Z5.6 E4079.39 F900
G1 X102.99 Y-26.564 Z5.6 E4083.36 F900
G1 X105.024 Y-27.7859 Z5.6 E4084.31 F900
G1 X105.987 Y-28.0227 Z5.6 E4084.71 F900
G1 X115.501 Y-29.3972 Z5.6 E4088.55 F900
G10
G0 X113.422 Y-28.5464 Z5.6 F9000
G11
G1 X113.581 Y-28.3873 Z5.6 E4088.59 F900
G1 X144.438 Y2.46982 Z5.6 E4096.45 F900
G1 X144.598 Y2.62892 Z5.6 E4096.49 F900
G10
G0 X141.754 Y13.6449 Z5.6 F9000
G11
G1 X141.595 Y13.4858 Z5.6 E4096.53 F900
G1 X102.616 Y-25.4932 Z5.6 E4106.45 F900
G1 X102.457 Y-25.6523 Z5.6 E4106.49 F900
G10
G0 X94.0618 Y-20.1882 Z5.6 F9000
G11
G1 X94.2209 Y-20.0291 Z5.6 E4106.53 F900
G1 X135.779 Y21.5291 Z5.6 E4117.11 F900
G1 X135.938 Y21.6882 Z5.6 E4117.15 F900
G10
G0 X127.543 Y27.1523 Z5.6 F9000
G11
G1 X127.384 Y26.9932 Z5.6 E4117.19 F900
G1 X88.4049 Y-11.9858 Z5.6 E4127.12 F900
G1 X88.2458 Y-12.1449 Z5.6 E4127.16 F900
G10
G0 X85.4025 Y-1.12892 Z5.6 F9000
G11
G1 X85.5616 Y-0.96982 Z5.6 E4127.2 F900
G1 X116.419 Y29.8873 Z5.6 E4135.05 F900
G1 X116.578 Y30.0464 Z5.6 E4135.09 F900
G10
G0 X94.306 Y21.6338 Z5.6 F9000
G11
G1 X94.1469 Y21.4747 Z5.6 E4135.13 F900
G1 X93.2003 Y20.5282 Z5.6 E4135.37 F900
G1 X93.0412 Y20.3691 Z5.6 E4135.41 F900
G10
G0 X135.694 Y-20.1338 Z5.6 F9000
G11
G1 X135.853 Y-19.9747 Z5.6 E4135.46 F900
G1 X137.056 Y-18.772 Z5.6 E4135.76 F900
G1 X137.215 Y-18.6129 Z5.6 E4135.8 F900
G10
G0 X116.6 Y-30.2787 Z6 F9000
G11
G1 X117.856 Y-30.0909 Z6 E4136.31 F900
G1 X119.083 Y-29.6535 Z6 E4136.83 F900
G1 X128.223 Y-27.3645 Z6 E4140.6 F900
G1 X129.315 Y-26.7157 Z6 E4141.11 F900
G1 X136.911 Y-21.1404 Z6 E4144.88 F900
G1 X137.865 Y-20.2864 Z6 E4145.39 F900
G1 X138.667 Y-19.2143 Z6 E4145.92 F900
G1 X143.737 Y-10.778 Z6 E4149.86 F900
G1 X144.307 Y-9.56635 Z6 E4150.4 F900
G1 X144.615 Y-8.31567 Z6 E4150.91 F900
G1 X145.969 Y1.06297 Z6 E4154.7 F900
G1 X146.029 Y2.34999 Z6 E4155.22 F900
G1 X145.841 Y3.60598 Z6 E4155.73 F900
G1 X145.404 Y4.8332 Z6 E4156.25 F900
G1 X143.114 Y13.9732 Z6 E4160.02 F900
G1 X142.466 Y15.0648 Z6 E4160.52 F900
G1 X136.89 Y22.6609 Z6 E4164.29 F900
G1 X136.044 Y23.6063 Z6 E4164.8 F900
G1 X127.617 Y28.6703 Z6 E4168.73 F900
G1 X125.305 Y30.0599 Z6 E4169.81 F900
G1 X124.066 Y30.3645 Z6 E4170.32 F900
G1 X114.687 Y31.7195 Z6 E4174.11 F900
G1 X113.4 Y31.7787 Z6 E4174.63 F900
G1 X112.133 Y31.5892 Z6 E4175.14 F900
G1 X102.993 Y29.3001 Z6 E4178.91 F900
G1 X101.786 Y28.8701 Z6 E4179.42 F900
G1 X100.685 Y28.2157 Z6 E4179.93 F900
G1 X93.0891 Y22.6404 Z6 E4183.7 F900
G1 X92.1437 Y21.7942 Z6 E4184.21 F900
G1 X87.0797 Y13.3675 Z6 E4188.14 F900
G1 X85.6901 Y11.0551 Z6 E4189.22 F900
G1 X85.3881 Y9.82637 Z6 E4189.73 F900
G1 X85.3279 Y8.51747 Z6 E4190.25 F900
G1 X83.9729 Y-0.861008 Z6 E4194.04 F900
G1 X84.1591 Y-2.10598 Z6 E4194.55 F900
G1 X84.5965 Y-3.3332 Z6 E4195.07 F900
G1 X86.8855 Y-12.4732 Z6 E4198.84 F900
G1 X87.5343 Y-13.5648 Z6 E4199.35 F900
G1 X93.1096 Y-21.1609 Z6 E4203.11 F900
G1 X93.9558 Y-22.1063 Z6 E4203.62 F900
G1 X102.383 Y-27.1703 Z6 E4207.55 F900
G1 X104.695 Y-28.5599 Z6 E4208.63 F900
G1 X105.934 Y-28.8645 Z6 E4209.14 F900
G1 X115.313 Y-30.2195 Z6 E4212.93 F900
G10
G0 X116.549 Y-29.2753 Z6 F9000
G11
G1 X117.612 Y-29.1162 Z6 E4213.36 F900
G1 X118.793 Y-28.6953 Z6 E4213.87 F900
G1 X127.838 Y-26.43 Z6 E4217.6 F900
G1 X128.762 Y-25.8808 Z6 E4218.03 F900
G1 X136.28 Y-20.363 Z6 E4221.76 F900
G1 X137.124 Y-19.6077 Z6 E4222.21 F900
G1 X137.836 Y-18.6557 Z6 E4222.68 F900
G1 X142.854 Y-10.3064 Z6 E4226.58 F900
G1 X143.36 Y-9.23084 Z6 E4227.06 F900
G1 X143.632 Y-8.1244 Z6 E4227.51 F900
G1 X144.973 Y1.15766 Z6 E4231.26 F900
G1 X145.025 Y2.29853 Z6 E4231.72 F900
G1 X144.866 Y3.3619 Z6 E4232.15 F900
G1 X144.445 Y4.5432 Z6 E4232.65 F900
G1 X142.18 Y13.5882 Z6 E4236.38 F900
G1 X141.631 Y14.5122 Z6 E4236.81 F900
G1 X136.113 Y22.0301 Z6 E4240.54 F900
G1 X135.4 Y22.8269 Z6 E4240.97 F900
G1 X127.102 Y27.8132 Z6 E4244.84 F900
G1 X124.92 Y29.1249 Z6 E4245.86 F900
G1 X123.874 Y29.3818 Z6 E4246.29 F900
G1 X114.592 Y30.7228 Z6 E4250.04 F900
G1 X113.451 Y30.7753 Z6 E4250.5 F900
G1 X112.329 Y30.6074 Z6 E4250.95 F900
G1 X103.283 Y28.3419 Z6 E4254.68 F900
G1 X102.214 Y27.9608 Z6 E4255.14 F900
G1 X101.238 Y27.3808 Z6 E4255.59 F900
G1 X93.7199 Y21.863 Z6 E4259.32 F900
G1 X92.9231 Y21.1497 Z6 E4259.75 F900
G1 X87.9368 Y12.8524 Z6 E4263.62 F900
G1 X86.6251 Y10.6696 Z6 E4264.64 F900
G1 X86.3825 Y9.6827 Z6 E4265.05 F900
G1 X86.3246 Y8.42277 Z6 E4265.55 F900
G1 X84.9837 Y-0.858491 Z6 E4269.3 F900
G1 X85.1338 Y-1.8619 Z6 E4269.71 F900
G1 X85.5547 Y-3.0432 Z6 E4270.21 F900
G1 X87.82 Y-12.0882 Z6 E4273.94 F900
G1 X88.3692 Y-13.0122 Z6 E4274.37 F900
G1 X93.887 Y-20.5301 Z6 E4278.1 F900
G1 X94.6003 Y-21.3269 Z6 E4278.53 F900
G1 X102.898 Y-26.3132 Z6 E4282.4 F900
G1 X105.08 Y-27.6249 Z6 E4283.42 F900
G1 X106.126 Y-27.8818 Z6 E4283.85 F900
G1 X115.408 Y-29.2228 Z6 E4287.6 F900
G10
G0 X113.563 Y-28.4058 Z6 F9000
G11
G1 X113.722 Y-28.2467 Z6 E4287.64 F900
G1 X144.289 Y2.32037 Z6 E4295.42 F900
G1 X144.448 Y2.47946 Z6 E4295.46 F900
G10
G0 X141.63 Y13.5209 Z6 F9000
G11
G1 X141.471 Y13.3618 Z6 E4295.5 F900
G1 X102.738 Y-25.3714 Z6 E4305.36 F900
G1 X102.579 Y-25.5305 Z6 E4305.4 F900
G10
G0 X94.1758 Y-20.0742 Z6 F9000
G11
G1 X94.3349 Y-19.9151 Z6 E4305.44 F900
G1 X135.665 Y21.4151 Z6 E4315.96 F900
G1 X135.824 Y21.5742 Z6 E4316 F900
G10
G0 X127.421 Y27.0305 Z6 F9000
G11
G1 X127.262 Y26.8714 Z6 E4316.05 F900
G1 X88.5289 Y-11.8618 Z6 E4325.91 F900
G1 X88.3698 Y-12.0209 Z6 E4325.95 F900
G10
G0 X85.5644 Y-0.966988 Z6 F9000
G11
G1 X85.7235 Y-0.807889 Z6 E4325.99 F900
G1 X116.278 Y29.7467 Z6 E4333.76 F900
G1 X116.437 Y29.9058 Z6 E4333.8 F900
G10
G0 X116.591 Y-30.1082 Z6.4 F9000
G11
G1 X117.93 Y-29.908 Z6.4 E4334.35 F900
G1 X119.236 Y-29.4425 Z6.4 E4334.9 F900
G1 X128.151 Y-27.2099 Z6.4 E4338.58 F900
G1 X129.314 Y-26.5183 Z6.4 E4339.12 F900
G1 X136.723 Y-21.0808 Z6.4 E4342.79 F900
G1 X137.739 Y-20.1708 Z6.4 E4343.34 F900
G1 X138.594 Y-19.0285 Z6.4 E4343.91 F900
G1 X143.539 Y-10.8006 Z6.4 E4347.75 F900
G1 X144.146 Y-9.50966 Z6.4 E4348.32 F900
G1 X144.474 Y-8.17708 Z6.4 E4348.87 F900
G1 X145.795 Y0.969926 Z6.4 E4352.57 F900
G1 X145.858 Y2.3412 Z6.4 E4353.12 F900
G1 X145.658 Y3.68013 Z6.4 E4353.66 F900
G1 X145.192 Y4.98634 Z6.4 E4354.21 F900
G1 X142.96 Y13.9006 Z6.4 E4357.89 F900
G1 X142.268 Y15.0643 Z6.4 E4358.43 F900
G1 X136.831 Y22.4727 Z6.4 E4362.11 F900
G1 X135.929 Y23.4807 Z6.4 E4362.65 F900
G1 X127.71 Y28.4195 Z6.4 E4366.48 F900
G1 X125.248 Y29.8989 Z6.4 E4367.63 F900
G1 X123.927 Y30.2236 Z6.4 E4368.17 F900
G1 X114.78 Y31.5451 Z6.4 E4371.87 F900
G1 X113.409 Y31.6082 Z6.4 E4372.42 F900
G1 X112.059 Y31.4063 Z6.4 E4372.97 F900
G1 X103.145 Y29.1738 Z6.4 E4376.64 F900
G1 X101.859 Y28.7156 Z6.4 E4377.19 F900
G1 X100.686 Y28.0183 Z6.4 E4377.73 F900
G1 X93.2773 Y22.5808 Z6.4 E4381.41 F900
G1 X92.2693 Y21.6786 Z6.4 E4381.95 F900
G1 X87.3305 Y13.4602 Z6.4 E4385.79 F900
G1 X85.8511 Y10.9984 Z6.4 E4386.94 F900
G1 X85.529 Y9.68778 Z6.4 E4387.48 F900
G1 X85.4649 Y8.29463 Z6.4 E4388.03 F900
G1 X84.1434 Y-0.852217 Z6.4 E4391.73 F900
G1 X84.342 Y-2.18013 Z6.4 E4392.27 F900
G1 X84.8075 Y-3.48634 Z6.4 E4392.82 F900
G1 X87.0401 Y-12.4006 Z6.4 E4396.5 F900
G1 X87.7317 Y-13.5643 Z6.4 E4397.04 F900
G1 X93.1692 Y-20.9727 Z6.4 E4400.71 F900
G1 X94.0714 Y-21.9807 Z6.4 E4401.26 F900
G1 X102.29 Y-26.9195 Z6.4 E4405.09 F900
G1 X104.752 Y-28.3989 Z6.4 E4406.24 F900
G1 X106.073 Y-28.7236 Z6.4 E4406.78 F900
G1 X115.22 Y-30.0451 Z6.4 E4410.48 F900
G10
G0 X116.54 Y-29.1048 Z6.4 F9000
G11
G1 X117.686 Y-28.9334 Z6.4 E4410.94 F900
G1 X118.946 Y-28.4842 Z6.4 E4411.48 F900
G1 X127.766 Y-26.2755 Z6.4 E4415.12 F900
G1 X128.762 Y-25.6835 Z6.4 E4415.58 F900
G1 X136.092 Y-20.3033 Z6.4 E4419.22 F900
G1 X136.998 Y-19.4921 Z6.4 E4419.7 F900
G1 X137.763 Y-18.47 Z6.4 E4420.21 F900
G1 X142.655 Y-10.329 Z6.4 E4424.01 F900
G1 X143.199 Y-9.17415 Z6.4 E4424.52 F900
G1 X143.491 Y-7.98581 Z6.4 E4425.01 F900
G1 X144.798 Y1.06462 Z6.4 E4428.67 F900
G1 X144.855 Y2.28974 Z6.4 E4429.16 F900
G1 X144.683 Y3.43604 Z6.4 E4429.63 F900
G1 X144.234 Y4.69634 Z6.4 E4430.16 F900
G1 X142.025 Y13.5156 Z6.4 E4433.8 F900
G1 X141.433 Y14.5117 Z6.4 E4434.26 F900
G1 X136.053 Y21.8419 Z6.4 E4437.9 F900
G1 X135.284 Y22.7013 Z6.4 E4438.36 F900
G1 X127.195 Y27.5624 Z6.4 E4442.13 F900
G1 X124.863 Y28.9639 Z6.4 E4443.22 F900
G1 X123.736 Y29.2409 Z6.4 E4443.69 F900
G1 X114.685 Y30.5484 Z6.4 E4447.34 F900
G1 X113.46 Y30.6048 Z6.4 E4447.83 F900
G1 X112.255 Y30.4245 Z6.4 E4448.32 F900
G1 X103.435 Y28.2155 Z6.4 E4451.96 F900
G1 X102.286 Y27.8063 Z6.4 E4452.45 F900
G1 X101.238 Y27.1835 Z6.4 E4452.93 F900
G1 X93.9081 Y21.8033 Z6.4 E4456.57 F900
G1 X93.0487 Y21.0341 Z6.4 E4457.03 F900
G1 X88.1876 Y12.9451 Z6.4 E4460.81 F900
G1 X86.7861 Y10.6129 Z6.4 E4461.9 F900
G1 X86.5234 Y9.54411 Z6.4 E4462.34 F900
G1 X86.4616 Y8.19993 Z6.4 E4462.87 F900
G1 X85.1542 Y-0.8497 Z6.4 E4466.53 F900
G1 X85.3166 Y-1.93604 Z6.4 E4466.97 F900
G1 X85.7658 Y-3.19634 Z6.4 E4467.51 F900
G1 X87.9745 Y-12.0156 Z6.4 E4471.14 F900
G1 X88.5665 Y-13.0117 Z6.4 E4471.61 F900
G1 X93.9467 Y-20.3419 Z6.4 E4475.24 F900
G1 X94.7159 Y-21.2013 Z6.4 E4475.71 F900
G1 X102.805 Y-26.0624 Z6.4 E4479.48 F900
G1 X105.137 Y-27.4639 Z6.4 E4480.57 F900
G1 X106.264 Y-27.7409 Z6.4 E4481.03 F900
G1 X115.315 Y-29.0484 Z6.4 E4484.69 F900
G10
G0 X113.703 Y-28.2652 Z6.4 F9000
G11
G1 X113.862 Y-28.1061 Z6.4 E4484.73 F900
G1 X144.123 Y2.1542 Z6.4 E4492.43 F900
G1 X144.282 Y2.3133 Z6.4 E4492.47 F900
G10
G0 X141.506 Y13.397 Z6.4 F9000
G11
G1 X141.347 Y13.2379 Z6.4 E4492.52 F900
G1 X102.86 Y-25.2495 Z6.4 E4502.31 F900
G1 X102.701 Y-25.4086 Z6.4 E4502.35 F900
G10
G0 X94.2899 Y-19.9601 Z6.4 F9000
G11
G1 X94.449 Y-19.801 Z6.4 E4502.39 F900
G1 X135.551 Y21.301 Z6.4 E4512.86 F900
G1 X135.71 Y21.4601 Z6.4 E4512.9 F900
G10
G0 X127.299 Y26.9086 Z6.4 F9000
G11
G1 X127.14 Y26.7495 Z6.4 E4512.94 F900
G1 X88.6529 Y-11.7379 Z6.4 E4522.73 F900
G1 X88.4938 Y-11.897 Z6.4 E4522.78 F900
G10
G0 X85.7622 Y-0.769191 Z6.4 F9000
G11
G1 X85.9213 Y-0.610092 Z6.4 E4522.82 F900
G1 X116.138 Y29.6061 Z6.4 E4530.51 F900
G1 X116.297 Y29.7652 Z6.4 E4530.55 F900
G10
G0 X116.582 Y-29.9377 Z6.8 F9000
G11
G1 X118.004 Y-29.7251 Z6.8 E4531.12 F900
G1 X119.389 Y-29.2314 Z6.8 E4531.71 F900
G1 X128.078 Y-27.0554 Z6.8 E4535.29 F900
G1 X129.314 Y-26.321 Z6.8 E4535.87 F900
G1 X136.535 Y-21.0211 Z6.8 E4539.45 F900
G1 X137.614 Y-20.0553 Z6.8 E4540.03 F900
G1 X138.521 Y-18.8428 Z6.8 E4540.64 F900
G1 X143.34 Y-10.8232 Z6.8 E4544.38 F900
G1 X143.985 Y-9.45298 Z6.8 E4544.99 F900
G1 X144.333 Y-8.03849 Z6.8 E4545.57 F900
G1 X145.621 Y0.876884 Z6.8 E4549.17 F900
G1 X145.688 Y2.33241 Z6.8 E4549.75 F900
G1 X145.475 Y3.75427 Z6.8 E4550.33 F900
G1 X144.981 Y5.13948 Z6.8 E4550.92 F900
G1 X142.805 Y13.828 Z6.8 E4554.5 F900
G1 X142.071 Y15.0638 Z6.8 E4555.07 F900
G1 X136.771 Y22.2846 Z6.8 E4558.66 F900
G1 X135.813 Y23.3551 Z6.8 E4559.23 F900
G1 X127.803 Y28.1686 Z6.8 E4562.97 F900
G1 X125.192 Y29.7379 Z6.8 E4564.19 F900
G1 X123.788 Y30.0827 Z6.8 E4564.77 F900
G1 X114.873 Y31.3707 Z6.8 E4568.37 F900
G1 X113.418 Y31.4377 Z6.8 E4568.95 F900
G1 X111.985 Y31.2235 Z6.8 E4569.53 F900
G1 X103.296 Y29.0474 Z6.8 E4573.12 F900
G1 X101.932 Y28.5611 Z6.8 E4573.69 F900
G1 X100.686 Y27.821 Z6.8 E4574.27 F900
G1 X93.4654 Y22.5211 Z6.8 E4577.86 F900
G1 X92.3949 Y21.563 Z6.8 E4578.43 F900
G1 X87.5814 Y13.553 Z6.8 E4582.17 F900
G1 X86.0121 Y10.9417 Z6.8 E4583.39 F900
G1 X85.6699 Y9.54919 Z6.8 E4583.96 F900
G1 X85.6019 Y8.07179 Z6.8 E4584.55 F900
G1 X84.3139 Y-0.843426 Z6.8 E4588.16 F900
G1 X84.5249 Y-2.25427 Z6.8 E4588.73 F900
G1 X85.0186 Y-3.63948 Z6.8 E4589.32 F900
G1 X87.1946 Y-12.328 Z6.8 E4592.9 F900
G1 X87.929 Y-13.5638 Z6.8 E4593.47 F900
G1 X93.2289 Y-20.7846 Z6.8 E4597.06 F900
G1 X94.187 Y-21.8551 Z6.8 E4597.63 F900
G1 X102.197 Y-26.6686 Z6.8 E4601.37 F900
G1 X104.808 Y-28.2379 Z6.8 E4602.59 F900
G1 X106.212 Y-28.5827 Z6.8 E4603.17 F900
G1 X115.127 Y-29.8707 Z6.8 E4606.77 F900
G10
G0 X116.531 Y-28.9343 Z6.8 F9000
G11
G1 X117.76 Y-28.7505 Z6.8 E4607.27 F900
G1 X119.099 Y-28.2732 Z6.8 E4607.83 F900
G1 X127.693 Y-26.121 Z6.8 E4611.38 F900
G1 X128.761 Y-25.4861 Z6.8 E4611.87 F900
G1 X135.904 Y-20.2437 Z6.8 E4615.42 F900
G1 X136.873 Y-19.3765 Z6.8 E4615.94 F900
G1 X137.69 Y-18.2842 Z6.8 E4616.48 F900
G1 X142.457 Y-10.3516 Z6.8 E4620.19 F900
G1 X143.038 Y-9.11747 Z6.8 E4620.73 F900
G1 X143.35 Y-7.84721 Z6.8 E4621.26 F900
G1 X144.624 Y0.971581 Z6.8 E4624.82 F900
G1 X144.684 Y2.28095 Z6.8 E4625.34 F900
G1 X144.5 Y3.51019 Z6.8 E4625.84 F900
G1 X144.023 Y4.84948 Z6.8 E4626.41 F900
G1 X141.871 Y13.443 Z6.8 E4629.95 F900
G1 X141.236 Y14.5112 Z6.8 E4630.45 F900
G1 X135.994 Y21.6538 Z6.8 E4633.99 F900
G1 X135.169 Y22.5757 Z6.8 E4634.49 F900
G1 X127.288 Y27.3115 Z6.8 E4638.17 F900
G1 X124.806 Y28.8029 Z6.8 E4639.33 F900
G1 X123.597 Y29.1 Z6.8 E4639.82 F900
G1 X114.778 Y30.374 Z6.8 E4643.39 F900
G1 X113.469 Y30.4343 Z6.8 E4643.91 F900
G1 X112.181 Y30.2416 Z6.8 E4644.43 F900
G1 X103.586 Y28.0891 Z6.8 E4647.98 F900
G1 X102.359 Y27.6518 Z6.8 E4648.5 F900
G1 X101.239 Y26.9861 Z6.8 E4649.02 F900
G1 X94.0962 Y21.7437 Z6.8 E4652.56 F900
G1 X93.1743 Y20.9185 Z6.8 E4653.06 F900
G1 X88.4385 Y13.0379 Z6.8 E4656.74 F900
G1 X86.9471 Y10.5562 Z6.8 E4657.89 F900
G1 X86.6644 Y9.40553 Z6.8 E4658.37 F900
G1 X86.5986 Y7.97709 Z6.8 E4658.94 F900
G1 X85.3247 Y-0.840909 Z6.8 E4662.5 F900
G1 X85.4995 Y-2.01019 Z6.8 E4662.98 F900
G1 X85.9768 Y-3.34948 Z6.8 E4663.55 F900
G1 X88.129 Y-11.943 Z6.8 E4667.09 F900
G1 X88.7639 Y-13.0112 Z6.8 E4667.59 F900
G1 X94.0063 Y-20.1538 Z6.8 E4671.13 F900
G1 X94.8315 Y-21.0757 Z6.8 E4671.62 F900
G1 X102.712 Y-25.8115 Z6.8 E4675.3 F900
G1 X105.194 Y-27.3029 Z6.8 E4676.46 F900
G1 X106.403 Y-27.6 Z6.8 E4676.96 F900
G1 X115.222 Y-28.874 Z6.8 E4680.52 F900
G10
G0 X113.844 Y-28.1246 Z6.8 F9000
G11
G1 X114.003 Y-27.9655 Z6.8 E4680.56 F900
G1 X143.944 Y1.97591 Z6.8 E4688.18 F900
G1 X144.104 Y2.13501 Z6.8 E4688.23 F900
G10
G0 X141.369 Y13.2592 Z6.8 F9000
G11
G1 X141.209 Y13.1001 Z6.8 E4688.27 F900
G1 X102.982 Y-25.1276 Z6.8 E4698 F900
G1 X102.823 Y-25.2867 Z6.8 E4698.04 F900
G10
G0 X94.4039 Y-19.8461 Z6.8 F9000
G11
G1 X94.563 Y-19.687 Z6.8 E4698.08 F900
G1 X135.437 Y21.187 Z6.8 E4708.48 F900
G1 X135.596 Y21.3461 Z6.8 E4708.52 F900
G10
G0 X127.177 Y26.7867 Z6.8 F9000
G11
G1 X127.018 Y26.6276 Z6.8 E4708.56 F900
G1 X88.7906 Y-11.6001 Z6.8 E4718.3 F900
G1 X88.6315 Y-11.7592 Z6.8 E4718.34 F900
G10
G0 X85.96 Y-0.571393 Z6.8 F9000
G11
G1 X86.1191 Y-0.412294 Z6.8 E4718.38 F900
G1 X115.997 Y29.4655 Z6.8 E4725.98 F900
G1 X116.156 Y29.6246 Z6.8 E4726.02 F900
G10
G0 X116.574 Y-29.7672 Z7.2 F9000
G11
G1 X118.078 Y-29.5422 Z7.2 E4726.63 F900
G1 X119.543 Y-29.0204 Z7.2 E4727.25 F900
G1 X128.005 Y-26.9009 Z7.2 E4730.74 F900
G1 X129.313 Y-26.1236 Z7.2 E4731.35 F900
G1 X136.346 Y-20.9615 Z7.2 E4734.84 F900
G1 X137.488 Y-19.9397 Z7.2 E4735.45 F900
G1 X138.448 Y-18.657 Z7.2 E4736.09 F900
G1 X143.142 Y-10.8458 Z7.2 E4739.74 F900
G1 X143.824 Y-9.39629 Z7.2 E4740.38 F900
G1 X144.192 Y-7.8999 Z7.2 E4741 F900
G1 X145.446 Y0.783842 Z7.2 E4744.51 F900
G1 X145.517 Y2.32362 Z7.2 E4745.12 F900
G1 X145.292 Y3.82842 Z7.2 E4745.73 F900
G1 X144.77 Y5.29261 Z7.2 E4746.35 F900
G1 X142.651 Y13.7553 Z7.2 E4749.84 F900
G1 X141.874 Y15.0633 Z7.2 E4750.45 F900
G1 X136.711 Y22.0965 Z7.2 E4753.94 F900
G1 X135.697 Y23.2294 Z7.2 E4754.55 F900
G1 X127.896 Y27.9178 Z7.2 E4758.19 F900
G1 X125.135 Y29.5768 Z7.2 E4759.48 F900
G1 X123.65 Y29.9418 Z7.2 E4760.09 F900
G1 X114.966 Y31.1964 Z7.2 E4763.6 F900
G1 X113.426 Y31.2672 Z7.2 E4764.22 F900
G1 X111.911 Y31.0406 Z7.2 E4764.83 F900
G1 X103.448 Y28.921 Z7.2 E4768.32 F900
G1 X102.004 Y28.4066 Z7.2 E4768.93 F900
G1 X100.687 Y27.6236 Z7.2 E4769.55 F900
G1 X93.6535 Y22.4615 Z7.2 E4773.03 F900
G1 X92.5206 Y21.4474 Z7.2 E4773.64 F900
G1 X87.8322 Y13.6458 Z7.2 E4777.28 F900
G1 X86.1732 Y10.885 Z7.2 E4778.57 F900
G1 X85.8108 Y9.4106 Z7.2 E4779.18 F900
G1 X85.739 Y7.84895 Z7.2 E4779.8 F900
G1 X84.4844 Y-0.834635 Z7.2 E4783.31 F900
G1 X84.7078 Y-2.32842 Z7.2 E4783.92 F900
G1 X85.2296 Y-3.79261 Z7.2 E4784.54 F900
G1 X87.3491 Y-12.2553 Z7.2 E4788.03 F900
G1 X88.1264 Y-13.5633 Z7.2 E4788.64 F900
G1 X93.2885 Y-20.5965 Z7.2 E4792.13 F900
G1 X94.3026 Y-21.7294 Z7.2 E4792.74 F900
G1 X102.104 Y-26.4178 Z7.2 E4796.38 F900
G1 X104.865 Y-28.0768 Z7.2 E4797.67 F900
G1 X106.35 Y-28.4418 Z7.2 E4798.28 F900
G1 X115.034 Y-29.6964 Z7.2 E4801.79 F900
G10
G0 X116.522 Y-28.7638 Z7.2 F9000
G11
G1 X117.834 Y-28.5676 Z7.2 E4802.32 F900
G1 X119.253 Y-28.0621 Z7.2 E4802.92 F900
G1 X127.62 Y-25.9665 Z7.2 E4806.37 F900
G1 X128.761 Y-25.2887 Z7.2 E4806.9 F900
G1 X135.716 Y-20.184 Z7.2 E4810.35 F900
G1 X136.747 Y-19.2609 Z7.2 E4810.91 F900
G1 X137.617 Y-18.0985 Z7.2 E4811.49 F900
G1 X142.259 Y-10.3742 Z7.2 E4815.09 F900
G1 X142.877 Y-9.06078 Z7.2 E4815.67 F900
G1 X143.209 Y-7.70863 Z7.2 E4816.23 F900
G1 X144.45 Y0.878539 Z7.2 E4819.7 F900
G1 X144.514 Y2.27216 Z7.2 E4820.26 F900
G1 X144.318 Y3.58433 Z7.2 E4820.79 F900
G1 X143.812 Y5.00261 Z7.2 E4821.39 F900
G1 X141.716 Y13.3703 Z7.2 E4824.84 F900
G1 X141.039 Y14.5107 Z7.2 E4825.37 F900
G1 X135.934 Y21.4657 Z7.2 E4828.82 F900
G1 X135.053 Y22.45 Z7.2 E4829.35 F900
G1 X127.381 Y27.0607 Z7.2 E4832.93 F900
G1 X124.75 Y28.6418 Z7.2 E4834.16 F900
G1 X123.459 Y28.9591 Z7.2 E4834.69 F900
G1 X114.871 Y30.1997 Z7.2 E4838.16 F900
G1 X113.478 Y30.2638 Z7.2 E4838.72 F900
G1 X112.107 Y30.0587 Z7.2 E4839.27 F900
G1 X103.738 Y27.9628 Z7.2 E4842.72 F900
G1 X102.431 Y27.4973 Z7.2 E4843.28 F900
G1 X101.239 Y26.7887 Z7.2 E4843.83 F900
G1 X94.2843 Y21.684 Z7.2 E4847.28 F900
G1 X93.3 Y20.8029 Z7.2 E4847.81 F900
G1 X88.6893 Y13.1307 Z7.2 E4851.39 F900
G1 X87.1082 Y10.4996 Z7.2 E4852.62 F900
G1 X86.8053 Y9.26694 Z7.2 E4853.13 F900
G1 X86.7357 Y7.75425 Z7.2 E4853.73 F900
G1 X85.4952 Y-0.832119 Z7.2 E4857.21 F900
G1 X85.6824 Y-2.08433 Z7.2 E4857.71 F900
G1 X86.1879 Y-3.50261 Z7.2 E4858.31 F900
