;FLAVOR:UltiGCode
;MATERIAL:23318.000000
;TIME:94.000000
G0 X82.976055 Y97.952842 Z0.300000 F9000.000000
G11
G1 X82.993319 Y94.170491 F3000.000000 E0.471610
G1 X84.379985 Y92.802176 E0.714512
G1 X90.753617 Y92.831420 E1.509222
G1 X92.126085 Y94.225573 E1.753152
G1 X92.099453 Y99.292844 E2.384978
G1 X93.578526 Y99.914029 E2.585002
G1 X97.972155 Y95.560402 E3.356222
G1 X108.847013 Y95.610079 E4.712177
G1 X108.786777 Y93.201526 E5.012583
G1 X110.824855 Y90.740165 E5.411033
G1 X113.924483 Y90.661113 E5.797639
G1 X116.085155 Y93.013144 E6.195864
G1 X116.210059 Y97.846453 E6.798710
G1 X117.561062 Y98.472990 E6.984394
G1 X123.116161 Y94.013001 E7.872650
G1 X125.716445 Y94.276355 E8.198527
G1 X127.285461 Y96.684107 E8.556856
G1 X126.644575 Y99.755298 E8.948039
G1 X122.484816 Y103.087648 E9.612606
G1 X123.042615 Y104.689498 E9.824097
G1 X146.339899 Y104.811242 E12.728978
G1 X149.958643 Y106.891283 E13.249411
G1 X152.043724 Y110.473907 E13.766260
G1 X152.052459 Y114.663318 E14.288621
G1 X149.990973 Y118.263843 E14.805932
G1 X146.362032 Y120.367179 E15.328918
G1 X124.184280 Y120.289959 E18.094186
G1 X121.947682 Y119.103215 E18.409883
G1 X113.546512 Y127.427854 E19.884550
G1 X114.180528 Y128.924616 E20.087228
G1 X114.892770 Y128.909993 E20.176053
G1 X117.617002 Y131.533351 E20.647613
G1 X117.688401 Y135.312136 E21.118858
G1 X116.333818 Y136.712003 E21.361741
G1 X109.959489 Y136.834653 E22.156676
G1 X108.559968 Y135.486937 E22.398933
G1 X108.496211 Y131.691776 E22.872202
G1 X109.487725 Y130.672429 E23.049509
G1 X108.873354 Y129.208419 E23.247472
G1 X97.818526 Y129.157833 E24.625867
G1 X95.237525 Y126.554748 E25.082933
G1 X95.278216 Y117.647148 E26.193596
G1 X84.782045 Y117.608244 E27.502329
G1 X85.653142 Y119.174715 E27.725813
G1 X85.649083 Y120.286125 E27.864391
G1 X87.050946 Y121.700999 E28.112735
G1 X92.833030 Y127.538010 E29.137158
G1 X92.805616 Y133.536925 E29.885146
G1 X95.599845 Y133.549730 E30.233550
G1 X97.258568 Y134.001425 E30.447900
G1 X98.354763 Y135.107649 E30.642081
G1 X98.751204 Y136.612256 E30.836087
G1 X98.340953 Y138.115004 E31.030316
G1 X97.234835 Y139.211075 E31.224476
G1 X95.572108 Y139.647610 E31.438821
G1 X76.551363 Y139.560711 E33.810463
G1 X76.636255 Y118.783004 E36.401170
G1 X75.426923 Y118.777476 E36.551959
G1 X75.486418 Y105.735705 E38.178100
G1 X81.245175 Y105.762010 E38.896143
G1 X81.668505 Y104.272158 E39.089259
G1 X82.780828 Y103.181313 E39.283514
G1 X84.289380 Y102.794058 E39.477707
G1 X85.199133 Y103.043860 E39.595339
G1 X85.787192 Y103.210030 E39.671533
G1 X87.957573 Y105.483536 E40.063439
G1 X89.036319 Y104.414926 E40.252765
G1 X91.317254 Y102.143558 E40.654126
G1 X90.709201 Y100.661880 E40.853821
G1 X85.638057 Y100.639333 E41.486128
G1 X82.976055 Y97.952842 E41.957689
G0 X82.495152 Y98.149467 F9000.000000
G1 X82.513323 Y94.168135 F3000.000000 E42.454110
G1 X82.514233 Y93.968890 E42.478953
G1 X84.664163 Y91.847411 E42.855555
G1 X84.959431 Y91.971636 E42.895497
G1 X84.957872 Y92.324821 E42.939534
G1 X90.170151 Y92.348737 E43.589438
G1 X90.174677 Y91.980097 E43.635406
G1 X90.471495 Y91.860634 E43.675300
G1 X92.607121 Y94.030001 E44.054867
G1 X92.581133 Y98.974526 E44.671387
G1 X93.468577 Y99.347238 E44.791402
G1 X97.775529 Y95.079499 E45.547407
G1 X108.354802 Y95.127825 E46.866507
G1 X108.302433 Y93.033841 E47.127678
G1 X110.594377 Y90.265887 E47.575760
G1 X114.130363 Y90.175707 E48.016791
G1 X116.560347 Y92.820902 E48.464652
G1 X116.682204 Y97.536309 E49.052793
G1 X117.492805 Y97.912231 E49.164203
G1 X122.968946 Y93.515636 E50.039833
G1 X125.993242 Y93.821935 E50.418849
G1 X127.795834 Y96.588118 E50.830522
G1 X127.079236 Y100.022120 E51.267917
G1 X123.049679 Y103.250168 E51.911682
G1 X123.384358 Y104.211278 E52.038577
G1 X146.469185 Y104.331911 E54.916967
G1 X150.309005 Y106.539026 E55.469194
G1 X152.523455 Y110.343933 E56.018111
G1 X152.532724 Y114.790540 E56.572541
G1 X150.343376 Y118.614386 E57.121938
G1 X146.490306 Y120.847629 E57.677224
G1 X124.064039 Y120.769544 E60.473479
G1 X122.034672 Y119.692757 E60.759926
G1 X114.115298 Y127.539987 E62.150022
G1 X114.495708 Y128.438044 E62.271628
G1 X115.082166 Y128.426003 E62.344767
G1 X118.093161 Y131.325505 E62.865965
G1 X118.172084 Y135.502544 E63.386876
G1 X116.070850 Y137.674024 E63.763636
G1 X115.772789 Y137.556647 E63.803578
G1 X115.766188 Y137.203013 E63.847678
G1 X110.550200 Y137.303375 E64.498159
G1 X110.556904 Y137.665067 E64.543264
G1 X110.262990 Y137.793298 E64.583247
G1 X108.083385 Y135.694372 E64.960536
G1 X108.012925 Y131.500213 E65.483562
G1 X108.922244 Y130.565367 E65.646171
G1 X108.553621 Y129.686961 E65.764948
G1 X97.617598 Y129.636919 E67.128530
G1 X94.756621 Y126.751462 E67.635176
G1 X94.796026 Y118.125364 E68.710739
G1 X85.599880 Y118.091279 E69.857376
G1 X86.133597 Y119.051048 E69.994304
G1 X86.129806 Y120.089330 E70.123764
G1 X87.391975 Y121.363214 E70.347361
G1 X93.313933 Y127.341429 E71.396566
G1 X93.287806 Y133.059130 E72.109489
G1 X95.665110 Y133.070024 E72.405909
G1 X97.508903 Y133.572115 E72.644175
G1 X98.786178 Y134.861075 E72.870432
G1 X99.248168 Y136.614462 E73.096516
G1 X98.770144 Y138.365458 E73.322831
G1 X97.481248 Y139.642648 E73.549075
G1 X95.632985 Y140.127893 E73.787337
G1 X76.069407 Y140.038515 E76.226664
G1 X76.154299 Y119.260806 E78.817371
G1 X74.944737 Y119.255278 E78.968188
G1 X75.008612 Y105.253518 E80.714027
G1 X80.883034 Y105.280351 E81.446492
G1 X81.241563 Y104.018556 E81.610048
G1 X82.536711 Y102.748415 E81.836230
G1 X84.293526 Y102.297430 E82.062383
G1 X85.327938 Y102.581462 E82.196133
G1 X86.043868 Y102.783765 E82.288895
G1 X87.967138 Y104.798420 E82.636180
G1 X88.698184 Y104.074244 E82.764483
G1 X90.751582 Y102.029457 E83.125805
G1 X90.386750 Y101.140450 E83.245623
G1 X85.437063 Y101.118443 E83.862785
G1 X82.495152 Y98.149467 E84.383931
G0 X82.014250 Y98.346093 F9000.000000
G1 X82.033328 Y94.165771 F3000.000000 E84.905163
G1 X82.035147 Y93.767289 E84.954848
G1 X85.149256 Y90.694392 E85.500345
G1 X85.444524 Y90.818616 E85.540287
G1 X85.439985 Y91.847029 E85.668516
G1 X89.696035 Y91.866557 E86.199191
G1 X89.708854 Y90.822707 E86.329354
G1 X90.005670 Y90.703245 E86.369248
G1 X93.088156 Y93.834431 E86.917101
G1 X93.062813 Y98.656210 E87.518317
G1 X93.358627 Y98.780447 E87.558321
G1 X97.578902 Y94.598597 E88.299113
G1 X107.862592 Y94.645571 E89.581356
G1 X107.818089 Y92.866157 E89.803293
G1 X110.363898 Y89.791611 E90.301007
G1 X114.336242 Y89.690300 E90.796463
G1 X117.035539 Y92.628660 E91.293960
G1 X117.154349 Y97.226166 E91.867395
G1 X117.424549 Y97.351473 E91.904532
G1 X122.821730 Y93.018271 E92.767536
G1 X126.270040 Y93.367515 E93.199691
G1 X128.306206 Y96.492129 E93.664707
G1 X127.513896 Y100.288943 E94.148314
G1 X123.614542 Y103.412687 E94.771279
G1 X123.726102 Y103.733058 E94.813577
G1 X146.598471 Y103.852580 E97.665476
G1 X150.659367 Y106.186769 E98.249497
G1 X153.003185 Y110.213959 E98.830482
G1 X153.012990 Y114.917763 E99.416981
G1 X150.695779 Y118.964929 E99.998464
G1 X146.618581 Y121.328078 E100.586050
G1 X123.943798 Y121.249128 E103.413292
G1 X122.121661 Y120.282298 E103.670488
G1 X114.684085 Y127.652120 E104.976013
G1 X114.810887 Y127.951471 E105.016549
G1 X115.271561 Y127.942014 E105.074000
G1 X118.569320 Y131.117660 E105.644837
G1 X118.655766 Y135.692953 E106.215413
G1 X115.612494 Y138.837964 E106.761085
G1 X115.314432 Y138.720589 E106.801026
G1 X115.295235 Y137.692164 E106.929279
G1 X111.039006 Y137.774059 E107.460068
G1 X111.058285 Y138.814267 E107.589790
G1 X110.764371 Y138.942498 E107.629773
G1 X107.606801 Y135.901808 E108.176347
G1 X107.529639 Y131.308650 E108.749129
G1 X108.356763 Y130.458305 E108.897040
G1 X108.233889 Y130.165504 E108.936632
G1 X97.416669 Y130.116005 E110.285400
G1 X94.275718 Y126.948175 E110.841627
G1 X94.313836 Y118.603580 E111.882090
G1 X86.417715 Y118.574313 E112.866632
G1 X86.614053 Y118.927382 E112.917003
G1 X86.610528 Y119.892534 E113.037345
G1 X87.733005 Y121.025430 E113.236194
G1 X93.794837 Y127.144848 E114.310181
G1 X93.769995 Y132.581334 E114.988041
G1 X95.730374 Y132.590319 E115.232475
G1 X97.759237 Y133.142806 E115.494657
G1 X99.217592 Y134.614500 E115.752991
G1 X99.745131 Y136.616668 E116.011153
G1 X99.199336 Y138.615913 E116.269553
G1 X97.727660 Y140.074223 E116.527882
G1 X95.693866 Y140.608177 E116.790061
G1 X75.587452 Y140.516318 E119.297072
G1 X75.672342 Y119.738608 E121.887780
G1 X74.462552 Y119.733080 E122.038625
G1 X74.530806 Y104.771330 E123.904163
G1 X80.520893 Y104.798692 E124.651050
G1 X80.814621 Y103.764954 E124.785044
G1 X82.292596 Y102.315517 E125.043155
G1 X84.297670 Y101.800802 E125.301266
G1 X85.174856 Y102.041662 E125.414686
G1 X85.175987 Y102.039729 E125.414966
G1 X86.300545 Y102.357500 E125.560673
G1 X87.976704 Y104.113304 E125.863337
G1 X88.359866 Y103.733743 E125.930584
G1 X90.185910 Y101.915356 E126.251901
G1 X90.064300 Y101.619020 E126.291840
G1 X85.236070 Y101.597554 E126.893858
G1 X82.014250 Y98.346093 E127.464588
G10
G0 X83.322086 Y94.183247 F9000.000000
G11
G1 X89.555587 Y100.416747 F3000.000000 E128.563756
G0 X88.873734 Y100.413716 F9000.000000
G1 X83.230582 Y94.770565 F3000.000000 E129.558827
G0 X83.227498 Y95.446303 F9000.000000
G1 X88.191879 Y100.410685 F3000.000000 E130.434208
G0 X87.510025 Y100.407653 F9000.000000
G1 X83.224414 Y96.122042 F3000.000000 E131.189900
G0 X83.221329 Y96.797779 F9000.000000
G1 X86.828172 Y100.404622 F3000.000000 E131.825903
G0 X86.146317 Y100.401590 F9000.000000
G1 X83.218245 Y97.473517 F3000.000000 E132.342218
G10
G0 X83.663758 Y93.846096 F9000.000000
G11
G1 X90.237441 Y100.419779 F3000.000000 E133.501371
G10
G0 X91.309031 Y101.491369 F9000.000000
G11
G1 X115.234770 Y125.417108 F3000.000000 E137.720254
G0 X114.893806 Y125.754966 F9000.000000
G1 X91.469495 Y102.330655 F3000.000000 E141.850719
G0 X91.129371 Y102.669353 F9000.000000
G1 X114.552841 Y126.092824 F3000.000000 E145.981035
G0 X114.211877 Y126.430682 F9000.000000
G1 X90.789247 Y103.008052 F3000.000000 E150.111204
G0 X90.449121 Y103.346749 F9000.000000
G1 X113.870913 Y126.768540 F3000.000000 E154.241224
G0 X113.529948 Y127.106399 F9000.000000
G1 X90.108997 Y103.685448 F3000.000000 E158.371097
G0 X89.768873 Y104.024146 F9000.000000
G1 X113.369122 Y127.624394 F3000.000000 E162.532585
G0 X113.867975 Y128.802071 F9000.000000
G1 X89.428748 Y104.362844 F3000.000000 E166.842013
G0 X89.088318 Y104.701236 F9000.000000
G1 X117.405009 Y133.017927 F3000.000000 E171.835163
G0 X117.418082 Y133.709823 F9000.000000
G1 X88.747305 Y105.039045 F3000.000000 E176.890750
G0 X88.406291 Y105.376854 F9000.000000
G1 X117.431156 Y134.401719 F3000.000000 E182.008774
G0 X117.444229 Y135.093615 F9000.000000
G1 X88.065278 Y105.714664 F3000.000000 E187.189235
G10
G0 X84.875736 Y103.203944 F9000.000000
G11
G1 X117.172226 Y135.500434 F3000.000000 E192.884152
G0 X116.838395 Y135.845426 F9000.000000
G1 X84.086810 Y103.093841 F3000.000000 E198.659318
G0 X83.546650 Y103.232503 F9000.000000
G1 X116.504564 Y136.190417 F3000.000000 E204.470866
G0 X116.111560 Y136.476235 F9000.000000
G1 X109.343246 Y129.707922 F3000.000000 E205.664339
G0 X108.602502 Y128.967177 F9000.000000
G1 X83.006490 Y103.371165 F3000.000000 E210.177745
G0 X82.625900 Y103.669398 F9000.000000
G1 X107.920559 Y128.964057 F3000.000000 E214.638013
G0 X107.238616 Y128.960937 F9000.000000
G1 X82.283181 Y104.005502 F3000.000000 E219.038465
G0 X81.940461 Y104.341604 F9000.000000
G1 X95.004991 Y117.406134 F3000.000000 E221.342164
G0 X94.323643 Y117.403608 F9000.000000
G1 X81.757404 Y104.837370 F3000.000000 E223.557999
G0 X81.607202 Y105.365990 F9000.000000
G1 X93.642295 Y117.401083 F3000.000000 E225.680176
G0 X92.960947 Y117.398558 F9000.000000
G1 X81.456999 Y105.894609 F3000.000000 E227.708695
G0 X80.883929 Y106.000362 F9000.000000
G1 X92.279599 Y117.396032 F3000.000000 E229.718121
G0 X91.598251 Y117.393507 F9000.000000
G1 X80.201991 Y105.997247 F3000.000000 E231.727651
G0 X79.520054 Y105.994132 F9000.000000
G1 X90.916903 Y117.390982 F3000.000000 E233.737285
G0 X90.235556 Y117.388456 F9000.000000
G1 X78.838117 Y105.991017 F3000.000000 E235.747022
G0 X78.156179 Y105.987903 F9000.000000
G1 X89.554207 Y117.385930 F3000.000000 E237.756864
G0 X88.872859 Y117.383405 F9000.000000
G1 X77.474242 Y105.984788 F3000.000000 E239.766809
G0 X76.792304 Y105.981672 F9000.000000
G1 X88.191511 Y117.380879 F3000.000000 E241.776859
G0 X87.510163 Y117.378354 F9000.000000
G1 X76.110367 Y105.978558 F3000.000000 E243.787012
G0 X75.723978 Y106.270991 F9000.000000
G1 X86.828815 Y117.375829 F3000.000000 E245.745155
G0 X86.147468 Y117.373303 F9000.000000
G1 X75.720895 Y106.946731 F3000.000000 E247.583698
G0 X75.717813 Y107.622471 F9000.000000
G1 X85.466120 Y117.370778 F3000.000000 E249.302640
G0 X84.784772 Y117.368253 F9000.000000
G1 X75.714730 Y108.298211 F3000.000000 E250.901982
G0 X75.711647 Y108.973950 F9000.000000
G1 X84.709735 Y117.972038 F3000.000000 E252.488637
G10
G0 X85.412488 Y119.353614 F9000.000000
G11
G1 X75.708565 Y109.649691 F3000.000000 E254.199753
G0 X75.705482 Y110.325430 F9000.000000
G1 X85.410018 Y120.029966 F3000.000000 E255.910977
G10
G0 X76.869999 Y120.314639 F9000.000000
G11
G1 X95.875249 Y139.319889 F3000.000000 E259.262218
G0 X96.412911 Y139.178730 F9000.000000
G1 X76.872761 Y119.638579 F3000.000000 E262.707780
G0 X76.875523 Y118.962519 F9000.000000
G1 X96.950576 Y139.037572 F3000.000000 E266.247662
G0 X97.350457 Y138.758631 F9000.000000
G1 X75.674656 Y117.082829 F3000.000000 E270.069808
G0 X75.671573 Y117.758569 F9000.000000
G1 X76.455177 Y118.542173 F3000.000000 E270.207983
G0 X75.773238 Y118.539057 F9000.000000
G1 X75.668490 Y118.434309 F3000.000000 E270.226453
G10
G0 X75.677738 Y116.407089 F9000.000000
G11
G1 X92.566715 Y133.296066 F3000.000000 E273.204527
G0 X92.569803 Y132.620332 F9000.000000
G1 X75.680820 Y115.731349 F3000.000000 E276.182602
G0 X75.683904 Y115.055610 F9000.000000
G1 X92.572890 Y131.944596 F3000.000000 E279.160678
G0 X92.575978 Y131.268862 F9000.000000
G1 X75.686986 Y114.379869 F3000.000000 E282.138754
G0 X75.690068 Y113.704129 F9000.000000
G1 X92.579066 Y130.593127 F3000.000000 E285.116832
G0 X92.582154 Y129.917393 F9000.000000
G1 X75.693151 Y113.028390 F3000.000000 E288.094910
G0 X75.696234 Y112.352650 F9000.000000
G1 X92.585242 Y129.241658 F3000.000000 E291.072989
G0 X92.588330 Y128.565924 F9000.000000
G1 X75.699317 Y111.676910 F3000.000000 E294.051070
G0 X75.702399 Y111.001170 F9000.000000
G1 X92.591417 Y127.890188 F3000.000000 E297.029151
G10
G0 X95.479939 Y126.026952 F9000.000000
G11
G1 X98.373356 Y128.920369 F3000.000000 E297.539354
G0 X99.055299 Y128.923490 F9000.000000
G1 X95.483026 Y125.351216 F3000.000000 E298.169261
G0 X95.486113 Y124.675481 F9000.000000
G1 X99.737242 Y128.926610 F3000.000000 E298.918873
G0 X100.419186 Y128.929731 F9000.000000
G1 X95.489199 Y123.999744 F3000.000000 E299.788190
G0 X95.492286 Y123.324009 F9000.000000
G1 X101.101129 Y128.932852 F3000.000000 E300.777210
G0 X101.783072 Y128.935972 F9000.000000
G1 X95.495373 Y122.648273 F3000.000000 E301.885935
G0 X95.498460 Y121.972538 F9000.000000
G1 X102.465014 Y128.939093 F3000.000000 E303.114365
G0 X103.146957 Y128.942213 F9000.000000
G1 X95.501547 Y121.296803 F3000.000000 E304.462498
G0 X95.504633 Y120.621066 F9000.000000
G1 X103.828900 Y128.945333 F3000.000000 E305.930336
G0 X104.510843 Y128.948454 F9000.000000
G1 X95.507720 Y119.945331 F3000.000000 E307.517879
G0 X95.510807 Y119.269595 F9000.000000
G1 X105.192787 Y128.951575 F3000.000000 E309.225125
G0 X105.874730 Y128.954696 F9000.000000
G1 X95.513894 Y118.593860 F3000.000000 E311.052076
G0 X95.516981 Y117.918124 F9000.000000
G1 X106.556673 Y128.957816 F3000.000000 E312.998732
G10
G0 X109.057646 Y131.458789 F9000.000000
G11
G1 X114.113537 Y136.514680 F3000.000000 E313.890249
G0 X114.779544 Y136.501864 F9000.000000
G1 X109.392359 Y131.114679 F3000.000000 E314.840184
G0 X109.727072 Y130.770570 F9000.000000
G1 X115.445552 Y136.489050 F3000.000000 E315.848538
G10
G0 X113.447529 Y136.527494 F9000.000000
G11
G1 X108.738371 Y131.818336 F3000.000000 E316.678915
G0 X108.749969 Y132.508758 F9000.000000
