;FLAVOR:UltiGCode
;MATERIAL:24855
;TIME:0
G0 X0.000000 Y0.000000 Z0.300000
;BRIM LAYER:0 Z:0.300000 HEIGHT:0.300000 OVERLAP:0.000000 WIDTH:0.000000
;PERIMETER:0 LAYER:0 Z:0.300000 HEIGHT:0.300000 OVERLAP:0.000000 WIDTH:0.480000
G10
G0 X61.621584 Y86.720779 F2400.000000
G11
G1 X69.075564 Y86.754828 F1500.000000 E0.929415
G1 X69.084656 Y84.765712 E1.177433
G1 X83.981331 Y70.066122 E3.786881
G1 X90.162232 Y72.666520 E4.622979
G1 X96.444056 Y70.138230 E5.467293
G1 X102.160907 Y75.945385 E6.483351
G1 X105.430991 Y71.996159 E7.122661
G1 X123.475834 Y71.535931 E9.373329
G1 X126.753703 Y75.104096 E9.977460
G1 X137.696724 Y76.212413 E11.348880
G1 X143.974223 Y85.845582 E12.782523
G1 X153.267949 Y85.894156 E13.941335
G1 X164.458529 Y92.326459 E15.550717
G1 X170.974477 Y103.522268 E17.165886
G1 X171.001578 Y116.520706 E18.786611
G1 X164.560809 Y127.769951 E20.402863
G1 X153.255422 Y134.322572 E22.032143
G1 X136.658787 Y134.264788 E24.101521
G1 X136.754552 Y139.333636 E24.733647
G1 X122.198084 Y154.376756 E27.343683
G1 X115.989269 Y151.931750 E28.175698
G1 X109.825020 Y154.621117 E29.014257
G1 X106.918528 Y151.822228 E29.517368
G1 X100.157305 Y153.597305 E30.388966
G1 X62.544367 Y153.425470 E35.078816
G1 X62.629257 Y132.647741 E37.669526
G1 X61.412179 Y132.642174 E37.821280
G1 X61.621128 Y86.820779 E43.534618
;PERIMETER:1 LAYER:0 Z:0.300000 HEIGHT:0.300000 OVERLAP:0.000000 WIDTH:0.480000
G0 X61.623776 Y86.240785 F2400.000000
G1 X68.597759 Y86.272640 F1500.000000 E44.404184
G1 X68.605571 Y84.564119 E44.617215
G1 X83.872204 Y69.499459 E47.291469
G1 X90.166279 Y72.147471 E48.142876
G1 X96.561654 Y69.573479 E49.002451
G1 X102.130136 Y75.229923 E49.992141
G1 X105.200512 Y71.521883 E50.592407
G1 X123.681713 Y71.050524 E52.897500
G1 X126.983692 Y74.644934 E53.506075
G1 X137.973521 Y75.757991 E54.883361
G1 X144.235236 Y85.366940 E56.313399
G1 X153.397234 Y85.414826 E57.455786
G1 X164.808890 Y91.974202 E59.096963
G1 X171.454207 Y103.392294 E60.744199
G1 X171.481846 Y116.647928 E62.396993
G1 X164.913212 Y128.120495 E64.045332
G1 X153.383694 Y134.803022 E65.706912
G1 X137.147974 Y134.746493 E67.731289
G1 X137.238234 Y139.524043 E68.327088
G1 X122.320269 Y154.940750 E71.001942
G1 X115.998686 Y152.451336 E71.849068
G1 X109.723049 Y155.189300 E72.702780
G1 X106.779723 Y152.354938 E73.212267
G1 X100.218187 Y154.077588 E74.058123
G1 X62.062409 Y153.903273 E78.815658
G1 X62.147302 Y133.125544 E81.406368
G1 X60.929994 Y133.119975 E81.558151
G1 X61.143778 Y86.238594 E87.403656
G1 X61.523777 Y86.240328 E87.451037
;PERIMETER:2 LAYER:0 Z:0.300000 HEIGHT:0.300000 OVERLAP:0.000000 WIDTH:0.480000
G0 X61.625969 Y85.760790 F2400.000000
G1 X68.119954 Y85.790453 F1500.000000 E88.260753
G1 X68.126487 Y84.362529 E88.438797
G1 X83.763077 Y68.932796 E91.177857
G1 X90.170325 Y71.628423 E92.044574
G1 X96.679252 Y69.008729 E92.919411
G1 X102.099366 Y74.514461 E93.882731
G1 X104.970033 Y71.047606 E94.443953
G1 X123.887593 Y70.565117 E96.803472
G1 X127.213680 Y74.185772 E97.416490
G1 X138.250317 Y75.303569 E98.799642
G1 X144.496249 Y84.888297 E100.226076
G1 X153.526520 Y84.935496 E101.352038
G1 X165.159251 Y91.621945 E103.025009
G1 X171.933938 Y103.262320 E104.704314
G1 X171.962113 Y116.775151 E106.389176
G1 X165.265614 Y128.471039 E108.069601
G1 X153.511965 Y135.283473 E109.763482
G1 X137.637161 Y135.228199 E111.742858
G1 X137.721917 Y139.714450 E112.302329
G1 X122.442454 Y155.504743 E115.042002
G1 X116.008103 Y152.970921 E115.904239
G1 X109.621079 Y155.757483 E116.773104
G1 X106.640917 Y152.887648 E117.288968
G1 X100.279069 Y154.557872 E118.109082
G1 X61.580453 Y154.381075 E122.934301
G1 X61.665346 Y133.603346 E125.525011
G1 X60.447808 Y133.597776 E125.676823
G1 X60.665972 Y85.756407 E131.642026
G1 X61.525970 Y85.760333 E131.749256
;WALL LAYER:0 Z:0.300000 HEIGHT:0.300000 OVERLAP:0.200000 WIDTH:0.480000
;PERIMETER:1 LAYER:0 Z:0.300000 HEIGHT:0.300000 OVERLAP:0.200000 WIDTH:0.300000
G10
G0 X77.538475 Y102.783655 F1800.000000
G11
G1 X83.405651 Y102.810454 F600.000000 E132.186651
G1 X83.768226 Y101.534480 E132.285539
G1 X85.051931 Y100.275510 E132.419580
G1 X86.793211 Y99.828482 E132.553599
G1 X88.527773 Y100.310392 E132.687806
G1 X90.466516 Y102.341215 E132.897114
G1 X93.464834 Y99.359439 E133.212349
G1 X92.715179 Y98.609752 E133.291385
G1 X87.949646 Y98.588500 E133.646653
G1 X85.025226 Y95.637197 E133.956388
G1 X85.044175 Y91.481514 E134.266192
G1 X87.245237 Y89.309555 E134.496716
G1 X87.429343 Y89.386978 E134.511605
G1 X87.427741 Y89.854470 E134.546456
G1 X92.699763 Y89.878876 E134.939482
G1 X92.705704 Y89.396720 E134.975429
G1 X92.890752 Y89.322037 E134.990305
G1 X95.077035 Y91.542203 E135.222593
G1 X95.049700 Y96.747032 E135.610612
G1 X96.112212 Y96.747051 E135.689821
G1 X100.287806 Y92.609569 E136.128040
G1 X110.885558 Y92.657966 E136.918096
G1 X110.832705 Y90.544370 E137.075711
G1 X113.108762 Y87.795552 E137.341762
G1 X116.617468 Y87.706046 E137.603416
G1 X119.030628 Y90.332895 E137.869333
G1 X119.152695 Y95.055672 E138.221527
G1 X119.996976 Y95.447236 E138.290907
G1 X125.478135 Y91.046730 E138.814913
G1 X128.475911 Y91.350333 E139.039537
G1 X130.263920 Y94.094092 E139.283679
G1 X129.552076 Y97.505414 E139.543466
G1 X125.514389 Y100.739998 E139.929146
G1 X125.862969 Y101.741079 E140.008170
G1 X148.961098 Y101.861870 E141.730128
G1 X152.787090 Y104.061033 E142.059111
G1 X154.993460 Y107.852037 E142.386105
G1 X155.002707 Y112.282564 E142.716396
G1 X152.821360 Y116.092457 E143.043677
G1 X148.982311 Y118.317588 E143.374471
G1 X126.571557 Y118.239570 E145.045173
G1 X124.529274 Y117.155931 E145.217527
G1 X116.579758 Y125.032970 E146.051815
G1 X116.975970 Y125.968363 E146.127545
G1 X117.570160 Y125.956256 E146.171850
G1 X120.563386 Y128.838479 E146.481623
G1 X120.641854 Y132.990619 E146.791215
G1 X118.490669 Y135.213745 E147.021833
G1 X118.304822 Y135.140590 E147.036722
G1 X118.295627 Y134.672656 E147.071613
G1 X113.019669 Y134.773959 E147.465001
G1 X113.028474 Y135.250061 E147.500499
G1 X112.845238 Y135.330215 E147.515409
G1 X110.613195 Y133.181430 E147.746381
G1 X110.543132 Y129.012209 E148.057235
G1 X111.457534 Y128.072101 E148.155003
G1 X111.073641 Y127.157138 E148.228973
G1 X100.130163 Y127.106976 E149.044803
G1 X97.286696 Y124.239186 E149.345868
G1 X97.326164 Y115.595488 E149.990251
G1 X88.048780 Y115.561089 E150.681872
G1 X88.603527 Y116.558702 E150.766968
G1 X88.599760 Y117.601533 E150.844710
G1 X95.783870 Y124.853711 E151.605711
G1 X95.757669 Y130.588976 E152.033272
G1 X98.160987 Y130.600006 E152.212438
G1 X99.993204 Y131.098935 E152.354001
G1 X101.259175 Y132.376445 E152.488079
G1 X101.717094 Y134.114269 E152.622054
G1 X101.243334 Y135.849751 E152.756166
G1 X99.965888 Y137.115634 E152.890236
G1 X98.129230 Y137.597861 E153.031797
G1 X78.599534 Y137.508652 E154.487725
G1 X78.684422 Y116.730948 E156.036688
G1 X77.474957 Y116.725416 E156.126853
G1 X77.538247 Y102.833654 E157.162476
;PERIMETER:0 LAYER:0 Z:0.300000 HEIGHT:0.300000 OVERLAP:0.200000 WIDTH:0.600000
G0 X77.088479 Y102.781602 F1800.000000
G1 X77.090531 Y102.331826 F600.000000 E157.236487
G1 X83.066144 Y102.358900 E158.219776
G1 X83.367965 Y101.296741 E158.401472
G1 X84.823076 Y99.869664 E158.736841
G1 X86.797105 Y99.362892 E159.072198
G1 X88.768413 Y99.910770 E159.408869
G1 X90.475480 Y101.698915 E159.815658
G1 X92.827763 Y99.358774 E160.361640
G1 X92.528056 Y99.059024 E160.431389
G1 X87.761215 Y99.037666 E161.215774
G1 X84.574379 Y95.821532 E161.960790
G1 X84.595033 Y91.292511 E162.706042
G1 X87.514324 Y88.411830 E163.380904
G1 X87.883196 Y88.566996 E163.446753
G1 X87.879721 Y89.406634 E163.584915
G1 X92.255276 Y89.426830 E164.304914
G1 X92.265802 Y88.571442 E164.445678
G1 X92.636594 Y88.422090 E164.511455
G1 X95.528011 Y91.358861 E165.189605
G1 X95.502071 Y96.297031 E166.002186
G1 X95.926879 Y96.297051 E166.072087
G1 X100.103468 Y92.158722 E167.039567
G1 X110.424109 Y92.205853 E168.737833
G1 X110.378633 Y90.387173 E169.037187
G1 X112.892693 Y87.350914 E169.685838
G1 X116.810481 Y87.250977 E170.330715
G1 X119.476123 Y90.152671 E170.979076
G1 X119.595332 Y94.764912 E171.738267
G1 X119.932839 Y94.921456 E171.799487
G1 X125.340121 Y90.580451 E172.940499
G1 X128.735411 Y90.924313 E173.502047
G1 X130.742395 Y94.004105 E174.106931
G1 X129.959569 Y97.755565 E174.737525
G1 X126.043948 Y100.892361 E175.563087
G1 X126.183306 Y101.292613 E175.632826
G1 X149.082306 Y101.412497 E179.400877
G1 X153.115554 Y103.730792 E180.166366
G1 X155.443207 Y107.730186 E180.927804
G1 X155.452957 Y112.401838 E181.696520
G1 X153.151739 Y116.421092 E182.458613
G1 X149.102566 Y118.768010 E183.228726
G1 X126.458830 Y118.689180 E186.954745
G1 X124.610831 Y117.708627 E187.298986
G1 X117.112995 Y125.138095 E189.035848
G1 X117.271395 Y125.512066 E189.102676
G1 X117.747678 Y125.502517 E189.181064
G1 X121.009785 Y128.643624 E189.926233
G1 X121.095306 Y133.169130 E190.671032
G1 X118.242372 Y136.117462 E191.346121
G1 X117.870011 Y135.970851 E191.411971
G1 X117.854106 Y135.131140 E191.550169
G1 X113.477928 Y135.215224 E192.270396
G1 X113.493669 Y136.065815 E192.410383
G1 X113.126507 Y136.226121 E192.476307
G1 X110.166392 Y133.375895 E193.152481
G1 X110.090051 Y128.832617 E193.900177
G1 X110.927390 Y127.971738 E194.097790
G1 X110.773952 Y127.605911 E194.163067
G1 X99.941794 Y127.556118 E195.945503
G1 X96.835847 Y124.423603 E196.671376
G1 X96.874111 Y116.043815 E198.050273
G1 X88.815499 Y116.013933 E199.376316
G1 X89.053897 Y116.442662 E199.457036
G1 X89.050437 Y117.417031 E199.617368
G1 X96.234718 Y124.669414 E201.297143
G1 X96.209721 Y130.141041 E202.197501
G1 X98.222164 Y130.150282 E202.528650
G1 X100.227898 Y130.696459 E202.870708
G1 X101.663630 Y132.145286 E203.206340
G1 X102.182999 Y134.116345 E203.541746
G1 X101.645701 Y136.084557 E203.877463
G1 X100.196893 Y137.520241 E204.213087
G1 X98.186302 Y138.048128 E204.555140
G1 X78.147701 Y137.956593 E207.852500
G1 X78.232588 Y117.178887 E211.271472
G1 X77.022909 Y117.173355 E211.470525
G1 X77.088251 Y102.831601 E213.830466
;WALL LAYER:0 Z:0.300000 HEIGHT:0.300000 OVERLAP:0.200000 WIDTH:0.600000
;INFILL LAYER:0 Z:0.300000 HEIGHT:0.300000 OVERLAP:0.200000 WIDTH:0.480000
G0 X77.684932 Y103.560678 F2400.000000
G1 X78.308436 Y102.937174 F900.000000 E213.943816
G0 X78.984173 Y102.940260 F2400.000000
G1 X77.681821 Y104.242612 F900.000000 E214.180578
G0 X77.678710 Y104.924545 F2400.000000
G1 X79.659908 Y102.943347 F900.000000 E214.540750
G0 X80.335645 Y102.946433 F2400.000000
G1 X77.675599 Y105.606479 F900.000000 E215.024334
G0 X77.672488 Y106.288412 F2400.000000
G1 X81.011380 Y102.949520 F900.000000 E215.631329
G0 X81.687116 Y102.952607 F2400.000000
G1 X77.669377 Y106.970345 F900.000000 E216.361735
G0 X77.666266 Y107.652279 F2400.000000
G1 X82.362852 Y102.955693 F900.000000 E217.215552
G0 X83.038588 Y102.958780 F2400.000000
G1 X77.663156 Y108.334212 F900.000000 E218.192780
G0 X77.660045 Y109.016146 F2400.000000
G1 X86.658182 Y100.018008 F900.000000 E219.828599
G0 X87.246533 Y100.108479 F2400.000000
G1 X77.656934 Y109.698079 F900.000000 E221.571942
G0 X77.653823 Y110.380013 F2400.000000
G1 X87.779118 Y100.254718 F900.000000 E223.412673
G0 X88.308386 Y100.404272 F2400.000000
G1 X77.650712 Y111.061946 F900.000000 E225.350188
G0 X77.647601 Y111.743879 F2400.000000
G1 X88.691936 Y100.699545 F900.000000 E227.357996
G0 X89.023471 Y101.046832 F2400.000000
G1 X77.644490 Y112.425813 F900.000000 E229.426640
G0 X77.641379 Y113.107746 F2400.000000
G1 X89.355005 Y101.394120 F900.000000 E231.556122
G0 X89.686540 Y101.741408 F2400.000000
G1 X77.638268 Y113.789680 F900.000000 E233.746441
G0 X77.635158 Y114.471613 F2400.000000
G1 X90.018074 Y102.088696 F900.000000 E235.997597
G0 X90.349609 Y102.435984 F2400.000000
G1 X77.632047 Y115.153546 F900.000000 E238.309589
G0 X77.628936 Y115.835480 F2400.000000
G1 X100.702961 Y92.761455 F900.000000 E242.504338
G0 X101.378696 Y92.764542 F2400.000000
G1 X77.625825 Y116.517413 F900.000000 E246.822498
G0 X78.243135 Y116.578925 F2400.000000
G1 X102.054433 Y92.767628 F900.000000 E251.151279
G0 X102.730168 Y92.770715 F2400.000000
G1 X78.834688 Y116.666195 F900.000000 E255.495364
G0 X78.831903 Y117.347802 F2400.000000
G1 X103.405904 Y92.773802 F900.000000 E259.962801
G0 X104.081640 Y92.776888 F2400.000000
G1 X78.829118 Y118.029410 F900.000000 E264.553590
G0 X78.826333 Y118.711018 F2400.000000
G1 X104.757376 Y92.779975 F900.000000 E269.267731
G0 X105.433112 Y92.783061 F2400.000000
G1 X78.823548 Y119.392625 F900.000000 E274.105224
G0 X78.820764 Y120.074232 F2400.000000
G1 X106.108848 Y92.786148 F900.000000 E279.066068
G0 X106.784583 Y92.789235 F2400.000000
G1 X78.817979 Y120.755839 F900.000000 E284.150265
G0 X78.815194 Y121.437447 F2400.000000
G1 X107.460320 Y92.792321 F900.000000 E289.357813
G0 X108.136055 Y92.795408 F2400.000000
G1 X78.812409 Y122.119054 F900.000000 E294.688713
G0 X78.809624 Y122.800662 F2400.000000
G1 X108.811791 Y92.798494 F900.000000 E300.142965
G0 X109.487527 Y92.801581 F2400.000000
G1 X78.806839 Y123.482269 F900.000000 E305.720569
G0 X78.804054 Y124.163877 F2400.000000
G1 X110.163262 Y92.804668 F900.000000 E311.421525
G0 X110.838999 Y92.807755 F2400.000000
G1 X88.234976 Y115.411777 F900.000000 E315.530829
G0 X87.951656 Y115.695097 F2400.000000
G1 X78.801270 Y124.845484 F900.000000 E317.194326
G0 X78.798485 Y125.527091 F2400.000000
G1 X88.194242 Y116.131334 F900.000000 E318.902431
G0 X88.436827 Y116.567572 F2400.000000
G1 X78.795700 Y126.208698 F900.000000 E320.655142
G0 X78.792915 Y126.890306 F2400.000000
G1 X88.451109 Y117.232112 F900.000000 E322.410956
G0 X88.573648 Y117.788395 F2400.000000
G1 X78.790130 Y127.571914 F900.000000 E324.189553
G0 X78.787345 Y128.253521 F2400.000000
G1 X88.911492 Y118.129374 F900.000000 E326.030075
G0 X89.249335 Y118.470353 F2400.000000
G1 X78.784560 Y128.935128 F900.000000 E327.932522
G0 X78.781775 Y129.616735 F2400.000000
G1 X89.587178 Y118.811333 F900.000000 E329.896893
G0 X89.925004 Y119.152329 F2400.000000
G1 X78.778991 Y130.298343 F900.000000 E331.923185
G0 X78.776206 Y130.979950 F2400.000000
G1 X90.262811 Y119.493345 F900.000000 E334.011396
G0 X90.600617 Y119.834361 F2400.000000
G1 X78.773420 Y131.661558 F900.000000 E336.161524
G0 X78.770636 Y132.343165 F2400.000000
G1 X90.938424 Y120.175377 F900.000000 E338.373571
G0 X91.276231 Y120.516393 F2400.000000
G1 X78.767851 Y133.024773 F900.000000 E340.647535
G0 X78.765066 Y133.706380 F2400.000000
G1 X91.614038 Y120.857409 F900.000000 E342.983417
G0 X91.951844 Y121.198424 F2400.000000
G1 X78.762281 Y134.387987 F900.000000 E345.381217
G0 X78.759497 Y135.069594 F2400.000000
G1 X92.289651 Y121.539440 F900.000000 E347.840935
G0 X92.627458 Y121.880456 F2400.000000
G1 X78.756712 Y135.751202 F900.000000 E350.362571
G0 X78.753926 Y136.432810 F2400.000000
G1 X92.965265 Y122.221471 F900.000000 E352.946125
G0 X93.303072 Y122.562487 F2400.000000
G1 X78.751142 Y137.114417 F900.000000 E355.591598
G0 X79.183064 Y137.361317 F2400.000000
G1 X93.640879 Y122.903502 F900.000000 E358.219960
G0 X93.978684 Y123.244518 F2400.000000
G1 X79.858799 Y137.364404 F900.000000 E360.786888
G0 X80.534534 Y137.367491 F2400.000000
G1 X94.316491 Y123.585534 F900.000000 E363.292383
G0 X94.654298 Y123.926550 F2400.000000
G1 X81.210270 Y137.370578 F900.000000 E365.736443
G0 X81.886005 Y137.373665 F2400.000000
G1 X94.992105 Y124.267566 F900.000000 E368.119070
G0 X95.329911 Y124.608582 F2400.000000
G1 X82.561741 Y137.376752 F900.000000 E370.440263
G0 X83.237475 Y137.379840 F2400.000000
G1 X95.633281 Y124.984035 F900.000000 E372.693762
G0 X95.630164 Y125.665974 F2400.000000
G1 X83.913211 Y137.382927 F900.000000 E374.823849
G0 X84.588946 Y137.386014 F2400.000000
G1 X95.627048 Y126.347912 F900.000000 E376.830523
G0 X95.623932 Y127.029851 F2400.000000
G1 X85.264682 Y137.389101 F900.000000 E378.713786
G0 X85.940417 Y137.392188 F2400.000000
G1 X95.620815 Y127.711790 F900.000000 E380.473637
G0 X95.617700 Y128.393728 F2400.000000
G1 X86.616153 Y137.395275 F900.000000 E382.110075
G0 X87.291888 Y137.398362 F2400.000000
G1 X95.614583 Y129.075667 F900.000000 E383.623102
G0 X95.611466 Y129.757607 F2400.000000
