;FLAVOR:UltiGCode
;TIME:16200
;MATERIAL:53807
;MATERIAL2:0
;Generated with Cura_SteamEngine DEV
;LAYER:0
G0 X62.309 Y103.444 Z0.299
;TYPE:SKIRT
G11
G1 F900 X62.320 Y101.112 E0.33400
G1 X62.363 Y100.409 E0.43487
G1 X62.486 Y99.716 E0.53567
G1 X62.686 Y99.042 E0.63636
G1 X62.962 Y98.394 E0.73724
G1 X63.309 Y97.782 E0.83800
G1 X63.724 Y97.213 E0.93886
G1 X64.200 Y96.695 E1.03962
G1 X64.732 Y96.234 E1.14044
G1 X65.313 Y95.837 E1.24122
G1 X65.935 Y95.507 E1.34206
G1 X66.591 Y95.251 E1.44292
G1 X67.271 Y95.071 E1.54366
G1 X67.967 Y94.968 E1.64443
G1 X68.376 Y94.946 E1.70309
G1 X68.590 Y94.943 E1.73374
G1 X71.844 Y94.958 E2.19979
G1 X71.812 Y94.842 E2.21702
G1 X71.702 Y94.146 E2.31794
G1 X71.672 Y93.504 E2.40999
G1 X71.700 Y87.532 E3.26532
G1 X71.743 Y86.829 E3.36619
G1 X71.866 Y86.136 E3.46699
G1 X72.066 Y85.462 E3.56768
G1 X72.342 Y84.814 E3.66856
G1 X72.689 Y84.202 E3.76932
G1 X73.104 Y83.633 E3.87018
G1 X73.535 Y83.159 E3.96194
G1 X77.774 Y78.958 E4.81669
G1 X78.301 Y78.492 E4.91744
G1 X78.878 Y78.089 E5.01824
G1 X79.497 Y77.753 E5.11911
G1 X80.149 Y77.490 E5.21980
G1 X80.828 Y77.303 E5.32067
G1 X81.792 Y77.173 E5.45999
G1 X81.810 Y77.172 E5.46257
G1 X82.195 Y77.162 E5.51773
G1 X82.802 Y77.166 E5.60466
G1 X83.504 Y77.211 E5.70541
G1 X84.197 Y77.335 E5.80624
G1 X84.871 Y77.536 E5.90697
G1 X85.145 Y77.653 E5.94964
G1 X85.647 Y77.465 E6.02642
G1 X86.330 Y77.295 E6.12722
G1 X87.028 Y77.204 E6.22803
G1 X87.523 Y77.187 E6.29897
G1 X88.148 Y77.191 E6.38849
G1 X88.850 Y77.236 E6.48923
G1 X89.543 Y77.359 E6.59004
G1 X90.217 Y77.561 E6.69081
G1 X90.864 Y77.838 E6.79161
G1 X91.476 Y78.186 E6.89244
G1 X92.044 Y78.602 E6.99327
G1 X92.370 Y78.889 E7.05548
G1 X92.546 Y79.064 E7.09103
G1 X92.547 Y79.063 E7.09123
G1 X95.903 Y82.450 E7.77412
G1 X96.195 Y82.369 E7.81752
G1 X96.891 Y82.259 E7.91844
G1 X97.474 Y82.229 E8.00204
G1 X97.748 Y82.228 E8.04129
G1 X105.546 Y82.264 E9.15814
G1 X108.690 Y78.468 E9.86406
G1 X109.169 Y77.953 E9.96479
G1 X109.704 Y77.494 E10.06575
G1 X110.287 Y77.100 E10.16653
G1 X110.910 Y76.774 E10.26723
G1 X111.567 Y76.521 E10.36807
G1 X112.248 Y76.344 E10.46884
G1 X112.945 Y76.246 E10.56965
G1 X113.306 Y76.226 E10.62143
G1 X118.543 Y76.093 E11.37172
G1 X119.246 Y76.115 E11.47245
G1 X119.943 Y76.217 E11.57334
G1 X120.623 Y76.397 E11.67409
G1 X121.279 Y76.653 E11.77494
G1 X121.901 Y76.982 E11.87572
G1 X122.482 Y77.379 E11.97650
G1 X123.014 Y77.839 E12.07723
G1 X123.263 Y78.095 E12.12837
G1 X126.001 Y81.075 E12.70797
G1 X126.397 Y80.856 E12.77278
G1 X127.047 Y80.587 E12.87353
G1 X127.724 Y80.394 E12.97435
G1 X128.418 Y80.278 E13.07513
G1 X129.121 Y80.242 E13.17594
G1 X129.711 Y80.274 E13.26057
G1 X134.287 Y80.738 E13.91931
G1 X134.982 Y80.848 E14.02009
G1 X135.660 Y81.037 E14.12089
G1 X136.313 Y81.301 E14.22177
G1 X136.931 Y81.638 E14.32258
G1 X137.507 Y82.043 E14.42343
G1 X138.033 Y82.510 E14.52417
G1 X138.503 Y83.034 E14.62499
G1 X138.854 Y83.520 E14.71085
G1 X141.545 Y87.650 E15.41683
G1 X141.895 Y88.261 E15.51768
G1 X142.174 Y88.907 E15.61846
G1 X142.377 Y89.581 E15.71927
G1 X142.503 Y90.273 E15.82001
G1 X142.550 Y90.975 E15.92078
G1 X142.516 Y91.678 E16.02158
G1 X142.419 Y92.299 E16.11160
G1 X142.124 Y93.710 E16.31805
G1 X148.621 Y93.737 E17.24857
G1 X148.709 Y93.736 E17.26117
G1 X158.985 Y93.785 E18.73293
G1 X159.687 Y93.828 E18.83366
G1 X160.380 Y93.951 E18.93446
G1 X161.055 Y94.152 E19.03533
G1 X161.702 Y94.427 E19.13602
G1 X162.030 Y94.602 E19.18926
G1 X167.254 Y97.588 E20.05105
G1 X167.844 Y97.971 E20.15179
G1 X168.387 Y98.419 E20.25261
G1 X168.876 Y98.926 E20.35350
G1 X169.304 Y99.484 E20.45422
G1 X169.534 Y99.849 E20.51600
G1 X172.560 Y105.045 E21.37718
G1 X172.879 Y105.673 E21.47806
G1 X173.125 Y106.332 E21.57880
G1 X173.295 Y107.015 E21.67961
G1 X173.386 Y107.713 E21.78042
G1 X173.402 Y108.139 E21.84148
G1 X173.426 Y114.121 E22.69823
G1 X173.420 Y114.121 E22.69909
G1 X173.406 Y114.681 E22.77932
G1 X173.310 Y115.378 E22.88009
G1 X173.134 Y116.060 E22.98097
G1 X172.883 Y116.717 E23.08170
G1 X172.609 Y117.254 E23.16804
G1 X169.620 Y122.479 E24.03016
G1 X169.236 Y123.069 E24.13098
G1 X168.788 Y123.612 E24.23180
G1 X168.282 Y124.100 E24.33249
G1 X167.723 Y124.528 E24.43332
G1 X167.360 Y124.757 E24.49479
G1 X162.164 Y127.784 E25.35604
G1 X161.537 Y128.103 E25.45679
G1 X160.878 Y128.349 E25.55753
G1 X160.195 Y128.518 E25.65830
G1 X159.497 Y128.610 E25.75914
G1 X159.024 Y128.626 E25.82692
G1 X149.672 Y128.595 E27.16633
G1 X140.844 Y128.575 E28.43069
G1 X130.514 Y128.548 E29.91016
G1 X129.811 Y128.506 E30.01103
G1 X129.790 Y128.502 E30.01409
G1 X128.480 Y129.801 E30.27831
G1 X128.938 Y130.297 E30.37500
G1 X129.355 Y130.864 E30.47581
G1 X129.705 Y131.474 E30.57653
G1 X129.983 Y132.121 E30.67739
G1 X130.186 Y132.795 E30.77820
G1 X130.312 Y133.487 E30.87894
G1 X130.354 Y134.184 E30.97895
G1 X130.357 Y134.184 E30.97937
G1 X130.469 Y140.095 E31.82611
G1 X130.442 Y140.798 E31.92686
G1 X130.336 Y141.494 E32.02770
G1 X130.152 Y142.173 E32.12845
G1 X129.891 Y142.827 E32.22930
G1 X129.559 Y143.447 E32.33003
G1 X129.158 Y144.025 E32.43078
G1 X128.736 Y144.512 E32.52307
G1 X124.594 Y148.811 E33.37806
G1 X124.077 Y149.289 E33.47891
G1 X123.510 Y149.706 E33.57971
G1 X122.899 Y150.055 E33.68049
G1 X122.253 Y150.333 E33.78121
G1 X121.579 Y150.536 E33.88202
G1 X120.886 Y150.662 E33.98290
G1 X120.235 Y150.705 E34.07634
G1 X120.235 Y150.706 E34.07649
G1 X120.206 Y150.707 E34.08064
G1 X120.184 Y150.708 E34.08380
G1 X120.161 Y150.707 E34.08709
G1 X119.629 Y150.718 E34.16330
G1 X118.925 Y150.692 E34.26420
G1 X118.230 Y150.586 E34.36489
G1 X117.550 Y150.402 E34.46578
G1 X117.253 Y150.284 E34.51155
G1 X116.853 Y150.452 E34.57369
G1 X116.177 Y150.649 E34.67453
G1 X115.483 Y150.768 E34.77538
G1 X114.930 Y150.805 E34.85476
G1 X114.328 Y150.819 E34.94100
G1 X114.328 Y150.813 E34.94186
G1 X113.770 Y150.809 E35.02178
G1 X113.071 Y150.725 E35.12261
G1 X112.386 Y150.562 E35.22346
G1 X111.725 Y150.322 E35.32417
G1 X111.094 Y150.008 E35.42512
G1 X110.504 Y149.626 E35.52578
G1 X109.866 Y149.089 E35.64522
G1 X105.955 Y145.324 E36.42272
G1 X105.894 Y145.549 E36.45611
G1 X105.885 Y145.581 E36.46087
G1 X105.656 Y146.246 E36.56160
G1 X105.353 Y146.882 E36.66250
G1 X104.980 Y147.479 E36.76332
G1 X104.542 Y148.030 E36.86413
G1 X104.283 Y148.303 E36.91803
G1 X102.278 Y150.290 E37.32231
G1 X102.254 Y150.313 E37.32707
G1 X101.719 Y150.770 E37.42785
G1 X101.135 Y151.164 E37.52874
G1 X100.511 Y151.489 E37.62951
G1 X99.536 Y151.834 E37.77763
G1 X96.909 Y152.522 E38.16656
G1 X96.908 Y152.519 E38.16701
G1 X96.298 Y152.653 E38.25646
G1 X95.279 Y152.733 E38.40285
G1 X70.095 Y152.619 E42.00977
G1 X69.794 Y152.617 E42.05288
G1 X69.091 Y152.572 E42.15377
G1 X68.399 Y152.448 E42.25446
G1 X67.724 Y152.246 E42.35537
G1 X67.077 Y151.970 E42.45611
G1 X66.466 Y151.621 E42.55689
G1 X65.898 Y151.205 E42.65772
G1 X65.381 Y150.728 E42.75847
G1 X64.921 Y150.195 E42.85930
G1 X64.524 Y149.614 E42.96009
G1 X64.196 Y148.991 E43.06092
G1 X63.941 Y148.335 E43.16172
G1 X63.762 Y147.654 E43.26257
G1 X63.661 Y146.958 E43.36330
G1 X63.638 Y146.392 E43.44443
G1 X63.738 Y124.476 E46.58329
G1 X63.523 Y124.227 E46.63041
G1 X63.125 Y123.647 E46.73115
G1 X62.796 Y123.025 E46.83193
G1 X62.539 Y122.369 E46.93284
G1 X62.359 Y121.689 E47.03358
G1 X62.256 Y120.992 E47.13449
G1 X62.232 Y120.415 E47.21720
G1 X62.309 Y103.444 E49.64783
G0 F9000 X62.788 Y103.446
G1 F900 X62.799 Y101.114 E49.98182
G1 X62.842 Y100.439 E50.07869
G1 X62.965 Y99.774 E50.17555
G1 X63.165 Y99.129 E50.27227
G1 X63.440 Y98.511 E50.36915
G1 X63.786 Y97.930 E50.46599
G1 X64.198 Y97.394 E50.56282
G1 X64.670 Y96.911 E50.65954
G1 X65.196 Y96.486 E50.75639
G1 X65.769 Y96.127 E50.85323
G1 X66.380 Y95.837 E50.95010
G1 X67.021 Y95.622 E51.04693
G1 X67.682 Y95.484 E51.14364
G1 X68.387 Y95.424 E51.24498
G1 X68.588 Y95.422 E51.27377
G1 X72.487 Y95.440 E51.83219
G1 X72.420 Y95.265 E51.85903
G1 X72.253 Y94.610 E51.95584
G1 X72.165 Y93.939 E52.05276
G1 X72.151 Y93.506 E52.11481
G1 X72.179 Y87.534 E52.97013
G1 X72.222 Y86.860 E53.06686
G1 X72.345 Y86.195 E53.16372
G1 X72.545 Y85.549 E53.26057
G1 X72.820 Y84.931 E53.35745
G1 X73.165 Y84.350 E53.45423
G1 X73.577 Y83.814 E53.55105
G1 X73.872 Y83.500 E53.61276
G1 X78.111 Y79.299 E54.46751
G1 X78.618 Y78.852 E54.56431
G1 X79.175 Y78.468 E54.66120
G1 X79.773 Y78.153 E54.75801
G1 X80.404 Y77.911 E54.85480
G1 X81.060 Y77.744 E54.95175
G1 X81.819 Y77.651 E55.06126
G1 X81.837 Y77.650 E55.06385
G1 X82.192 Y77.641 E55.11471
G1 X82.799 Y77.645 E55.20164
G1 X83.473 Y77.690 E55.29839
G1 X84.138 Y77.813 E55.39525
G1 X84.783 Y78.015 E55.49205
G1 X85.144 Y78.177 E55.54872
G1 X85.427 Y78.048 E55.59326
G1 X86.071 Y77.843 E55.69006
G1 X86.735 Y77.715 E55.78691
G1 X87.520 Y77.666 E55.89955
G1 X88.145 Y77.670 E55.98907
G1 X88.819 Y77.714 E56.08581
G1 X89.484 Y77.838 E56.18269
G1 X90.129 Y78.039 E56.27945
G1 X90.746 Y78.315 E56.37625
G1 X91.327 Y78.662 E56.47318
G1 X92.041 Y79.237 E56.60447
G1 X92.206 Y79.401 E56.63779
G1 X92.207 Y79.400 E56.63799
G1 X95.757 Y82.982 E57.36028
G1 X95.772 Y82.976 E57.36259
G1 X96.427 Y82.810 E57.45937
G1 X97.097 Y82.722 E57.55615
G1 X97.477 Y82.708 E57.61061
G1 X97.746 Y82.707 E57.64914
G1 X105.771 Y82.744 E58.79850
G1 X109.059 Y78.774 E59.53677
G1 X109.520 Y78.279 E59.63365
G1 X110.037 Y77.843 E59.73051
G1 X110.601 Y77.471 E59.82728
G1 X111.205 Y77.168 E59.92406
G1 X111.841 Y76.938 E60.02092
G1 X112.500 Y76.785 E60.11781
G1 X113.318 Y76.705 E60.23552
G1 X118.555 Y76.572 E60.98581
G1 X119.230 Y76.595 E61.08254
G1 X119.899 Y76.697 E61.17947
G1 X120.550 Y76.878 E61.27624
G1 X121.176 Y77.134 E61.37310
G1 X121.767 Y77.462 E61.46991
G1 X122.315 Y77.858 E61.56674
G1 X122.911 Y78.419 E61.68397
G1 X125.916 Y81.689 E62.32002
G1 X126.059 Y81.588 E62.34509
G1 X126.653 Y81.265 E62.44193
G1 X127.281 Y81.013 E62.53884
G1 X127.934 Y80.838 E62.63567
G1 X128.603 Y80.741 E62.73248
G1 X129.278 Y80.724 E62.82919
G1 X129.663 Y80.750 E62.88446
G1 X134.239 Y81.214 E63.54320
G1 X134.906 Y81.322 E63.63997
G1 X135.556 Y81.508 E63.73680
G1 X136.180 Y81.769 E63.83367
G1 X136.768 Y82.102 E63.93045
G1 X137.313 Y82.502 E64.02727
G1 X137.807 Y82.964 E64.12415
G1 X138.243 Y83.481 E64.22101
G1 X138.453 Y83.781 E64.27345
G1 X141.144 Y87.911 E64.97944
G1 X141.479 Y88.499 E65.07636
G1 X141.742 Y89.121 E65.17308
G1 X141.930 Y89.771 E65.26999
G1 X142.040 Y90.438 E65.36681
G1 X142.070 Y91.113 E65.46358
G1 X142.021 Y91.787 E65.56036
G1 X141.950 Y92.201 E65.62052
G1 X141.535 Y94.187 E65.91110
G1 X148.622 Y94.216 E66.92612
G1 X148.706 Y94.215 E66.93815
G1 X158.982 Y94.264 E68.40991
G1 X159.657 Y94.307 E68.50678
G1 X160.322 Y94.430 E68.60363
G1 X160.968 Y94.630 E68.70049
G1 X161.793 Y95.018 E68.83106
G1 X167.017 Y98.004 E69.69284
G1 X167.583 Y98.373 E69.78961
G1 X168.101 Y98.807 E69.88640
G1 X168.565 Y99.299 E69.98326
G1 X169.120 Y100.090 E70.12165
G1 X172.146 Y105.286 E70.98282
G1 X172.451 Y105.890 E71.07973
G1 X172.683 Y106.525 E71.17656
G1 X172.838 Y107.183 E71.27338
G1 X172.923 Y108.141 E71.41112
G1 X172.947 Y114.123 E72.26788
G1 X172.942 Y114.123 E72.26859
G1 X172.927 Y114.668 E72.34668
G1 X172.829 Y115.337 E72.44352
G1 X172.653 Y115.990 E72.54038
G1 X172.401 Y116.617 E72.63716
G1 X172.193 Y117.016 E72.70160
G1 X169.204 Y122.241 E73.56372
G1 X168.834 Y122.807 E73.66057
G1 X168.400 Y123.326 E73.75747
G1 X167.908 Y123.789 E73.85423
G1 X167.119 Y124.343 E73.99230
G1 X161.923 Y127.370 E74.85355
G1 X161.320 Y127.675 E74.95033
G1 X160.685 Y127.907 E75.04716
G1 X160.027 Y128.062 E75.14398
G1 X159.026 Y128.147 E75.28786
G1 X149.674 Y128.116 E76.62727
G1 X140.845 Y128.096 E77.89177
G1 X130.515 Y128.069 E79.37124
G1 X129.840 Y128.027 E79.46811
G1 X129.628 Y127.988 E79.49898
G1 X127.795 Y129.805 E79.86863
G1 X128.127 Y130.125 E79.93467
G1 X128.586 Y130.622 E80.03156
G1 X128.982 Y131.170 E80.12839
G1 X129.311 Y131.760 E80.22514
G1 X129.569 Y132.386 E80.32212
G1 X129.750 Y133.037 E80.41889
G1 X129.854 Y133.705 E80.51571
G1 X129.877 Y134.193 E80.58568
G1 X129.878 Y134.193 E80.58583
G1 X129.990 Y140.104 E81.43256
G1 X129.963 Y140.779 E81.52931
G1 X129.856 Y141.447 E81.62620
G1 X129.671 Y142.097 E81.72299
G1 X129.411 Y142.721 E81.81981
G1 X129.079 Y143.310 E81.91664
G1 X128.680 Y143.855 E82.01338
G1 X128.391 Y144.179 E82.07556
G1 X124.249 Y148.478 E82.93055
G1 X123.752 Y148.937 E83.02744
G1 X123.204 Y149.333 E83.12428
G1 X122.613 Y149.662 E83.22115
G1 X121.988 Y149.919 E83.31794
G1 X121.337 Y150.100 E83.41471
G1 X120.669 Y150.204 E83.51154
G1 X120.225 Y150.213 E83.57514
G1 X120.225 Y150.227 E83.57714
G1 X119.619 Y150.239 E83.66395
G1 X118.944 Y150.212 E83.76070
G1 X118.276 Y150.106 E83.85757
G1 X117.626 Y149.922 E83.95432
G1 X117.244 Y149.763 E84.01359
G1 X117.050 Y149.861 E84.04471
G1 X116.414 Y150.091 E84.14158
G1 X115.756 Y150.245 E84.23836
G1 X114.919 Y150.326 E84.35880
G1 X114.317 Y150.340 E84.44504
G1 X114.317 Y150.335 E84.44576
G1 X113.774 Y150.330 E84.52353
G1 X113.103 Y150.244 E84.62042
G1 X112.447 Y150.079 E84.71730
G1 X111.816 Y149.838 E84.81404
G1 X111.217 Y149.525 E84.91083
G1 X110.659 Y149.143 E85.00768
G1 X110.198 Y148.744 E85.09500
G1 X105.897 Y144.603 E85.95010
G1 X105.710 Y144.400 E85.98963
G1 X105.432 Y145.419 E86.14090
G1 X105.423 Y145.451 E86.14566
G1 X105.202 Y146.090 E86.24250
G1 X104.907 Y146.698 E86.33929
G1 X104.542 Y147.267 E86.43611
G1 X103.945 Y147.963 E86.56744
G1 X101.946 Y149.944 E86.97050
G1 X101.922 Y149.967 E86.97527
G1 X101.407 Y150.405 E87.07209
G1 X100.844 Y150.780 E87.16898
G1 X100.241 Y151.085 E87.26576
G1 X99.415 Y151.370 E87.39090
G1 X96.788 Y152.058 E87.77983
G1 X96.787 Y152.055 E87.78028
G1 X96.195 Y152.185 E87.86709
G1 X95.281 Y152.254 E87.99837
G1 X70.098 Y152.140 E91.60514
G1 X69.797 Y152.138 E91.64825
G1 X69.122 Y152.093 E91.74514
G1 X68.458 Y151.970 E91.84186
G1 X67.812 Y151.768 E91.93879
G1 X67.195 Y151.492 E92.03560
G1 X66.615 Y151.145 E92.13240
G1 X66.080 Y150.732 E92.22920
G1 X65.597 Y150.259 E92.32602
G1 X65.174 Y149.732 E92.42280
G1 X64.815 Y149.159 E92.51964
G1 X64.527 Y148.547 E92.61652
G1 X64.313 Y147.906 E92.71330
G1 X64.177 Y147.244 E92.81009
G1 X64.117 Y146.394 E92.93214
G1 X64.218 Y124.309 E96.09520
G1 X64.199 Y124.290 E96.09905
G1 X63.775 Y123.763 E96.19593
G1 X63.415 Y123.191 E96.29272
G1 X63.126 Y122.580 E96.38953
G1 X62.910 Y121.939 E96.48640
G1 X62.772 Y121.277 E96.58325
G1 X62.711 Y120.417 E96.70673
G1 X62.788 Y103.446 E99.13736
G0 F9000 X63.267 Y103.448
G1 F900 X63.278 Y101.116 E99.47136
G1 X63.321 Y100.471 E99.56394
G1 X63.443 Y99.835 E99.65669
G1 X63.643 Y99.220 E99.74931
G1 X63.917 Y98.634 E99.84196
G1 X64.261 Y98.086 E99.93463
G1 X64.670 Y97.584 E100.02737
G1 X65.138 Y97.137 E100.12005
G1 X65.658 Y96.751 E100.21280
G1 X66.221 Y96.432 E100.30548
G1 X66.819 Y96.185 E100.39815
G1 X67.442 Y96.013 E100.49071
G1 X68.398 Y95.903 E100.62853
G1 X68.585 Y95.901 E100.65532
G1 X73.108 Y95.922 E101.30311
G1 X73.181 Y95.849 E101.31790
G1 X73.065 Y95.622 E101.35441
G1 X72.844 Y95.014 E101.44706
G1 X72.699 Y94.383 E101.53979
G1 X72.630 Y93.508 E101.66550
G1 X72.658 Y87.536 E102.52082
G1 X72.701 Y86.891 E102.61341
G1 X72.823 Y86.255 E102.70615
G1 X73.023 Y85.640 E102.79878
G1 X73.297 Y85.054 E102.89142
G1 X73.641 Y84.506 E102.98409
G1 X74.209 Y83.840 E103.10946
G1 X78.448 Y79.639 E103.96420
G1 X78.935 Y79.213 E104.05687
G1 X79.471 Y78.850 E104.14959
G1 X80.047 Y78.555 E104.24227
G1 X80.655 Y78.335 E104.33488
G1 X81.286 Y78.190 E104.42760
G1 X81.845 Y78.129 E104.50814
G1 X81.863 Y78.128 E104.51072
G1 X82.189 Y78.120 E104.55743
G1 X82.796 Y78.124 E104.64436
G1 X83.441 Y78.168 E104.73695
G1 X84.076 Y78.292 E104.82962
G1 X84.691 Y78.493 E104.92228
G1 X85.142 Y78.705 E104.99366
G1 X85.259 Y78.641 E105.01276
G1 X85.860 Y78.403 E105.10534
G1 X86.487 Y78.241 E105.19808
G1 X87.129 Y78.157 E105.29082
G1 X87.517 Y78.145 E105.34641
G1 X88.142 Y78.149 E105.43593
G1 X88.787 Y78.193 E105.52852
G1 X89.422 Y78.317 E105.62118
G1 X90.038 Y78.517 E105.71394
G1 X90.623 Y78.792 E105.80652
G1 X91.171 Y79.137 E105.89926
G1 X91.711 Y79.585 E105.99975
G1 X91.865 Y79.738 E106.03085
G1 X91.866 Y79.737 E106.03105
G1 X95.635 Y83.541 E106.79799
G1 X96.023 Y83.400 E106.85712
