;FLAVOR:UltiGCode
;MATERIAL:46412
;TIME:0
G0 X0.000000 Y0.000000 Z0.300000
;BRIM LAYER:0 Z:0.300000 HEIGHT:0.300000 OVERLAP:0.000000 WIDTH:0.000000
;PERIMETER:0 LAYER:0 Z:0.300000 HEIGHT:0.300000 OVERLAP:0.000000 WIDTH:0.480000
G10
G0 X55.252552 Y52.752542 F2400.000000
G11
G1 X115.000008 Y28.004341 F1500.000000 E8.063455
G1 X174.747448 Y52.752553 E16.126909
G1 X199.495660 Y112.500008 E24.190365
G1 X174.747439 Y172.247448 E32.253819
G1 X114.999993 Y196.995660 E40.317273
G1 X55.252543 Y172.247439 E48.380729
G1 X30.503899 Y112.498925 E56.444327
G1 X55.214284 Y52.844930 E64.495212
;PERIMETER:1 LAYER:0 Z:0.300000 HEIGHT:0.300000 OVERLAP:0.000000 WIDTH:0.480000
G0 X55.068864 Y52.309079 F2400.000000
G1 X115.000008 Y27.484792 F1500.000000 E72.583457
G1 X175.114825 Y52.385177 E80.696492
G1 X200.015209 Y112.500008 E88.809528
G1 X175.114815 Y172.614825 E96.922563
G1 X114.999993 Y197.515209 E105.035598
G1 X54.885167 Y172.614815 E113.148634
G1 X29.984337 Y112.498892 E121.261818
G1 X54.885175 Y52.385167 E129.374748
G1 X54.976476 Y52.347347 E129.387070
;PERIMETER:2 LAYER:0 Z:0.300000 HEIGHT:0.300000 OVERLAP:0.000000 WIDTH:0.480000
G0 X54.885176 Y51.865617 F2400.000000
G1 X115.000008 Y26.965244 F1500.000000 E137.500106
G1 X175.482201 Y52.017801 E145.662721
G1 X200.534757 Y112.500008 E153.825338
G1 X175.482192 Y172.982201 E161.987954
G1 X114.999993 Y198.034757 E170.150570
G1 X54.517790 Y172.982192 E178.313187
G1 X29.464776 Y112.498860 E186.475955
G1 X54.517799 Y52.017790 E194.638463
G1 X54.792788 Y51.903885 E194.675576
;WALL LAYER:0 Z:0.300000 HEIGHT:0.300000 OVERLAP:0.200000 WIDTH:0.480000
;PERIMETER:1 LAYER:0 Z:0.300000 HEIGHT:0.300000 OVERLAP:0.200000 WIDTH:0.300000
G0 X67.490767 Y64.990759 F1800.000000
G1 X115.000006 Y45.311794 F600.000000 E198.509139
G1 X162.509232 Y64.990767 E202.342701
G1 X182.188206 Y112.500006 E206.176264
G1 X162.509226 Y160.009232 E210.009826
G1 X114.999994 Y179.688206 E213.843389
G1 X67.490761 Y160.009226 E217.676952
G1 X47.811798 Y112.500004 E221.510514
G1 X67.471633 Y65.036953 E225.340350
;PERIMETER:0 LAYER:0 Z:0.300000 HEIGHT:0.300000 OVERLAP:0.200000 WIDTH:0.600000
G0 X67.075022 Y64.818551 F1800.000000
G1 X67.146147 Y64.646839 F600.000000 E225.370933
G1 X115.000006 Y44.824716 E233.894027
G1 X162.853647 Y64.646352 E242.417057
G1 X182.675284 Y112.500006 E250.940090
G1 X162.853640 Y160.353647 E259.463121
G1 X114.999994 Y180.175284 E267.986152
G1 X67.146345 Y160.353640 E276.509184
G1 X47.324712 Y112.499983 E285.032217
G1 X67.055887 Y64.864745 E293.516349
;INFILL LAYER:0 Z:0.300000 HEIGHT:0.300000 OVERLAP:0.200000 WIDTH:0.480000
G0 X67.366518 Y65.682693 F2400.000000
G1 X68.182702 Y64.866509 F900.000000 E293.664727
G0 X69.341524 Y64.386510 F2400.000000
G1 X66.886518 Y66.841516 F900.000000 E294.111036
G0 X66.406518 Y68.000339 F2400.000000
G1 X70.500347 Y63.906509 F900.000000 E294.855275
G0 X71.659169 Y63.426510 F2400.000000
G1 X65.926518 Y69.159161 F900.000000 E295.897443
G0 X65.446518 Y70.317984 F2400.000000
G1 X72.817991 Y62.946510 F900.000000 E297.237542
G0 X73.976813 Y62.466511 F2400.000000
G1 X64.966518 Y71.476806 F900.000000 E298.875571
G0 X64.486518 Y72.635629 F2400.000000
G1 X75.135636 Y61.986510 F900.000000 E300.811531
G0 X76.294458 Y61.506511 F2400.000000
G1 X64.006518 Y73.794451 F900.000000 E303.045420
G0 X63.526518 Y74.953274 F2400.000000
G1 X77.453280 Y61.026511 F900.000000 E305.577240
G0 X78.612103 Y60.546512 F2400.000000
G1 X63.046518 Y76.112096 F900.000000 E308.406989
G0 X62.566519 Y77.270918 F2400.000000
G1 X79.770926 Y60.066511 F900.000000 E311.534669
G0 X80.929748 Y59.586512 F2400.000000
G1 X62.086518 Y78.429741 F900.000000 E314.960279
G0 X61.606519 Y79.588563 F2400.000000
G1 X82.088570 Y59.106512 F900.000000 E318.683819
G0 X83.247392 Y58.626513 F2400.000000
G1 X61.126518 Y80.747386 F900.000000 E322.705289
G0 X60.646519 Y81.906208 F2400.000000
G1 X84.406215 Y58.146512 F900.000000 E327.024689
G0 X85.565037 Y57.666512 F2400.000000
G1 X60.166519 Y83.065030 F900.000000 E331.642020
G0 X59.686519 Y84.223853 F2400.000000
G1 X86.723859 Y57.186513 F900.000000 E336.557280
G0 X87.882681 Y56.706513 F2400.000000
G1 X59.206519 Y85.382675 F900.000000 E341.770471
G0 X58.726519 Y86.541498 F2400.000000
G1 X89.041504 Y56.226513 F900.000000 E347.281592
G0 X90.200326 Y55.746513 F2400.000000
G1 X58.246519 Y87.700320 F900.000000 E353.090643
G0 X57.766520 Y88.859142 F2400.000000
G1 X91.359148 Y55.266514 F900.000000 E359.197624
G0 X92.517971 Y54.786513 F2400.000000
G1 X57.286519 Y90.017965 F900.000000 E365.602535
G0 X56.806520 Y91.176787 F2400.000000
G1 X93.676793 Y54.306514 F900.000000 E372.305376
G0 X94.835615 Y53.826514 F2400.000000
G1 X56.326519 Y92.335610 F900.000000 E379.306148
G0 X55.846519 Y93.494432 F2400.000000
G1 X95.994437 Y53.346515 F900.000000 E386.604849
G0 X97.153260 Y52.866514 F2400.000000
G1 X55.366519 Y94.653255 F900.000000 E394.201481
G0 X54.886519 Y95.812078 F2400.000000
G1 X98.312082 Y52.386515 F900.000000 E402.096043
G0 X99.470904 Y51.906515 F2400.000000
G1 X54.406520 Y96.970900 F900.000000 E410.288535
G0 X53.926519 Y98.129723 F2400.000000
G1 X100.629726 Y51.426516 F900.000000 E418.778957
G0 X101.788549 Y50.946515 F2400.000000
G1 X53.446520 Y99.288545 F900.000000 E427.567309
G0 X52.966519 Y100.447368 F2400.000000
G1 X102.947371 Y50.466516 F900.000000 E436.653592
G0 X104.106194 Y49.986516 F2400.000000
G1 X52.486520 Y101.606190 F900.000000 E446.037804
G0 X52.006520 Y102.765012 F2400.000000
G1 X105.265016 Y49.506516 F900.000000 E455.719947
G0 X106.423839 Y49.026516 F2400.000000
G1 X51.526520 Y103.923835 F900.000000 E465.700020
G0 X51.046520 Y105.082657 F2400.000000
G1 X107.582661 Y48.546516 F900.000000 E475.978023
G0 X108.741483 Y48.066517 F2400.000000
G1 X50.566520 Y106.241480 F900.000000 E486.553956
G0 X50.086520 Y107.400302 F2400.000000
G1 X109.900305 Y47.586517 F900.000000 E497.427819
G0 X111.059128 Y47.106517 F2400.000000
G1 X49.606520 Y108.559125 F900.000000 E508.599612
G0 X49.126520 Y109.717947 F2400.000000
G1 X112.217950 Y46.626517 F900.000000 E520.069336
G0 X113.376772 Y46.146518 F2400.000000
G1 X48.646521 Y110.876769 F900.000000 E531.836989
G0 X48.166520 Y112.035592 F2400.000000
G1 X114.535594 Y45.666518 F900.000000 E543.902573
G0 X115.287642 Y45.593293 F2400.000000
G1 X48.093298 Y112.787637 F900.000000 E556.118187
G0 X48.292120 Y113.267637 F2400.000000
G1 X115.767641 Y45.792116 F900.000000 E568.384917
G0 X116.247642 Y45.990938 F2400.000000
G1 X48.490943 Y113.747637 F900.000000 E580.702764
G0 X48.689765 Y114.227637 F2400.000000
G1 X116.727641 Y46.189761 F900.000000 E593.071728
G0 X117.207641 Y46.388584 F2400.000000
G1 X48.888588 Y114.707637 F900.000000 E605.491809
G0 X49.087410 Y115.187637 F2400.000000
G1 X117.687641 Y46.587406 F900.000000 E617.963006
G0 X118.167641 Y46.786229 F2400.000000
G1 X49.286233 Y115.667637 F900.000000 E630.485321
G0 X49.485055 Y116.147637 F2400.000000
G1 X118.647641 Y46.985051 F900.000000 E643.058752
G0 X119.127641 Y47.183874 F2400.000000
G1 X49.683878 Y116.627637 F900.000000 E655.683299
G0 X49.882700 Y117.107637 F2400.000000
G1 X119.607640 Y47.382697 F900.000000 E668.358963
G0 X120.087641 Y47.581519 F2400.000000
G1 X50.081523 Y117.587637 F900.000000 E681.085744
G0 X50.280345 Y118.067637 F2400.000000
G1 X120.567640 Y47.780342 F900.000000 E693.863642
G0 X121.047641 Y47.979164 F2400.000000
G1 X50.479168 Y118.547637 F900.000000 E706.692657
G0 X50.677990 Y119.027637 F2400.000000
G1 X121.527640 Y48.177987 F900.000000 E719.572788
G0 X122.007641 Y48.376809 F2400.000000
G1 X50.876813 Y119.507637 F900.000000 E732.504036
G0 X51.075635 Y119.987638 F2400.000000
G1 X122.487640 Y48.575632 F900.000000 E745.486401
G0 X122.967640 Y48.774455 F2400.000000
G1 X51.274458 Y120.467637 F900.000000 E758.519882
G0 X51.473280 Y120.947638 F2400.000000
G1 X123.447640 Y48.973277 F900.000000 E771.604480
G0 X123.927640 Y49.172100 F2400.000000
G1 X51.672103 Y121.427637 F900.000000 E784.740195
G0 X51.870925 Y121.907638 F2400.000000
G1 X124.407640 Y49.370922 F900.000000 E797.927027
G0 X124.887640 Y49.569745 F2400.000000
G1 X52.069748 Y122.387637 F900.000000 E811.164975
G0 X52.268570 Y122.867638 F2400.000000
G1 X125.367640 Y49.768568 F900.000000 E824.454040
G0 X125.847640 Y49.967390 F2400.000000
G1 X52.467393 Y123.347637 F900.000000 E837.794222
G0 X52.666215 Y123.827638 F2400.000000
G1 X126.327640 Y50.166213 F900.000000 E851.185521
G0 X126.807640 Y50.365035 F2400.000000
G1 X52.865038 Y124.307637 F900.000000 E864.627936
G0 X53.063860 Y124.787638 F2400.000000
G1 X127.287640 Y50.563858 F900.000000 E878.121468
G0 X127.767640 Y50.762680 F2400.000000
G1 X53.262683 Y125.267637 F900.000000 E891.666117
G0 X53.461505 Y125.747638 F2400.000000
G1 X128.247640 Y50.961503 F900.000000 E905.261882
G0 X128.727639 Y51.160326 F2400.000000
G1 X53.660328 Y126.227637 F900.000000 E918.908764
G0 X53.859150 Y126.707638 F2400.000000
G1 X129.207640 Y51.359148 F900.000000 E932.606763
G0 X129.687639 Y51.557971 F2400.000000
G1 X54.057973 Y127.187637 F900.000000 E946.355879
G0 X54.256795 Y127.667638 F2400.000000
G1 X130.167640 Y51.756793 F900.000000 E960.156111
G0 X130.647639 Y51.955616 F2400.000000
G1 X54.455618 Y128.147637 F900.000000 E974.007460
G0 X54.654440 Y128.627638 F2400.000000
G1 X131.127639 Y52.154439 F900.000000 E987.909926
G0 X131.607639 Y52.353261 F2400.000000
G1 X54.853263 Y129.107637 F900.000000 E1001.863509
G0 X55.052085 Y129.587638 F2400.000000
G1 X132.087639 Y52.552084 F900.000000 E1015.868208
G0 X132.567639 Y52.750906 F2400.000000
G1 X55.250908 Y130.067637 F900.000000 E1029.924024
G0 X55.449730 Y130.547638 F2400.000000
G1 X133.047639 Y52.949729 F900.000000 E1044.030957
G0 X133.527639 Y53.148551 F2400.000000
G1 X55.648553 Y131.027637 F900.000000 E1058.189006
G0 X55.847375 Y131.507638 F2400.000000
G1 X134.007639 Y53.347374 F900.000000 E1072.398173
G0 X134.487638 Y53.546197 F2400.000000
G1 X56.046198 Y131.987638 F900.000000 E1086.658455
G0 X56.245020 Y132.467638 F2400.000000
G1 X134.967639 Y53.745019 F900.000000 E1100.969855
G0 X135.447639 Y53.943842 F2400.000000
G1 X56.443843 Y132.947638 F900.000000 E1115.332371
G0 X56.642665 Y133.427638 F2400.000000
G1 X135.927639 Y54.142664 F900.000000 E1129.746005
G0 X136.407639 Y54.341487 F2400.000000
G1 X56.841488 Y133.907638 F900.000000 E1144.210754
G0 X57.040310 Y134.387638 F2400.000000
G1 X136.887638 Y54.540310 F900.000000 E1158.726621
G0 X137.367639 Y54.739132 F2400.000000
G1 X57.239133 Y134.867638 F900.000000 E1173.293604
G0 X57.437955 Y135.347638 F2400.000000
G1 X137.847638 Y54.937955 F900.000000 E1187.911704
G0 X138.327639 Y55.136777 F2400.000000
G1 X57.636778 Y135.827638 F900.000000 E1202.580921
G0 X57.835600 Y136.307638 F2400.000000
G1 X138.807638 Y55.335600 F900.000000 E1217.301255
G0 X139.287639 Y55.534422 F2400.000000
G1 X58.034423 Y136.787638 F900.000000 E1232.072705
G0 X58.233245 Y137.267638 F2400.000000
G1 X139.767638 Y55.733245 F900.000000 E1246.895272
G0 X140.247638 Y55.932068 F2400.000000
G1 X58.432068 Y137.747638 F900.000000 E1261.768955
G0 X58.630890 Y138.227638 F2400.000000
G1 X140.727638 Y56.130890 F900.000000 E1276.693756
G0 X141.207638 Y56.329713 F2400.000000
G1 X58.829713 Y138.707638 F900.000000 E1291.669673
G0 X59.028535 Y139.187638 F2400.000000
G1 X141.687638 Y56.528535 F900.000000 E1306.696707
G0 X142.167638 Y56.727358 F2400.000000
G1 X59.227358 Y139.667638 F900.000000 E1321.774857
G0 X59.426180 Y140.147638 F2400.000000
G1 X142.647637 Y56.926181 F900.000000 E1336.904125
G0 X143.127638 Y57.125003 F2400.000000
G1 X59.625003 Y140.627638 F900.000000 E1352.084509
G0 X59.823825 Y141.107638 F2400.000000
G1 X143.607637 Y57.323826 F900.000000 E1367.316009
G0 X144.087638 Y57.522648 F2400.000000
G1 X60.022648 Y141.587638 F900.000000 E1382.598627
G0 X60.221470 Y142.067638 F2400.000000
G1 X144.567637 Y57.721471 F900.000000 E1397.932361
G0 X145.047638 Y57.920293 F2400.000000
G1 X60.420293 Y142.547638 F900.000000 E1413.317212
G0 X60.619115 Y143.027638 F2400.000000
G1 X145.527637 Y58.119116 F900.000000 E1428.753180
G0 X146.007637 Y58.317939 F2400.000000
G1 X60.817938 Y143.507638 F900.000000 E1444.240264
G0 X61.016760 Y143.987638 F2400.000000
G1 X146.487638 Y58.516761 F900.000000 E1459.778465
G0 X146.967637 Y58.715584 F2400.000000
G1 X61.215583 Y144.467638 F900.000000 E1475.367783
G0 X61.414405 Y144.947639 F2400.000000
G1 X147.447638 Y58.914406 F900.000000 E1491.008218
G0 X147.927637 Y59.113229 F2400.000000
G1 X61.613228 Y145.427638 F900.000000 E1506.699769
G0 X61.812050 Y145.907639 F2400.000000
G1 X148.407637 Y59.312052 F900.000000 E1522.442437
G0 X148.887637 Y59.510874 F2400.000000
G1 X62.010873 Y146.387638 F900.000000 E1538.236222
G0 X62.209695 Y146.867639 F2400.000000
G1 X149.367637 Y59.709697 F900.000000 E1554.081124
G0 X149.847637 Y59.908519 F2400.000000
G1 X62.408518 Y147.347638 F900.000000 E1569.977142
G0 X62.607340 Y147.827639 F2400.000000
G1 X150.327637 Y60.107342 F900.000000 E1585.924277
G0 X150.807637 Y60.306164 F2400.000000
G1 X62.806163 Y148.307638 F900.000000 E1601.922529
G0 X63.004985 Y148.787639 F2400.000000
G1 X151.287637 Y60.504987 F900.000000 E1617.971897
G0 X151.767636 Y60.703810 F2400.000000
G1 X63.203808 Y149.267638 F900.000000 E1634.072382
G0 X63.402630 Y149.747639 F2400.000000
G1 X152.247637 Y60.902632 F900.000000 E1650.223984
G0 X152.727636 Y61.101455 F2400.000000
G1 X63.601453 Y150.227638 F900.000000 E1666.426703
G0 X63.800275 Y150.707639 F2400.000000
G1 X153.207637 Y61.300277 F900.000000 E1682.680538
G0 X153.687636 Y61.499100 F2400.000000
G1 X63.999098 Y151.187638 F900.000000 E1698.985490
G0 X64.197920 Y151.667639 F2400.000000
G1 X154.167636 Y61.697923 F900.000000 E1715.341559
G0 X154.647636 Y61.896745 F2400.000000
G1 X64.396743 Y152.147638 F900.000000 E1731.748744
G0 X64.595565 Y152.627638 F2400.000000
G1 X155.127636 Y62.095567 F900.000000 E1748.207047
G0 X155.607635 Y62.294390 F2400.000000
G1 X64.794387 Y153.107638 F900.000000 E1764.716466
G0 X64.993210 Y153.587638 F2400.000000
G1 X156.087635 Y62.493213 F900.000000 E1781.277001
G0 X156.567636 Y62.692035 F2400.000000
G1 X65.192032 Y154.067638 F900.000000 E1797.888654
G0 X65.390855 Y154.547638 F2400.000000
G1 X157.047635 Y62.890858 F900.000000 E1814.551423
G0 X157.527636 Y63.089680 F2400.000000
G1 X65.589677 Y155.027638 F900.000000 E1831.265309
G0 X65.788500 Y155.507638 F2400.000000
G1 X158.007635 Y63.288503 F900.000000 E1848.030311
G0 X158.487635 Y63.487326 F2400.000000
G1 X65.987322 Y155.987638 F900.000000 E1864.846431
G0 X66.186145 Y156.467638 F2400.000000
G1 X158.967635 Y63.686148 F900.000000 E1881.713667
G0 X159.447635 Y63.884971 F2400.000000
G1 X66.384967 Y156.947639 F900.000000 E1898.632019
G0 X66.583790 Y157.427638 F2400.000000
G1 X159.927635 Y64.083793 F900.000000 E1915.601489
G0 X160.407635 Y64.282616 F2400.000000
G1 X66.782612 Y157.907639 F900.000000 E1932.622075
G0 X66.981435 Y158.387638 F2400.000000
G1 X160.887635 Y64.481438 F900.000000 E1949.693778
G0 X161.367635 Y64.680261 F2400.000000
G1 X67.180257 Y158.867639 F900.000000 E1966.816598
G0 X67.379080 Y159.347638 F2400.000000
G1 X161.847634 Y64.879084 F900.000000 E1983.990534
G0 X162.327635 Y65.077906 F2400.000000
G1 X67.577902 Y159.827639 F900.000000 E2001.215587
G0 X68.018783 Y160.065580 F2400.000000
G1 X162.565584 Y65.518779 F900.000000 E2018.403749
G0 X162.764406 Y65.998779 F2400.000000
G1 X68.498782 Y160.264403 F900.000000 E2035.540793
G0 X68.978783 Y160.463225 F2400.000000
G1 X162.963229 Y66.478779 F900.000000 E2052.626721
G0 X163.162051 Y66.958779 F2400.000000
G1 X69.458782 Y160.662048 F900.000000 E2069.661532
G0 X69.938782 Y160.860871 F2400.000000
G1 X163.360874 Y67.438779 F900.000000 E2086.645226
G0 X163.559696 Y67.918779 F2400.000000
G1 X70.418782 Y161.059693 F900.000000 E2103.577804
G0 X70.898782 Y161.258516 F2400.000000
G1 X163.758519 Y68.398779 F900.000000 E2120.459265
G0 X163.957341 Y68.878779 F2400.000000
G1 X71.378782 Y161.457338 F900.000000 E2137.289609
G0 X71.858782 Y161.656161 F2400.000000
G1 X164.156164 Y69.358779 F900.000000 E2154.068836
G0 X164.354987 Y69.838778 F2400.000000
G1 X72.338781 Y161.854984 F900.000000 E2170.796947
G0 X72.818782 Y162.053806 F2400.000000
