;FLAVOR:UltiGCode
;MATERIAL:8742
;TIME:0
G0 X0.000000 Y0.000000 Z0.300000
;BRIM LAYER:0 Z:0.300000 HEIGHT:0.300000 OVERLAP:0.000000 WIDTH:0.000000
;PERIMETER:0 LAYER:0 Z:0.300000 HEIGHT:0.300000 OVERLAP:0.000000 WIDTH:0.480000
G10
G0 X65.208284 Y92.921650 F2400.000000
G11
G1 X103.095344 Y92.921971 F1500.000000 E4.723980
G1 X109.412816 Y106.796035 E6.624775
G1 X108.339882 Y128.801299 E9.371779
G1 X83.945232 Y133.537400 E12.470240
G1 X65.250174 Y93.012453 E18.034884
;PERIMETER:1 LAYER:0 Z:0.300000 HEIGHT:0.300000 OVERLAP:0.000000 WIDTH:0.480000
G0 X64.772429 Y93.122720 F2400.000000
G1 X64.458289 Y92.441764 F1500.000000 E18.128389
G1 X103.404198 Y92.441973 E22.984392
G1 X109.897922 Y106.703108 E24.938217
G1 X108.800980 Y129.200742 E27.746686
G1 X83.667097 Y134.080362 E30.939040
G1 X64.814318 Y93.213523 E36.550631
;PERIMETER:2 LAYER:0 Z:0.300000 HEIGHT:0.300000 OVERLAP:0.000000 WIDTH:0.480000
G0 X64.336573 Y93.323790 F2400.000000
G1 X63.708209 Y91.961696 F1500.000000 E36.737665
G1 X103.713052 Y91.961974 E41.725702
G1 X110.383027 Y106.610181 E43.732558
G1 X109.262078 Y129.600185 E46.602491
G1 X83.388963 Y134.623323 E49.888737
G1 X64.378462 Y93.414593 E55.547275
;WALL LAYER:0 Z:0.300000 HEIGHT:0.300000 OVERLAP:0.200000 WIDTH:0.480000
;PERIMETER:1 LAYER:0 Z:0.300000 HEIGHT:0.300000 OVERLAP:0.200000 WIDTH:0.300000
G10
G0 X90.194393 Y108.911862 F1800.000000
G11
G1 X92.806572 Y108.911885 F600.000000 E55.742009
G1 X93.252695 Y109.891552 E55.822258
G1 X93.027690 Y114.507925 E56.166811
G1 X92.797097 Y114.552715 E56.184323
G1 X90.215338 Y108.957264 E56.643718
;PERIMETER:0 LAYER:0 Z:0.300000 HEIGHT:0.300000 OVERLAP:0.200000 WIDTH:0.600000
G0 X90.194397 Y108.461863 F1800.000000
G1 X93.096127 Y108.461887 F600.000000 E57.121194
G1 X93.707491 Y109.804455 E57.363938
G1 X93.411856 Y115.869327 E58.363090
G1 X92.950044 Y115.959002 E58.440500
G1 X89.491224 Y108.461868 E59.799102
G1 X90.144397 Y108.461863 E59.906581
;INFILL LAYER:0 Z:0.300000 HEIGHT:0.300000 OVERLAP:0.200000 WIDTH:0.480000
G0 X90.511952 Y109.061866 F2400.000000
G1 X90.455040 Y109.118778 F900.000000 E59.916928
G0 X90.669336 Y109.583304 F2400.000000
G1 X91.190769 Y109.061872 F900.000000 E60.011722
G0 X91.869586 Y109.061877 F2400.000000
G1 X90.883633 Y110.047831 F900.000000 E60.190963
G0 X91.097928 Y110.512358 F2400.000000
G1 X92.548402 Y109.061884 F900.000000 E60.454653
G0 X92.871891 Y109.417217 F2400.000000
G1 X91.312224 Y110.976884 F900.000000 E60.738193
G0 X91.526521 Y111.441410 F2400.000000
G1 X93.084279 Y109.883652 F900.000000 E61.021386
G0 X93.069113 Y110.577641 F2400.000000
G1 X91.740817 Y111.905936 F900.000000 E61.262864
G0 X91.955113 Y112.370462 F2400.000000
G1 X93.034324 Y111.291252 F900.000000 E61.459059
G0 X92.999536 Y112.004863 F2400.000000
G1 X92.169410 Y112.834989 F900.000000 E61.609972
G0 X92.383705 Y113.299516 F2400.000000
G1 X92.964747 Y112.718473 F900.000000 E61.715603
G0 X92.929959 Y113.432084 F2400.000000
G1 X92.598001 Y113.764042 F900.000000 E61.775951
G0 X92.895171 Y114.145695 F2400.000000
G1 X92.812298 Y114.228568 F900.000000 E61.791017
G0 X92.812298 Y114.228568 Z0.500000 F2400.000000
;WALL LAYER:1 Z:0.500000 HEIGHT:0.200000 OVERLAP:0.200000 WIDTH:0.480000
;PERIMETER:1 LAYER:1 Z:0.500000 HEIGHT:0.200000 OVERLAP:0.200000 WIDTH:0.300000
G0 X92.685192 Y114.287219 F1800.000000
G1 X90.204544 Y108.911293 F600.000000 E62.105598
G1 X92.816618 Y108.911309 E62.244384
G1 X95.949957 Y115.792594 E62.646125
G1 X93.380160 Y115.793232 E62.782666
G1 X92.706141 Y114.332619 E62.868136
;PERIMETER:0 LAYER:1 Z:0.500000 HEIGHT:0.200000 OVERLAP:0.200000 WIDTH:0.600000
G0 X92.276594 Y114.475761 F1800.000000
G1 X89.501296 Y108.461284 F600.000000 E63.617518
G1 X93.106187 Y108.461312 E64.025349
G1 X96.649237 Y116.242426 E64.992610
G1 X93.092230 Y116.243302 E65.395024
G1 X92.297544 Y114.521161 E65.609598
;INFILL LAYER:1 Z:0.500000 HEIGHT:0.200000 OVERLAP:0.200000 WIDTH:0.480000
G0 X93.094999 Y114.817320 F2400.000000
G1 X93.732424 Y115.454744 F900.000000 E65.689947
G0 X93.763978 Y114.807476 F2400.000000
G1 X92.513391 Y113.556889 F900.000000 E65.847587
G0 X93.827086 Y113.512939 F2400.000000
G1 X91.350172 Y111.036025 F900.000000 E66.159809
G0 X91.931781 Y112.296456 F2400.000000
G1 X93.795532 Y114.160208 F900.000000 E66.394740
G0 X93.858641 Y112.865671 F2400.000000
G1 X90.768563 Y109.775594 F900.000000 E66.784253
G0 X90.733077 Y109.061285 F2400.000000
G1 X93.890195 Y112.218403 F900.000000 E67.182216
G0 X93.813787 Y111.463172 F2400.000000
G1 X91.411907 Y109.061293 F900.000000 E67.484979
G0 X92.090737 Y109.061300 F2400.000000
G1 X93.246289 Y110.216852 F900.000000 E67.630640
;INFILL LAYER:1 Z:0.500000 HEIGHT:0.200000 OVERLAP:0.200000 WIDTH:0.480000
G0 X93.904657 Y111.921739 F2400.000000
G1 X94.121181 Y112.138262 F900.000000 E67.657933
G0 X93.785014 Y114.375963 F2400.000000
G1 X95.051876 Y115.642825 F900.000000 E67.817625
M106 S214.200000
G0 X95.051876 Y115.642825 Z0.700000 F2400.000000
;WALL LAYER:2 Z:0.700000 HEIGHT:0.200000 OVERLAP:0.200000 WIDTH:0.480000
;PERIMETER:1 LAYER:2 Z:0.700000 HEIGHT:0.200000 OVERLAP:0.200000 WIDTH:0.300000
G0 X95.051874 Y115.792794 F1800.000000
G1 X93.390250 Y115.792779 F600.000000 E67.905911
G1 X90.214567 Y108.910706 E68.308628
G1 X92.826651 Y108.910731 E68.447415
G1 X95.960339 Y115.792791 E68.849201
G1 X95.101874 Y115.792794 E68.894813
;PERIMETER:0 LAYER:2 Z:0.700000 HEIGHT:0.200000 OVERLAP:0.200000 WIDTH:0.600000
G0 X95.051870 Y116.242794 F1800.000000
G1 X93.102289 Y116.242776 F600.000000 E69.115375
G1 X89.511319 Y108.460694 E70.084995
G1 X93.116228 Y108.460735 E70.492828
G1 X96.659698 Y116.242799 E71.460207
G1 X95.101871 Y116.242794 E71.636448
;INFILL LAYER:2 Z:0.700000 HEIGHT:0.200000 OVERLAP:0.200000 WIDTH:0.480000
G0 X94.792187 Y115.642792 F2400.000000
G1 X95.434671 Y115.000307 F900.000000 E71.717435
G0 X95.647058 Y115.466743 F2400.000000
G1 X95.471004 Y115.642797 F900.000000 E71.739627
G0 X95.222285 Y114.533871 F2400.000000
G1 X94.113371 Y115.642785 F900.000000 E71.879409
G0 X93.469876 Y115.607457 F2400.000000
G1 X95.009898 Y114.067435 F900.000000 E72.073533
G0 X94.797512 Y113.600999 F2400.000000
G1 X93.255544 Y115.142967 F900.000000 E72.267902
G0 X93.041212 Y114.678476 F2400.000000
G1 X94.585126 Y113.134562 F900.000000 E72.462517
G0 X94.372740 Y112.668126 F2400.000000
G1 X92.826880 Y114.213985 F900.000000 E72.657376
G0 X92.612549 Y113.749495 F2400.000000
G1 X94.160353 Y112.201691 F900.000000 E72.852481
G0 X93.947967 Y111.735254 F2400.000000
G1 X92.398216 Y113.285005 F900.000000 E73.047831
G0 X92.183885 Y112.820514 F2400.000000
G1 X93.735580 Y111.268818 F900.000000 E73.243427
G0 X93.523194 Y110.802382 F2400.000000
G1 X91.969553 Y112.356023 F900.000000 E73.439268
G0 X91.755221 Y111.891532 F2400.000000
G1 X93.310807 Y110.335946 F900.000000 E73.635354
G0 X93.098411 Y109.869520 F2400.000000
G1 X91.540890 Y111.427041 F900.000000 E73.831683
G0 X91.326557 Y110.962551 F2400.000000
G1 X92.886037 Y109.403071 F900.000000 E74.028260
G0 X92.549559 Y109.060727 F2400.000000
G1 X91.112226 Y110.498060 F900.000000 E74.209440
G0 X90.897894 Y110.033569 F2400.000000
G1 X91.870746 Y109.060718 F900.000000 E74.332070
G0 X91.191933 Y109.060708 F2400.000000
G1 X90.683562 Y109.569078 F900.000000 E74.396152
G0 X90.469230 Y109.104589 F2400.000000
G1 X90.513120 Y109.060699 F900.000000 E74.401684
M106 S428.400000
G0 X90.513120 Y109.060699 Z0.900000 F2400.000000
;WALL LAYER:3 Z:0.900000 HEIGHT:0.200000 OVERLAP:0.200000 WIDTH:0.480000
;PERIMETER:1 LAYER:3 Z:0.900000 HEIGHT:0.200000 OVERLAP:0.200000 WIDTH:0.300000
G0 X90.513122 Y108.910116 F1800.000000
G1 X92.836678 Y108.910155 F600.000000 E74.525141
G1 X95.970374 Y115.792231 E74.926928
G1 X93.400246 Y115.792205 E75.063486
G1 X90.224592 Y108.910123 E75.466202
G1 X90.463121 Y108.910115 E75.478876
;PERIMETER:0 LAYER:3 Z:0.900000 HEIGHT:0.200000 OVERLAP:0.200000 WIDTH:0.600000
G0 X90.513129 Y108.460116 F1800.000000
G1 X93.126254 Y108.460160 F600.000000 E75.774506
G1 X96.669736 Y116.242243 E76.741887
G1 X93.112282 Y116.242201 E77.144352
G1 X89.521344 Y108.460111 E78.113971
G1 X90.463129 Y108.460115 E78.220518
;INFILL LAYER:3 Z:0.900000 HEIGHT:0.200000 OVERLAP:0.200000 WIDTH:0.480000
G0 X93.890195 Y112.218403 F2400.000000
G1 X94.419072 Y112.747280 F900.000000 E78.287184
G0 X93.858641 Y112.865671 F2400.000000
G1 X94.986569 Y113.993600 F900.000000 E78.429363
G0 X93.795532 Y114.160208 F2400.000000
G1 X95.277557 Y115.642233 F900.000000 E78.616176
G0 X95.554068 Y115.239921 F2400.000000
G1 X93.827086 Y113.512939 F900.000000 E78.833867
G0 X93.763978 Y114.807476 F2400.000000
G1 X94.598724 Y115.642222 F900.000000 E78.939089
G0 X93.919892 Y115.642213 F2400.000000
G1 X93.732424 Y115.454744 F900.000000 E78.962720
;INFILL LAYER:3 Z:0.900000 HEIGHT:0.200000 OVERLAP:0.200000 WIDTH:0.480000
G0 X93.785014 Y114.375963 F2400.000000
G1 X92.163849 Y112.754798 F900.000000 E79.167072
G0 X93.904657 Y111.921739 F2400.000000
G1 X91.043044 Y109.060125 F900.000000 E79.527786
M106 S642.600000
G0 X91.043044 Y109.060125 Z1.100000 F2400.000000
;WALL LAYER:4 Z:1.100000 HEIGHT:0.200000 OVERLAP:0.200000 WIDTH:0.480000
;PERIMETER:1 LAYER:4 Z:1.100000 HEIGHT:0.200000 OVERLAP:0.200000 WIDTH:0.300000
G0 X91.043047 Y108.909546 F1800.000000
G1 X92.846689 Y108.909579 F600.000000 E79.623619
G1 X95.980410 Y115.791666 E80.025406
G1 X93.410266 Y115.791631 E80.161965
G1 X90.234615 Y108.909543 E80.564682
G1 X90.993047 Y108.909545 E80.604979
;PERIMETER:0 LAYER:4 Z:1.100000 HEIGHT:0.200000 OVERLAP:0.200000 WIDTH:0.600000
G0 X91.043056 Y108.459545 F1800.000000
G1 X93.136278 Y108.459584 F600.000000 E80.841791
G1 X96.679772 Y116.241681 E81.809175
G1 X93.122300 Y116.241626 E82.211641
G1 X89.531368 Y108.459528 E83.181261
G1 X90.993055 Y108.459544 E83.346626
;INFILL LAYER:4 Z:1.100000 HEIGHT:0.200000 OVERLAP:0.200000 WIDTH:0.480000
G0 X91.702199 Y109.059558 F2400.000000
G1 X90.858394 Y109.903363 F900.000000 E83.452990
G0 X91.671065 Y111.664560 F2400.000000
G1 X93.227607 Y110.108019 F900.000000 E83.649196
G0 X94.032905 Y111.876590 F2400.000000
G1 X92.483737 Y113.425757 F900.000000 E83.844473
G0 X93.296409 Y115.186954 F2400.000000
G1 X94.838203 Y113.645160 F900.000000 E84.038820
G0 X95.643502 Y115.413730 F2400.000000
G1 X95.415565 Y115.641667 F900.000000 E84.067552
M106 S647.700000
G0 X95.415565 Y115.641667 Z1.300000 F2400.000000
;WALL LAYER:5 Z:1.300000 HEIGHT:0.200000 OVERLAP:0.200000 WIDTH:0.480000
;PERIMETER:1 LAYER:5 Z:1.300000 HEIGHT:0.200000 OVERLAP:0.200000 WIDTH:0.300000
G0 X95.415561 Y115.791101 F1800.000000
G1 X93.420296 Y115.791057 F600.000000 E84.173566
G1 X90.244640 Y108.908963 E84.576283
G1 X92.856719 Y108.909001 E84.715070
G1 X95.990441 Y115.791101 E85.116858
G1 X95.465561 Y115.791101 E85.144747
;PERIMETER:0 LAYER:5 Z:1.300000 HEIGHT:0.200000 OVERLAP:0.200000 WIDTH:0.600000
G0 X95.415551 Y116.241100 F1800.000000
G1 X93.132335 Y116.241051 F600.000000 E85.403053
G1 X89.541393 Y108.458947 E86.372674
G1 X93.146321 Y108.459007 E86.780509
G1 X96.689806 Y116.241117 E87.747894
G1 X95.465551 Y116.241101 E87.886397
;INFILL LAYER:5 Z:1.300000 HEIGHT:0.200000 OVERLAP:0.200000 WIDTH:0.480000
G0 X95.050143 Y115.641092 F2400.000000
G1 X92.202052 Y112.793001 F900.000000 E88.245407
G0 X94.196758 Y112.213840 F2400.000000
G1 X91.041885 Y109.058967 F900.000000 E88.643087
G0 X91.041885 Y109.058967 Z1.500000 F2400.000000
;WALL LAYER:6 Z:1.500000 HEIGHT:0.200000 OVERLAP:0.200000 WIDTH:0.480000
;PERIMETER:1 LAYER:6 Z:1.500000 HEIGHT:0.200000 OVERLAP:0.200000 WIDTH:0.300000
G0 X91.041888 Y108.908391 F1800.000000
G1 X92.866804 Y108.908426 F600.000000 E88.740050
G1 X96.000470 Y115.790525 E89.141837
G1 X93.430303 Y115.790483 E89.278397
G1 X90.254668 Y108.908388 E89.681114
G1 X90.991888 Y108.908390 E89.720284
;PERIMETER:0 LAYER:6 Z:1.500000 HEIGHT:0.200000 OVERLAP:0.200000 WIDTH:0.600000
G0 X91.041897 Y108.458391 F1800.000000
G1 X93.156371 Y108.458432 F600.000000 E89.959500
G1 X96.699836 Y116.240541 E90.926884
G1 X93.142337 Y116.240476 E91.329353
G1 X89.551422 Y108.458372 E92.298973
G1 X90.991897 Y108.458390 E92.461937
;INFILL LAYER:6 Z:1.500000 HEIGHT:0.200000 OVERLAP:0.200000 WIDTH:0.480000
G0 X91.703353 Y109.058404 F2400.000000
G1 X90.872478 Y109.889278 F900.000000 E92.566671
G0 X91.685146 Y111.650479 F2400.000000
G1 X93.241786 Y110.093840 F900.000000 E92.762890
G0 X94.047063 Y111.862432 F2400.000000
G1 X92.497815 Y113.411679 F900.000000 E92.958177
G0 X93.310484 Y115.172879 F2400.000000
G1 X94.852345 Y113.631018 F900.000000 E93.152533
G0 X95.657644 Y115.399588 F2400.000000
G1 X95.416708 Y115.640524 F900.000000 E93.182904
G0 X95.416708 Y115.640524 Z1.700000 F2400.000000
;WALL LAYER:7 Z:1.700000 HEIGHT:0.200000 OVERLAP:0.200000 WIDTH:0.480000
;PERIMETER:1 LAYER:7 Z:1.700000 HEIGHT:0.200000 OVERLAP:0.200000 WIDTH:0.300000
G0 X95.416704 Y115.789960 F1800.000000
G1 X93.440342 Y115.789907 F600.000000 E93.287913
G1 X90.265973 Y108.910574 E93.690468
G1 X92.882606 Y108.916737 E93.829497
G1 X96.010507 Y115.789963 E94.230729
G1 X95.466704 Y115.789961 E94.259622
;PERIMETER:0 LAYER:7 Z:1.700000 HEIGHT:0.200000 OVERLAP:0.200000 WIDTH:0.600000
G0 X95.416693 Y116.239960 F1800.000000
G1 X93.152377 Y116.239901 F600.000000 E94.515791
G1 X89.561966 Y108.458912 E95.485272
G1 X93.172793 Y108.467419 E95.893776
G1 X96.709872 Y116.239982 E96.859877
G1 X95.466693 Y116.239961 E97.000521
;INFILL LAYER:7 Z:1.700000 HEIGHT:0.200000 OVERLAP:0.200000 WIDTH:0.480000
G0 X95.049001 Y115.639950 F2400.000000
G1 X92.240265 Y112.831214 F900.000000 E97.354570
G0 X94.234547 Y112.251628 F2400.000000
G1 X91.045321 Y109.062402 F900.000000 E97.756581
G0 X91.045321 Y109.062402 Z1.900000 F2400.000000
;WALL LAYER:8 Z:1.900000 HEIGHT:0.200000 OVERLAP:0.200000 WIDTH:0.480000
;PERIMETER:1 LAYER:8 Z:1.900000 HEIGHT:0.200000 OVERLAP:0.200000 WIDTH:0.300000
G0 X91.045322 Y108.907260 F1800.000000
G1 X92.886844 Y108.907280 F600.000000 E97.854426
G1 X96.020539 Y115.789396 E98.256215
G1 X93.450375 Y115.789334 E98.392774
G1 X90.274741 Y108.907263 E98.795489
G1 X90.995322 Y108.907259 E98.833776
;PERIMETER:0 LAYER:8 Z:1.900000 HEIGHT:0.200000 OVERLAP:0.200000 WIDTH:0.600000
G0 X91.045327 Y108.457259 F1800.000000
G1 X93.176413 Y108.457283 F600.000000 E99.074872
G1 X96.719906 Y116.239417 E100.042259
G1 X93.162407 Y116.239326 E100.444728
G1 X89.571496 Y108.457254 E101.414344
G1 X90.995327 Y108.457258 E101.575426
;INFILL LAYER:8 Z:1.900000 HEIGHT:0.200000 OVERLAP:0.200000 WIDTH:0.480000
G0 X91.704490 Y109.057267 F2400.000000
G1 X90.886569 Y109.875188 F900.000000 E101.678527
G0 X91.699239 Y111.636387 F2400.000000
G1 X93.255899 Y110.079726 F900.000000 E101.874749
G0 X94.061190 Y111.848305 F2400.000000
G1 X92.511909 Y113.397585 F900.000000 E102.070040
G0 X93.324579 Y115.158784 F2400.000000
G1 X94.866488 Y113.616876 F900.000000 E102.264401
G0 X95.671786 Y115.385446 F2400.000000
G1 X95.417842 Y115.639390 F900.000000 E102.296412
G0 X95.417842 Y115.639390 Z2.100000 F2400.000000
;WALL LAYER:9 Z:2.100000 HEIGHT:0.200000 OVERLAP:0.200000 WIDTH:0.480000
;PERIMETER:1 LAYER:9 Z:2.100000 HEIGHT:0.200000 OVERLAP:0.200000 WIDTH:0.300000
G0 X95.417837 Y115.788808 F1800.000000
G1 X93.460436 Y115.788757 F600.000000 E102.400414
G1 X90.284783 Y108.906712 E102.803128
G1 X92.896873 Y108.906708 E102.941916
G1 X96.030565 Y115.788811 E103.343704
G1 X95.467837 Y115.788809 E103.373603
;PERIMETER:0 LAYER:9 Z:2.100000 HEIGHT:0.200000 OVERLAP:0.200000 WIDTH:0.600000
G0 X95.417826 Y116.238808 F1800.000000
G1 X93.172475 Y116.238749 F600.000000 E103.627626
G1 X89.581539 Y108.456708 E104.597240
G1 X93.186442 Y108.456708 E105.005073
G1 X96.729930 Y116.238831 E105.972458
G1 X95.467826 Y116.238809 E106.115244
;INFILL LAYER:9 Z:2.100000 HEIGHT:0.200000 OVERLAP:0.200000 WIDTH:0.480000
G0 X95.047849 Y115.638798 F2400.000000
G1 X92.278537 Y112.869486 F900.000000 E106.464323
G0 X94.272338 Y112.289419 F2400.000000
G1 X91.039621 Y109.056703 F900.000000 E106.871816
G0 X91.039621 Y109.056703 Z2.300000 F2400.000000
;WALL LAYER:10 Z:2.300000 HEIGHT:0.200000 OVERLAP:0.200000 WIDTH:0.480000
;PERIMETER:1 LAYER:10 Z:2.300000 HEIGHT:0.200000 OVERLAP:0.200000 WIDTH:0.300000
