;FLAVOR:UltiGCode
;MATERIAL:10834
;TIME:9390
M140 S230
G0 X-23.466344 Y-1.482640 Z0.200000 F900.000000
G1 X-23.835694 Y-1.410893 E0.033537
G1 X-24.857253 Y-3.624128 E0.250808
G1 X-23.362245 Y-3.624311 E0.384063
G1 X-23.466344 Y-1.482640 E0.575181
G0 X-23.451620 Y0.567691
G1 X-25.607357 Y-4.104075 E1.033783
G1 X-22.858298 Y-4.104361 E1.278814
G1 X-23.082007 Y0.495872 E1.689329
G1 X-23.451620 Y0.567691 E1.722890
G0 X-23.828265 Y-1.966990
G1 X-23.675647 Y-2.119609 E1.742128
G0 X-24.042599 Y-2.431479
G1 X-23.640943 Y-2.833136 E1.792758
G0 X-23.768629 Y-3.384272
G1 X-24.256932 Y-2.895968 E1.854310
G0 X-24.471266 Y-3.360457
G1 X-24.447517 Y-3.384206 E1.857304
G0 X-21.364530 Y2.801556 Z0.400000
G1 X-24.099667 Y-3.144840 E2.440702
G1 X-22.478229 Y-3.144926 E2.585225
G1 X-20.672070 Y0.820995 E2.973651
G1 X-20.769022 Y2.813357 E3.151446
G1 X-21.364530 Y2.801556 E3.204535
G0 X-21.674885 Y3.275475
G1 X-24.848777 Y-3.624809 E3.881519
G1 X-22.169481 Y-3.624940 E4.120332
G1 X-20.186977 Y0.728043 E4.546669
G1 X-20.312263 Y3.302552 E4.776414
G1 X-21.674885 Y3.275475 E4.897892
G0 X-21.985241 Y3.749394
G1 X-25.597887 Y-4.104777 E5.668461
G1 X-21.860747 Y-4.104953 E6.001563
G1 X-19.701884 Y0.635090 E6.465813
G1 X-19.855502 Y3.791741 E6.747507
G1 X-21.985241 Y3.749394 E6.937374
G0 X-21.193884 Y2.564904
G1 X-21.222263 Y2.536525 E6.940951
G0 X-20.974838 Y2.105127
G1 X-21.800440 Y1.279526 E7.045020
G0 X-20.943336 Y1.457808
G1 X-22.378615 Y0.022528 E7.225941
G0 X-21.532079 Y-0.488581
G1 X-23.534967 Y-2.491469 E7.478411
G0 X-23.269566 Y-2.904890
G1 X-22.099577 Y-1.734901 E7.625891
G0 X-22.956792 Y-1.234471
G1 X-20.964581 Y0.757739 E7.877015
G0 X-21.362111 Y2.797414 Z0.600000
G1 X-24.090969 Y-3.145426 E8.459891
G1 X-22.467942 Y-3.145509 E8.604556
G1 X-19.769825 Y2.821435 E9.188251
G1 X-21.362111 Y2.797414 E9.330192
G0 X-21.672011 Y3.272791
G1 X-24.839550 Y-3.625396 E10.006770
G1 X-22.159068 Y-3.625523 E10.245688
G1 X-19.021010 Y3.312795 E10.924431
G1 X-21.672011 Y3.272791 E11.160749
G0 X-21.981912 Y3.748168
G1 X-25.588130 Y-4.105365 E11.931027
G1 X-21.850210 Y-4.105536 E12.264198
G1 X-18.272195 Y3.804155 E13.037988
G1 X-21.981912 Y3.748168 E13.368683
G0 X-20.169417 Y2.520032
G1 X-20.223952 Y2.574567 E13.375557
G0 X-20.380714 Y2.052506
G1 X-20.892681 Y2.564473 E13.440092
G0 X-21.320320 Y2.313290
G1 X-20.592012 Y1.584982 E13.531897
G0 X-20.803309 Y1.117456
G1 X-21.533937 Y1.848083 E13.623995
G0 X-21.747552 Y1.382876
G1 X-21.014607 Y0.649932 E13.716384
G0 X-21.225904 Y0.182406
G1 X-21.961167 Y0.917669 E13.809066
G0 X-22.174783 Y0.452462
G1 X-21.437202 Y-0.285118 E13.902040
G0 X-21.648499 Y-0.752644
G1 X-22.388399 Y-0.012744 E13.995307
G0 X-22.602015 Y-0.477951
G1 X-21.859797 Y-1.220168 E14.088865
G0 X-22.071095 Y-1.687694
G1 X-22.815630 Y-0.943158 E14.182716
G0 X-23.029245 Y-1.408365
G1 X-22.282393 Y-2.155218 E14.276859
G0 X-22.493690 Y-2.622744
G1 X-23.242862 Y-1.873571 E14.371294
G0 X-23.456477 Y-2.338778
G1 X-22.889765 Y-2.905491 E14.442730
G0 X-23.568616 Y-2.905462
G1 X-23.670093 Y-2.803986 E14.455521
G0 X-21.315670 Y2.837200 Z0.800000
G1 X-24.076987 Y-3.146011 E15.042876
G1 X-22.457920 Y-3.146091 E15.187188
G1 X-19.761506 Y2.839769 E15.772357
G1 X-21.315670 Y2.837200 E15.910885
G0 X-21.623034 Y3.316690
G1 X-24.827152 Y-3.625982 E16.592427
G1 X-22.149044 Y-3.626104 E16.831134
G1 X-19.018383 Y3.321007 E17.510320
G1 X-21.623034 Y3.316690 E17.742480
G0 X-21.930397 Y3.796180
G1 X-25.577315 Y-4.105952 E18.518210
G1 X-21.840183 Y-4.106117 E18.851310
G1 X-18.275260 Y3.802245 E19.624513
G1 X-21.930397 Y3.796180 E19.950305
G0 X-20.481380 Y2.598586
G1 X-21.744334 Y1.335631 E20.109504
G0 X-20.960350 Y0.761971
G1 X-22.907900 Y-1.185579 E20.354998
G0 X-22.072502 Y-1.707827
G1 X-23.270734 Y-2.906058 E20.506039
G0 X-23.489683 Y-2.446185
G1 X-21.516426 Y-0.472928 E20.754773
G0 X-22.326118 Y0.075026
G1 X-20.404274 Y1.996869 E20.997027
G0 X-21.161332 Y2.597456
G1 X-21.162552 Y2.596236 E20.997181
G0 X-21.306255 Y2.835300 Z1.000000
G1 X-24.066962 Y-3.146594 E21.584406
G1 X-22.447892 Y-3.146671 E21.728718
G1 X-19.724054 Y2.835189 E22.314572
G1 X-21.306255 Y2.835300 E22.455597
G0 X-21.613375 Y3.315319
G1 X-24.817127 Y-3.626566 E23.137063
G1 X-22.139017 Y-3.626683 E23.375770
G1 X-18.978093 Y3.315147 E24.055640
G1 X-21.613375 Y3.315319 E24.290530
G0 X-21.920494 Y3.795339
G1 X-25.567290 Y-4.106538 E25.066234
G1 X-21.830153 Y-4.106687 E25.399336
G1 X-18.232134 Y3.795102 E26.173221
G1 X-21.920494 Y3.795339 E26.501975
G0 X-20.143203 Y2.493817
G1 X-20.244621 Y2.595236 E26.514759
G0 X-20.355590 Y2.027382
G1 X-20.923485 Y2.595277 E26.586344
G0 X-21.294678 Y2.287647
G1 X-20.567976 Y1.560946 E26.677947
G0 X-20.780363 Y1.094510
G1 X-21.509033 Y1.823180 E26.769797
G0 X-21.723390 Y1.358714
G1 X-20.992749 Y0.628074 E26.861897
G0 X-21.205135 Y0.161637
G1 X-21.937746 Y0.894248 E26.954244
G0 X-22.152102 Y0.429781
G1 X-21.417522 Y-0.304798 E27.046840
G0 X-21.629909 Y-0.771235
G1 X-22.359318 Y-0.041825 E27.138784
G0 X-22.324591 Y-0.755375
G1 X-21.842296 Y-1.237670 E27.199579
G0 X-22.289865 Y-1.468924
G1 X-22.054682 Y-1.704106 E27.229224
G0 X-22.315909 Y-0.933762
G1 X-22.634402 Y-0.615269 E27.269371
G0 X-21.296228 Y2.834726 Z1.200000
G1 X-24.056936 Y-3.147175 E27.856597
G1 X-22.437868 Y-3.147252 E28.000909
G1 X-19.714027 Y2.834620 E28.586763
G1 X-21.296228 Y2.834726 E28.727789
G0 X-21.603347 Y3.314745
G1 X-24.807101 Y-3.627148 E29.409255
G1 X-22.128992 Y-3.627264 E29.647962
G1 X-18.968064 Y3.314577 E30.327833
G1 X-21.603347 Y3.314745 E30.562723
G0 X-21.910465 Y3.794764
G1 X-25.557265 Y-4.107122 E31.338429
G1 X-21.820125 Y-4.107263 E31.671530
G1 X-18.222103 Y3.794535 E32.445417
G1 X-21.910465 Y3.794764 E32.774171
G0 X-20.654983 Y2.594688
G1 X-21.560662 Y1.689009 E32.888334
G0 X-21.286199 Y2.834152 Z1.400000
G1 X-24.046910 Y-3.147758 E33.475561
G1 X-22.427839 Y-3.147833 E33.619873
G1 X-19.703993 Y2.834048 E34.205728
G1 X-21.286199 Y2.834152 E34.346755
G0 X-21.593318 Y3.314170
G1 X-24.797075 Y-3.627731 E35.028221
G1 X-22.118964 Y-3.627844 E35.266929
G1 X-18.958030 Y3.314007 E35.946801
G1 X-21.593318 Y3.314170 E36.181691
G0 X-21.900437 Y3.794188
G1 X-25.547239 Y-4.107704 E36.957397
G1 X-21.810096 Y-4.107839 E37.290499
G1 X-18.212068 Y3.793966 E38.064386
G1 X-21.900437 Y3.794188 E38.393141
G0 X-22.620316 Y-0.629355
G1 X-21.881250 Y-1.368421 E38.486302
G0 X-21.852545 Y-1.907129 Z1.600000
G1 X-19.693983 Y2.833433 E38.950583
G1 X-21.276111 Y2.833566 E39.091602
G1 X-24.036878 Y-3.148328 E39.678830
G1 X-22.417809 Y-3.148410 E39.823142
G1 X-21.852545 Y-1.907129 E39.944713
G0 X-21.415699 Y-2.106042
G1 X-18.948026 Y3.313381 E40.475480
G1 X-21.583254 Y3.313588 E40.710365
G1 X-24.787042 Y-3.628299 E41.391831
G1 X-22.108932 Y-3.628413 E41.630539
G1 X-21.415699 Y-2.106042 E41.779638
G0 X-20.978854 Y-2.304955
G1 X-18.202069 Y3.793329 E42.376891
G1 X-21.890382 Y3.793611 E42.705641
G1 X-25.537206 Y-4.108269 E43.481347
G1 X-21.800066 Y-4.108414 E43.814448
G1 X-20.978854 Y-2.304955 E43.991076
G0 X-21.522427 Y1.727244
G1 X-20.656151 Y2.593520 E44.100273
G0 X-21.266146 Y2.832990 Z1.800000
G1 X-24.026846 Y-3.148899 E44.687497
G1 X-22.407784 Y-3.148990 E44.831809
G1 X-19.683951 Y2.832861 E45.417661
G1 X-21.266146 Y2.832990 E45.558687
G0 X-21.573263 Y3.313012
G1 X-24.777007 Y-3.628863 E46.240151
G1 X-22.098904 Y-3.628989 E46.478857
G1 X-18.937994 Y3.312809 E47.158724
G1 X-21.573263 Y3.313012 E47.393613
G0 X-21.880381 Y3.793035
G1 X-25.527168 Y-4.108828 E48.169316
G1 X-21.790037 Y-4.108990 E48.502417
G1 X-18.192038 Y3.792757 E49.276299
G1 X-21.880381 Y3.793035 E49.605051
G0 X-22.606228 Y-0.643443
G1 X-21.867108 Y-1.382563 E49.698219
G0 X-21.832486 Y-1.908280 Z2.000000
G1 X-19.673921 Y2.832282 E50.162500
G1 X-21.256053 Y2.832414 E50.303519
G1 X-24.016812 Y-3.149463 E50.890745
G1 X-22.397758 Y-3.149572 E51.035056
G1 X-21.832486 Y-1.908280 E51.156628
G0 X-21.395640 Y-2.107193
G1 X-18.927964 Y3.312231 E51.687395
G1 X-21.563195 Y3.312436 E51.922281
G1 X-24.766970 Y-3.629422 E52.603744
G1 X-22.088875 Y-3.629565 E52.842450
G1 X-21.395640 Y-2.107193 E52.991550
G0 X-20.958795 Y-2.306107
G1 X-18.182008 Y3.792179 E53.588803
G1 X-21.870324 Y3.792459 E53.917553
G1 X-25.517128 Y-4.109379 E54.693255
G1 X-21.780008 Y-4.109566 E55.026354
G1 X-20.958795 Y-2.306107 E55.202982
G0 X-21.484189 Y1.765482
G1 X-20.657301 Y2.592370 E55.307214
G0 X-21.246087 Y2.831839 Z2.200000
G1 X-24.006783 Y-3.150036 E55.894437
G1 X-22.387726 Y-3.150141 E56.038748
G1 X-19.663890 Y2.831710 E56.624601
G1 X-21.246087 Y2.831839 E56.765626
G0 X-21.553205 Y3.311861
G1 X-24.756938 Y-3.629989 E57.447088
G1 X-22.078846 Y-3.630141 E57.685794
G1 X-18.917934 Y3.311658 E58.365661
G1 X-21.553205 Y3.311861 E58.600550
G0 X-21.860322 Y3.791883
G1 X-25.507093 Y-4.109942 E59.376249
G1 X-21.769980 Y-4.110141 E59.709348
G1 X-18.171978 Y3.791606 E60.483230
G1 X-21.860322 Y3.791883 E60.811982
G0 X-22.592140 Y-0.657531
G1 X-21.852964 Y-1.396707 E60.905157
G0 X-21.657896 Y-1.570052 Z2.400000
G1 X-19.653866 Y2.831129 E61.336200
G1 X-21.235995 Y2.831263 E61.477220
G1 X-23.996750 Y-3.150603 E62.064445
G1 X-22.378033 Y-3.150684 E62.208725
G1 X-21.657896 Y-1.570052 E62.363544
G0 X-21.375618 Y-2.108421
G1 X-18.907908 Y3.311079 E62.894319
G1 X-21.543138 Y3.311285 E63.129204
G1 X-24.746913 Y-3.630574 E63.810668
G1 X-22.069240 Y-3.630697 E64.049337
G1 X-21.375618 Y-2.108421 E64.198442
G0 X-20.938749 Y-2.307283
G1 X-18.161952 Y3.791027 E64.795698
G1 X-21.850266 Y3.791307 E65.124448
G1 X-25.497076 Y-4.110544 E65.900151
G1 X-21.760460 Y-4.110710 E66.233206
G1 X-20.938749 Y-2.307283 E66.409850
G0 X-21.445955 Y1.803716
G1 X-20.658450 Y2.591221 E66.509117
G0 X-21.226029 Y2.830687 Z2.600000
G1 X-23.986724 Y-3.151190 E67.096341
G1 X-22.368007 Y-3.151263 E67.240621
G1 X-19.643836 Y2.830557 E67.826484
G1 X-21.226029 Y2.830687 E67.967509
G0 X-21.533147 Y3.310709
G1 X-24.736890 Y-3.631165 E68.648973
G1 X-22.059213 Y-3.631275 E68.887642
G1 X-18.897877 Y3.310505 E69.567523
G1 X-21.533147 Y3.310709 E69.802411
G0 X-21.840264 Y3.790731
G1 X-25.487056 Y-4.111139 E70.578115
G1 X-21.750434 Y-4.111287 E70.911171
G1 X-18.151921 Y3.790453 E71.685071
G1 X-21.840264 Y3.790731 E72.013823
G0 X-22.578052 Y-0.671619
G1 X-21.838822 Y-1.410849 E72.107005
G0 X-21.854840 Y-2.047783 Z2.800000
G1 X-19.633806 Y2.829979 E72.584723
G1 X-21.215937 Y2.830111 E72.725742
G1 X-23.976701 Y-3.151776 E73.312969
G1 X-22.357981 Y-3.151842 E73.457250
G1 X-21.854840 Y-2.047783 E73.565395
G0 X-21.354072 Y-2.106308
G1 X-18.887851 Y3.309927 E74.095850
G1 X-21.523080 Y3.310134 E74.330735
G1 X-24.726868 Y-3.631753 E75.012202
G1 X-22.049187 Y-3.631852 E75.250871
G1 X-21.354072 Y-2.106308 E75.400297
G0 X-20.982626 Y-2.448849
G1 X-18.141894 Y3.789874 E76.011305
G1 X-21.830208 Y3.790156 E76.340054
G1 X-25.477035 Y-4.111731 E77.115761
G1 X-21.740406 Y-4.111862 E77.448817
G1 X-20.982626 Y-2.448849 E77.611709
G0 X-21.407721 Y1.841950
G1 X-20.659600 Y2.590071 E77.706012
G0 X-21.238535 Y2.788186 Z3.000000
G1 X-23.969674 Y-3.152350 E78.288786
G1 X-22.347597 Y-3.152419 E78.433366
G1 X-19.633931 Y2.807107 E79.017032
G1 X-21.238535 Y2.788186 E79.160065
G0 X-21.547817 Y3.264570
G1 X-24.718640 Y-3.632327 E79.836660
G1 X-22.038992 Y-3.632429 E80.075504
G1 X-18.883903 Y3.295993 E80.754071
G1 X-21.547817 Y3.264570 E80.991530
G0 X-21.857100 Y3.740954
G1 X-25.467605 Y-4.112303 E81.761945
G1 X-21.730323 Y-4.112439 E82.095059
G1 X-18.133877 Y3.784879 E82.868524
G1 X-21.857100 Y3.740954 E83.200408
G0 X-22.569123 Y-0.680548
G1 X-21.824678 Y-1.424993 E83.294247
G0 X-22.318721 Y-3.111737 Z3.200000
G1 X-19.614409 Y2.827376 E83.875912
G1 X-21.209661 Y2.826225 E84.018101
G1 X-23.949229 Y-3.130774 E84.602523
G1 X-22.318721 Y-3.111737 E84.747864
G0 X-21.847546 Y-3.235255
G1 X-18.868179 Y3.307923 E85.388690
G1 X-21.517373 Y3.306001 E85.624820
G1 X-24.702359 Y-3.619608 E86.304267
G1 X-22.009029 Y-3.588150 E86.544348
G1 X-21.847546 Y-3.235255 E86.578939
G0 X-21.410702 Y-3.434173
G1 X-18.121950 Y3.788470 E87.286310
G1 X-21.825070 Y3.785776 E87.616379
G1 X-25.455490 Y-4.108442 E88.390853
G1 X-21.699129 Y-4.064562 E88.725691
G1 X-21.410702 Y-3.434173 E88.787481
G0 X-21.390113 Y1.859558
G1 X-20.663047 Y2.586624 E88.879130
G0 X-21.211864 Y2.820270 Z3.400000
G1 X-23.941388 Y-3.131371 E89.462744
G1 X-22.308750 Y-3.112311 E89.608275
G1 X-19.605697 Y2.823911 E90.189659
G1 X-21.211864 Y2.820270 E90.332821
G0 X-21.520121 Y3.299569
G1 X-24.693642 Y-3.620194 E91.011369
G1 X-21.991049 Y-3.588633 E91.252275
G1 X-18.858941 Y3.305614 E91.927221
G1 X-21.520121 Y3.299569 E92.164419
G0 X-21.828377 Y3.778869
G1 X-25.445895 Y-4.109015 E92.937900
G1 X-21.674841 Y-4.054971 E93.274059
G1 X-18.112185 Y3.787317 E94.041812
G1 X-21.828377 Y3.778869 E94.373048
G0 X-22.558318 Y-0.691353
G1 X-21.810536 Y-1.439135 E94.467308
G0 X-22.298658 Y-3.112886 Z3.600000
G1 X-19.603843 Y2.805378 E95.046930
G1 X-21.187513 Y2.786707 E95.188097
G1 X-23.924690 Y-3.131862 E95.769319
G1 X-22.298658 Y-3.112886 E95.914261
G0 X-21.826980 Y-3.235296
G1 X-18.853818 Y3.294264 E96.553753
G1 X-21.496068 Y3.263099 E96.789280
G1 X-24.679609 Y-3.620714 E97.465291
G1 X-21.988916 Y-3.589301 E97.705136
G1 X-21.826980 Y-3.235296 E97.739834
G0 X-21.390464 Y-3.434931
G1 X-18.103792 Y3.783149 E98.446758
G1 X-21.804609 Y3.739492 E98.776645
G1 X-25.434528 Y-4.109565 E99.547445
G1 X-21.678970 Y-4.065712 E99.882211
G1 X-21.390464 Y-3.434931 E99.944036
G0 X-21.319071 Y1.930600
G1 X-20.697196 Y2.552475 E100.022425
G0 X-21.183145 Y2.786064 Z3.800000
G1 X-23.915922 Y-3.132447 E100.603478
G1 X-22.288695 Y-3.113460 E100.748527
G1 X-19.593815 Y2.804802 E101.328151
G1 X-21.183145 Y2.786064 E101.469822
G0 X-21.491876 Y3.262455
G1 X-24.670334 Y-3.621289 E102.145638
G1 X-21.974882 Y-3.589829 E102.385907
G1 X-18.843789 Y3.293687 E103.059945
G1 X-21.491876 Y3.262455 E103.295992
G0 X-21.800607 Y3.738845
G1 X-25.424745 Y-4.110132 E104.066570
G1 X-21.661753 Y-4.066204 E104.401998
G1 X-18.093762 Y3.782573 E105.170475
G1 X-21.800607 Y3.738845 E105.500899
G0 X-22.535139 Y-0.714532
G1 X-21.796395 Y-1.453276 E105.594020
G0 X-22.279333 Y-3.115645 Z4.000000
G1 X-19.583787 Y2.804225 E106.173799
G1 X-21.175735 Y2.785456 E106.315704
G1 X-23.881591 Y-3.137813 E106.896141
G1 X-22.279333 Y-3.115645 E107.038968
G0 X-21.810088 Y-3.243399
G1 X-18.833760 Y3.293110 E107.679140
G1 X-21.485858 Y3.261831 E107.915545
G1 X-24.633345 Y-3.628269 E108.590723
G1 X-21.961307 Y-3.591287 E108.828912
G1 X-21.810088 Y-3.243399 E108.862723
G0 X-21.371533 Y-3.438557
G1 X-18.083734 Y3.781994 E109.569889
G1 X-21.795968 Y3.738205 E109.900793
G1 X-25.385099 Y-4.118724 E110.670712
G1 X-21.644640 Y-4.066948 E111.004142
G1 X-21.371533 Y-3.438557 E111.065213
G0 X-21.288467 Y1.961204
G1 X-20.698602 Y2.551069 E111.139567
G0 X-21.172456 Y2.784802 Z4.200000
G1 X-23.887313 Y-3.141650 E111.720596
G1 X-22.269805 Y-3.117178 E111.864785
G1 X-19.573760 Y2.803650 E112.444661
G1 X-21.172456 Y2.784802 E112.587167
G0 X-21.482198 Y3.261181
G1 X-24.640414 Y-3.633106 E113.263082
G1 X-21.951986 Y-3.582395 E113.502752
G1 X-18.823732 Y3.292534 E114.175988
G1 X-21.482198 Y3.261181 E114.412961
G0 X-21.791940 Y3.737559
G1 X-25.393513 Y-4.124560 E115.183762
G1 X-21.647306 Y-4.067864 E115.517710
G1 X-18.073706 Y3.781419 E116.286434
G1 X-21.791940 Y3.737559 E116.617874
G0 X-22.518919 Y-0.730752
G1 X-21.782252 Y-1.467419 E116.710733
G0 X-21.164479 Y2.784204 Z4.400000
G1 X-23.903448 Y-3.156459 E117.293810
G1 X-22.277405 Y-3.156473 E117.438743
G1 X-19.563725 Y2.803086 E118.022412
G1 X-21.164479 Y2.784204 E118.165102
G0 X-23.681339 Y-3.636901
G1 X-21.968547 Y-3.636474 E118.317768
G1 X-18.813697 Y3.291975 E118.996328
G1 X-21.473363 Y3.260592 E119.233407
G1 X-24.662335 Y-3.656020 E119.912275
G1 X-23.681339 Y-3.636901 E119.999731
G0 X-23.606284 Y-4.116474
G1 X-21.659684 Y-4.116474 E120.173236
G1 X-18.063667 Y3.780863 E120.946687
G1 X-21.782294 Y3.736979 E121.278162
G1 X-25.419049 Y-4.150870 E122.052356
G1 X-23.606284 Y-4.116474 E122.213962
G0 X-21.272102 Y1.977569
G1 X-20.700001 Y2.549670 E122.286077
G0 X-20.630550 Y2.824984 Z4.600000
G1 X-21.124184 Y2.827814 E122.330077
