;FLAVOR:UltiGCode
;MATERIAL:17292
;TIME:10332
M140 S230
G0 X101.545495 Y125.102268 Z0.350000 F900.000000
G1 X91.866981 Y104.300518 E3.371927
G1 X133.161540 Y104.009048 E9.441099
G1 X123.684045 Y125.161267 E12.847609
G1 X101.545495 Y125.102268 E16.101302
G0 X101.239036 Y125.581453
G1 X91.116696 Y103.825802 E19.627854
G1 X133.904947 Y103.523788 E25.916558
G1 X124.037423 Y125.546487 E29.463257
G1 X123.682333 Y125.641198 E29.517268
G1 X101.239036 Y125.581453 E32.815750
G0 X100.932576 Y126.060638
G1 X90.366411 Y103.351085 E36.496928
G1 X134.648353 Y103.038528 E43.005164
G1 X124.381994 Y125.951366 E46.695217
G1 X123.744503 Y126.121396 E46.792184
G1 X100.932576 Y126.060638 E50.144842
G0 X123.528184 Y124.920855
G1 X123.529253 Y124.919785 E50.145064
G0 X122.851166 Y124.919050
G1 X124.080319 Y123.689897 E50.400538
G0 X124.631385 Y122.460009
G1 X122.174148 Y124.917246 E50.911264
G0 X121.497129 Y124.915442
G1 X125.182450 Y121.230121 E51.677242
G0 X125.733517 Y120.000232
G1 X120.820111 Y124.913637 E52.698471
G0 X120.143093 Y124.911833
G1 X126.284582 Y118.770344 E53.974953
G0 X126.835648 Y117.540456
G1 X119.466075 Y124.910028 E55.506686
G0 X118.789057 Y124.908224
G1 X127.386713 Y116.310568 E57.293671
G0 X127.937779 Y115.080679
G1 X118.112039 Y124.906420 E59.335908
G0 X117.435020 Y124.904615
G1 X128.488845 Y113.850791 E61.633396
G0 X129.039910 Y112.620903
G1 X116.758002 Y124.902811 E64.186136
G0 X116.080984 Y124.901007
G1 X129.590977 Y111.391014 E66.994129
G0 X130.142042 Y110.161126
G1 X115.403966 Y124.899202 E70.057373
G0 X114.726948 Y124.897398
G1 X130.693108 Y108.931238 E73.375868
G0 X131.244174 Y107.701349
G1 X114.049930 Y124.895594 E76.949616
G0 X113.372911 Y124.893789
G1 X131.795239 Y106.471461 E80.778616
G0 X132.346305 Y105.241573
G1 X112.695893 Y124.891985 E84.862867
G0 X112.018875 Y124.890181
G1 X132.656438 Y104.252618 E89.152293
G0 X131.972790 Y104.257443
G1 X111.341857 Y124.888376 E93.440341
G0 X110.664839 Y124.886572
G1 X131.289142 Y104.262269 E97.727012
G0 X130.605494 Y104.267095
G1 X109.987821 Y124.884768 E102.012304
G0 X109.310802 Y124.882963
G1 X129.921846 Y104.271919 E106.296218
G0 X129.238198 Y104.276745
G1 X108.633784 Y124.881159 E110.578755
G0 X107.956766 Y124.879354
G1 X128.554550 Y104.281570 E114.859913
G0 X127.870902 Y104.286396
G1 X107.279748 Y124.877550 E119.139693
G0 X106.602730 Y124.875746
G1 X127.187255 Y104.291221 E123.418096
G0 X126.503607 Y104.296046
G1 X105.925712 Y124.873941 E127.695121
G0 X105.248693 Y124.872137
G1 X125.819959 Y104.300872 E131.970767
G0 X125.136311 Y104.305697
G1 X104.571675 Y124.870333 E136.245036
G0 X103.894657 Y124.868528
G1 X124.452663 Y104.310522 E140.517926
G0 X123.769015 Y104.315348
G1 X103.217639 Y124.866724 E144.789439
G0 X102.540621 Y124.864920
G1 X123.085367 Y104.320173 E149.059574
G0 X122.401719 Y104.324999
G1 X101.863603 Y124.863115 E153.328331
G0 X101.535669 Y124.512226
G1 X121.718072 Y104.329823 E157.523154
G0 X121.034424 Y104.334649
G1 X101.320121 Y124.048952 E161.620685
G0 X101.104571 Y123.585679
G1 X120.350776 Y104.339475 E165.620923
G0 X119.667128 Y104.344300
G1 X100.889022 Y123.122406 E169.523870
G0 X100.673473 Y122.659132
G1 X118.983480 Y104.349125 E173.329524
G0 X118.299832 Y104.353951
G1 X100.457924 Y122.195859 E177.037885
G0 X100.242375 Y121.732585
G1 X117.616184 Y104.358776 E180.648955
G0 X116.932536 Y104.363602
G1 X100.026826 Y121.269312 E184.162732
G0 X99.811276 Y120.806039
G1 X116.248889 Y104.368426 E187.579217
G0 X115.565241 Y104.373252
G1 X99.595728 Y120.342765 E190.898410
G0 X99.380178 Y119.879492
G1 X114.881593 Y104.378078 E194.120310
G0 X114.197945 Y104.382903
G1 X99.164630 Y119.416218 E197.244918
G0 X98.949080 Y118.952945
G1 X113.514297 Y104.387728 E200.272234
G0 X112.830649 Y104.392553
G1 X98.733531 Y118.489672 E203.202258
G0 X98.517982 Y118.026399
G1 X112.147002 Y104.397379 E206.034990
G0 X111.463354 Y104.402205
G1 X98.302434 Y117.563125 E208.770429
G0 X98.086884 Y117.099852
G1 X110.779707 Y104.407029 E211.408576
G0 X110.096059 Y104.411855
G1 X97.871335 Y116.636579 E213.949431
G0 X97.655787 Y116.173305
G1 X109.412411 Y104.416680 E216.392993
G0 X108.728763 Y104.421506
G1 X97.440237 Y115.710032 E218.739263
G0 X97.224688 Y115.246758
G1 X108.045115 Y104.426331 E220.988241
G0 X107.361467 Y104.431156
G1 X97.009139 Y114.783484 E223.139927
G0 X96.793590 Y114.320211
G1 X106.677819 Y104.435982 E225.194321
G0 X105.994171 Y104.440807
G1 X96.578041 Y113.856937 E227.151422
G0 X96.362492 Y113.393664
G1 X105.310524 Y104.445632 E229.011231
G0 X104.626876 Y104.450458
G1 X96.146942 Y112.930391 E230.773747
G0 X95.931394 Y112.467117
G1 X103.943228 Y104.455283 E232.438972
G0 X103.259580 Y104.460109
G1 X95.715844 Y112.003844 E234.006904
G0 X95.500296 Y111.540570
G1 X102.575933 Y104.464933 E235.477544
G0 X101.892284 Y104.469759
G1 X95.284746 Y111.077297 E236.850891
G0 X95.069197 Y110.614024
G1 X101.208636 Y104.474585 E238.126947
G0 X100.524988 Y104.479410
G1 X94.853648 Y110.150750 E239.305710
G0 X94.638099 Y109.687477
G1 X99.841341 Y104.484235 E240.387180
G0 X99.157693 Y104.489060
G1 X94.422550 Y109.224203 E241.371359
G0 X94.207001 Y108.760930
G1 X98.474045 Y104.493886 E242.258245
G0 X97.790397 Y104.498712
G1 X93.991451 Y108.297657 E243.047839
G0 X93.775903 Y107.834383
G1 X97.106750 Y104.503536 E243.740141
G0 X96.423101 Y104.508362
G1 X93.560353 Y107.371110 E244.335151
G0 X93.344805 Y106.907836
G1 X95.739453 Y104.513187 E244.832868
G0 X95.055805 Y104.518013
G1 X93.129255 Y106.444563 E245.233293
G0 X92.913706 Y105.981290
G1 X94.372158 Y104.522838 E245.536425
G0 X93.688510 Y104.527663
G1 X92.698157 Y105.518016 E245.742266
G0 X92.482608 Y105.054743
G1 X93.004862 Y104.532489 E245.850814
G0 X92.321214 Y104.537314
G1 X92.267059 Y104.591469 E245.862070
G0 X101.567552 Y125.205345 Z0.650000
G1 X91.771349 Y104.243724 E248.836396
G1 X133.178965 Y103.993598 E254.159387
G1 X123.734298 Y125.117467 E257.133892
G1 X101.567552 Y125.205345 E259.983420
G0 X101.246206 Y125.651460
G1 X91.019313 Y103.768256 E263.088513
G1 X133.921380 Y103.509105 E268.603617
G1 X124.046029 Y125.596234 E271.713761
G1 X101.328073 Y125.676262 E274.634142
G1 X101.246206 Y125.651460 E274.645138
G0 X100.912773 Y126.071708
G1 X90.267277 Y103.292788 E277.877328
G1 X134.663794 Y103.024611 E283.584545
G1 X124.357760 Y126.075002 E286.830329
G1 X101.360780 Y126.166172 E289.786583
G1 X100.912773 Y126.071708 E289.845440
G0 X101.884123 Y124.964088
G1 X101.575473 Y124.655438 E289.901551
G0 X102.560265 Y124.961408
G1 X100.979895 Y123.381038 E290.188855
G0 X100.384315 Y122.106636
G1 X103.236407 Y124.958728 E290.707352
G0 X103.912549 Y124.956047
G1 X99.788737 Y120.832235 E291.457041
G0 X99.193159 Y119.557835
G1 X104.588691 Y124.953366 E292.437923
G0 X105.264833 Y124.950686
G1 X98.597581 Y118.283434 E293.649998
G0 X98.002002 Y117.009032
G1 X105.940975 Y124.948006 E295.093266
G0 X106.617118 Y124.945326
G1 X97.406424 Y115.734632 E296.767727
G0 X96.810845 Y114.460231
G1 X107.293260 Y124.942645 E298.673380
G0 X107.969401 Y124.939964
G1 X96.215267 Y113.185830 E300.810226
G0 X95.619688 Y111.911428
G1 X108.645544 Y124.937284 E303.178265
G0 X109.321686 Y124.934604
G1 X95.024110 Y110.637028 E305.777497
G0 X94.428532 Y109.362627
G1 X109.997828 Y124.931923 E308.607921
G0 X110.673970 Y124.929243
G1 X93.832953 Y108.088226 E311.669538
G0 X93.237374 Y106.813825
G1 X111.350112 Y124.926562 E314.962348
G0 X112.026255 Y124.923882
G1 X92.641796 Y105.539424 E318.486351
G0 X92.936701 Y104.476684
G1 X113.378538 Y124.918521 E322.202580
G0 X112.702396 Y124.921202
G1 X92.261954 Y104.480760 E325.918556
G0 X93.611448 Y104.472609
G1 X114.054681 Y124.915841 E329.635039
G0 X114.730823 Y124.913160
G1 X94.286195 Y104.468533 E333.351776
G0 X94.960941 Y104.464457
G1 X115.406965 Y124.910480 E337.068766
G0 X116.083107 Y124.907800
G1 X95.635688 Y104.460381 E340.786010
G0 X96.310435 Y104.456306
G1 X116.759249 Y124.905119 E344.503508
G0 X117.435391 Y124.902439
G1 X96.985182 Y104.452229 E348.221259
G0 X97.659928 Y104.448153
G1 X118.111533 Y124.899758 E351.939264
G0 X118.787675 Y124.897078
G1 X98.334675 Y104.444077 E355.657523
G0 X99.009422 Y104.440002
G1 X119.463818 Y124.894398 E359.376035
G0 X120.139959 Y124.891717
G1 X99.684169 Y104.435926 E363.094801
G0 X100.358915 Y104.431850
G1 X120.816102 Y124.889037 E366.813821
G0 X121.492244 Y124.886356
G1 X101.033662 Y104.427774 E370.533094
G0 X101.708409 Y104.423699
G1 X122.168386 Y124.883676 E374.252621
G0 X122.844528 Y124.880996
G1 X102.383156 Y104.419623 E377.972402
G0 X103.057902 Y104.415547
G1 X123.520670 Y124.878315 E381.692436
G0 X123.770247 Y124.449070
G1 X103.732649 Y104.411471 E385.335177
G0 X104.407395 Y104.407395
G1 X123.979981 Y123.979981 E388.893380
G0 X124.189714 Y123.510892
G1 X105.082143 Y104.403320 E392.367046
G0 X105.756889 Y104.399244
G1 X124.399448 Y123.041803 E395.756176
G0 X124.609182 Y122.572715
G1 X106.431636 Y104.395168 E399.060767
G0 X107.106382 Y104.391092
G1 X124.818916 Y122.103626 E402.280822
G0 X125.028649 Y121.634537
G1 X107.781130 Y104.387017 E405.416340
G0 X108.455876 Y104.382941
G1 X125.238383 Y121.165448 E408.467320
G0 X125.448117 Y120.696360
G1 X109.130623 Y104.378865 E411.433763
G0 X109.805369 Y104.374789
G1 X125.657851 Y120.227271 E414.315670
G0 X125.867585 Y119.758183
G1 X110.480117 Y104.370714 E417.113039
G0 X111.154863 Y104.366638
G1 X126.077318 Y119.289093 E419.825870
G0 X126.287052 Y118.820004
G1 X111.829610 Y104.362562 E422.454165
G0 X112.504356 Y104.358486
G1 X126.496786 Y118.350916 E424.997922
G0 X126.706520 Y117.881827
G1 X113.179104 Y104.354411 E427.457143
G0 X113.853850 Y104.350335
G1 X126.916254 Y117.412739 E429.831826
G0 X127.125987 Y116.943649
G1 X114.528597 Y104.346259 E432.121972
G0 X115.203343 Y104.342183
G1 X127.335721 Y116.474561 E434.327581
G0 X127.545455 Y116.005472
G1 X115.878090 Y104.338107 E436.448653
G0 X116.552837 Y104.334032
G1 X127.755189 Y115.536384 E438.485187
G0 X127.964923 Y115.067295
G1 X117.227584 Y104.329956 E440.437184
G0 X117.902330 Y104.325880
G1 X128.174656 Y114.598206 E442.304645
G0 X128.384390 Y114.129117
G1 X118.577077 Y104.321804 E444.087568
G0 X119.251824 Y104.317729
G1 X128.594124 Y113.660028 E445.785954
G0 X128.803858 Y113.190940
G1 X119.926571 Y104.313653 E447.399802
G0 X120.601317 Y104.309577
G1 X129.013591 Y112.721850 E448.929114
G0 X129.223325 Y112.252762
G1 X121.276064 Y104.305501 E450.373888
G0 X121.950811 Y104.301426
G1 X129.433059 Y111.783673 E451.734125
G0 X129.642793 Y111.314585
G1 X122.625558 Y104.297350 E453.009826
G0 X123.300304 Y104.293274
G1 X129.852527 Y110.845496 E454.200989
G0 X130.062260 Y110.376407
G1 X123.975051 Y104.289198 E455.307614
G0 X124.649798 Y104.285123
G1 X130.271994 Y109.907318 E456.329703
G0 X130.481728 Y109.438230
G1 X125.324545 Y104.281047 E457.267254
G0 X125.999291 Y104.276971
G1 X130.691462 Y108.969141 E458.120269
G0 X130.901196 Y108.500052
G1 X126.674038 Y104.272895 E458.888746
G0 X127.348784 Y104.268819
G1 X131.110929 Y108.030963 E459.572686
G0 X131.320662 Y107.561874
G1 X128.023532 Y104.264744 E460.172089
G0 X128.698278 Y104.260668
G1 X131.530396 Y107.092786 E460.686954
G0 X131.740130 Y106.623697
G1 X129.373025 Y104.256592 E461.117283
G0 X130.047771 Y104.252516
G1 X131.949864 Y106.154609 E461.463074
G0 X132.159597 Y105.685519
G1 X130.722519 Y104.248441 E461.724328
G0 X131.397265 Y104.244365
G1 X132.369331 Y105.216431 E461.901045
G0 X132.579065 Y104.747342
G1 X132.072012 Y104.240289 E461.993225
G0 X132.746758 Y104.236213
G1 X132.788799 Y104.278254 E462.000868
G0 X123.672398 Y125.106910 Z0.950000
G1 X115.083814 Y125.161007 E463.104941
G1 X111.188683 Y125.102472 E463.605711
G1 X106.296278 Y125.186441 E464.234716
G1 X101.551609 Y125.098509 E464.844742
G1 X101.078886 Y124.260044 E464.968476
G1 X98.024434 Y117.486685 E465.923620
G1 X96.054170 Y113.450974 E466.500929
G1 X91.862197 Y104.257436 E467.799804
G1 X133.105608 Y104.049585 E473.101656
G1 X123.672398 Y125.106910 E476.067752
G0 X115.081722 Y125.641029
G1 X111.189218 Y125.582534 E476.568185
G1 X106.295353 Y125.666528 E477.197377
G1 X101.742287 Y125.582137 E477.782768
G1 X101.271163 Y125.586262 E477.843333
G1 X100.649846 Y124.476282 E478.006852
G1 X97.589878 Y117.690683 E478.963722
G1 X95.620058 Y113.655880 E479.540902
G1 X91.117496 Y103.781183 E480.936011
G1 X133.848280 Y103.565836 E486.429066
G1 X123.984209 Y125.584951 E489.530638
G1 X115.081722 Y125.641029 E490.675063
G0 X115.079642 Y126.121052
G1 X111.189752 Y126.062597 E491.175160
G1 X106.294427 Y126.146616 E491.804540
G1 X101.600256 Y126.059599 E492.408073
G1 X100.990571 Y126.067875 E492.486455
G1 X100.220812 Y124.692529 E492.689061
G1 X97.155322 Y117.894681 E493.647658
G1 X95.185947 Y113.860785 E494.224708
G1 X90.372796 Y103.304930 E495.716052
G1 X134.590953 Y103.082087 E501.400310
G1 X124.296018 Y126.062997 E504.637358
G1 X115.079642 Y126.121052 E505.822134
G0 X122.898437 Y124.871779
G1 X124.014899 Y123.755317 E506.025102
G0 X124.565779 Y122.525615
G1 X122.215311 Y124.876082 E506.452406
G0 X121.532186 Y124.880385
G1 X125.116657 Y121.295914 E507.104046
G0 X125.667536 Y120.066213
G1 X120.849060 Y124.884688 E507.980022
G0 X120.165935 Y124.888991
G1 X126.218415 Y118.836511 E509.080334
G0 X126.769294 Y117.606810
G1 X119.482810 Y124.893293 E510.404982
G0 X118.799685 Y124.897596
G1 X127.320173 Y116.377108 E511.953967
G0 X127.871052 Y115.147407
G1 X118.116559 Y124.901899 E513.727288
G0 X117.433434 Y124.906202
G1 X128.421930 Y113.917706 E515.724944
G0 X128.972810 Y112.688004
G1 X116.750308 Y124.910505 E517.946937
G0 X116.067183 Y124.914808
G1 X129.523688 Y111.458302 E520.393266
G0 X130.074567 Y110.228601
G1 X115.384057 Y124.919111 E523.063932
G0 X114.708998 Y124.915348
G1 X130.625446 Y108.998899 E525.957467
G0 X131.176325 Y107.769198
G1 X114.040226 Y124.905297 E529.072728
G0 X113.371453 Y124.895247
G1 X131.727204 Y106.539496 E532.409717
G0 X132.278083 Y105.309795
G1 X112.702682 Y124.885197 E535.968432
G0 X112.033909 Y124.875147
G1 X132.617005 Y104.292050 E539.710342
G0 X131.934745 Y104.295488
G1 X111.365136 Y124.865097 E543.449800
G0 X110.680247 Y124.871163
G1 X131.252484 Y104.298926 E547.189735
G0 X130.570224 Y104.302364
G1 X109.989571 Y124.883018 E550.931200
G0 X109.298894 Y124.894872
G1 X129.887962 Y104.305803 E554.674196
G0 X129.205702 Y104.309241
G1 X108.608217 Y124.906726 E558.418721
G0 X107.917541 Y124.918580
G1 X128.523441 Y104.312679 E562.164776
G0 X127.841181 Y104.316117
G1 X107.226864 Y124.930434 E565.912361
G0 X106.536187 Y124.942288
G1 X127.158920 Y104.319555 E569.661477
G0 X126.476659 Y104.322994
G1 X105.862370 Y124.937284 E573.409057
G0 X105.197499 Y124.923331
G1 X125.794398 Y104.326432 E577.153476
G0 X125.112138 Y104.329870
G1 X104.532629 Y124.909379 E580.894733
G0 X103.867760 Y124.895426
G1 X124.429877 Y104.333308 E584.632829
G0 X123.747617 Y104.336746
G1 X103.202889 Y124.881474 E588.367763
G0 X102.538019 Y124.867521
G1 X123.065355 Y104.340185 E592.099536
G0 X122.383095 Y104.343623
G1 X101.863858 Y124.862860 E595.829836
G0 X101.509602 Y124.538294
G1 X121.700834 Y104.347061 E599.500506
G0 X121.018574 Y104.350499
G1 X101.269696 Y124.099377 E603.090759
G0 X101.058721 Y123.631530
G1 X120.336313 Y104.353937 E606.595334
G0 X119.654052 Y104.357376
G1 X100.847746 Y123.163682 E610.014232
G0 X100.636770 Y122.695835
G1 X118.971791 Y104.360814 E613.347452
G0 X118.289531 Y104.364252
G1 X100.425795 Y122.227988 E616.594994
G0 X100.214819 Y121.760141
G1 X117.607270 Y104.367690 E619.756860
G0 X116.925010 Y104.371128
G1 X100.003844 Y121.292294 E622.833048
G0 X99.792869 Y120.824447
G1 X116.242748 Y104.374567 E625.823558
G0 X115.560488 Y104.378005
G1 X99.581893 Y120.356600 E628.728391
G0 X99.370918 Y119.888752
G1 X114.878227 Y104.381443 E631.547546
G0 X114.195967 Y104.384881
G1 X99.159943 Y119.420905 E634.281024
G0 X98.948967 Y118.953058
G1 X113.513706 Y104.388319 E636.928825
G0 X112.831445 Y104.391758
G1 X98.737992 Y118.485210 E639.490948
G0 X98.527017 Y118.017365
G1 X112.149185 Y104.395196 E641.967394
G0 X111.466925 Y104.398634
G1 X98.316042 Y117.549517 E644.358162
G0 X98.097481 Y117.089255
G1 X110.784664 Y104.402072 E646.664632
G0 X110.102403 Y104.405511
