;FLAVOR:UltiGCode
;MATERIAL:1154
;TIME:0
G0 X0.000000 Y0.000000 Z0.300000
;BRIM LAYER:0 Z:0.300000 HEIGHT:0.300000 OVERLAP:0.000000 WIDTH:0.000000
;PERIMETER:0 LAYER:0 Z:0.300000 HEIGHT:0.300000 OVERLAP:0.000000 WIDTH:0.480000
G10
G0 X92.517947 Y93.281554 F2400.000000
G11
G1 X94.688647 Y91.131674 F1500.000000 E0.380934
G1 X97.064248 Y89.232246 E0.760178
G1 X99.665542 Y87.573001 E1.144886
G1 X102.407501 Y86.213986 E1.526458
G1 X105.335961 Y85.139522 E1.915397
G1 X108.261721 Y84.410219 E2.291361
G1 X111.292856 Y83.986181 E2.672981
G1 X113.985974 Y83.902641 E3.008936
G1 X126.597206 Y83.925334 E4.581380
G1 X129.989135 Y84.518045 E5.010714
G1 X133.202066 Y85.665068 E5.436085
G1 X136.295296 Y87.416841 E5.879321
G1 X139.063617 Y89.731081 E6.329216
G1 X141.395808 Y92.531752 E6.783642
G1 X143.163897 Y95.674713 E7.233278
G1 X144.329165 Y99.031821 E7.676361
G1 X144.862164 Y102.402852 E8.101902
G1 X144.857951 Y122.748575 E10.638725
G1 X144.267049 Y126.219439 E11.077720
G1 X143.033712 Y129.612804 E11.527904
G1 X141.225035 Y132.704667 E11.974532
G1 X138.906801 Y135.423674 E12.420050
G1 X136.086510 Y137.728000 E12.874152
G1 X132.823422 Y139.516937 E13.338145
G1 X129.281796 Y140.667144 E13.802440
G1 X126.003025 Y141.094229 E14.214710
G1 X112.169178 Y141.074787 E15.939597
G1 X109.144287 Y140.747874 E16.318954
G1 X106.110289 Y140.087386 E16.706111
G1 X103.263896 Y139.131172 E17.080507
G1 X100.559245 Y137.912077 E17.450413
G1 X97.859770 Y136.319777 E17.841191
G1 X95.455748 Y134.523623 E18.215362
G1 X93.324648 Y132.568230 E18.575986
G1 X91.357077 Y130.349631 E18.945727
G1 X89.587821 Y127.878116 E19.324712
G1 X88.068643 Y125.184619 E19.710288
G1 X86.862997 Y122.372767 E20.091755
G1 X85.970105 Y119.484746 E20.468668
G1 X85.385872 Y116.493065 E20.848735
G1 X85.119637 Y113.448919 E21.229745
G1 X85.187575 Y110.318251 E21.620187
G1 X85.572876 Y107.365165 E21.991516
G1 X86.249263 Y104.495459 E22.359132
G1 X86.497355 Y103.785475 E22.452906
G1 X86.279038 Y102.255363 E22.645622
G1 X90.612236 Y95.624444 E23.633285
G1 X92.454845 Y93.359131 E23.997378
;PERIMETER:1 LAYER:0 Z:0.300000 HEIGHT:0.300000 OVERLAP:0.000000 WIDTH:0.480000
G0 X92.145576 Y92.978666 F2400.000000
G1 X94.368984 Y90.772695 F1500.000000 E24.387902
G1 X96.784513 Y88.841342 E24.773520
G1 X99.429216 Y87.154409 E25.164648
G1 X102.217691 Y85.772338 E25.552694
G1 X105.194837 Y84.680013 E25.948099
G1 X108.170170 Y83.938352 E26.330433
G1 X111.252045 Y83.507216 E26.718441
G1 X113.978968 Y83.422629 E27.058613
G1 X126.639257 Y83.445409 E28.637174
G1 X130.112028 Y84.052247 E29.076741
G1 X133.402513 Y85.226957 E29.512379
G1 X136.569739 Y87.020635 E29.966218
G1 X139.404739 Y89.390617 E30.426950
G1 X141.792686 Y92.258246 E30.892240
G1 X143.603286 Y95.476774 E31.352687
G1 X144.796613 Y98.914721 E31.806439
G1 X145.342172 Y102.365194 E32.242008
G1 X145.337943 Y122.789191 E34.788592
G1 X144.732971 Y126.342696 E35.238038
G1 X143.469985 Y129.817639 E35.699045
G1 X141.617882 Y132.983734 E36.156396
G1 X139.244000 Y135.768011 E36.612609
G1 X136.355996 Y138.127661 E37.077614
G1 X133.014604 Y139.959526 E37.552741
G1 X129.387826 Y141.137388 E38.028199
G1 X126.033821 Y141.574273 E38.449929
G1 X112.142983 Y141.554751 E40.181921
G1 X109.067227 Y141.222340 E40.567658
G1 X105.982418 Y140.550792 E40.961298
G1 X103.088417 Y139.578583 E41.341956
G1 X100.338026 Y138.338872 E41.718118
G1 X97.593400 Y136.719940 E42.115432
G1 X95.149060 Y134.893663 E42.495879
G1 X92.981920 Y132.905198 E42.862601
G1 X90.981347 Y130.649386 E43.238544
G1 X89.182453 Y128.136468 E43.623878
G1 X87.637754 Y125.397724 E44.015931
G1 X86.411878 Y122.538694 E44.403799
G1 X85.503930 Y119.601969 E44.787068
G1 X84.909909 Y116.560166 E45.173502
G1 X84.639181 Y113.464664 E45.560940
G1 X84.708251 Y110.281884 E45.957881
G1 X85.100071 Y107.278829 E46.335494
G1 X85.787833 Y104.360868 E46.709292
G1 X86.005642 Y103.737546 E46.791619
G1 X85.778302 Y102.144158 E46.992304
G1 X90.224097 Y95.340941 E48.005631
G1 X92.082475 Y93.056243 E48.372839
;PERIMETER:2 LAYER:0 Z:0.300000 HEIGHT:0.300000 OVERLAP:0.000000 WIDTH:0.480000
G0 X91.773206 Y92.675778 F2400.000000
G1 X94.049322 Y90.413716 F1500.000000 E48.772955
G1 X96.504772 Y88.450443 E49.164946
G1 X99.192897 Y86.735815 E49.562496
G1 X102.027882 Y85.330690 E49.957014
G1 X105.053711 Y84.220504 E50.358885
G1 X108.078618 Y83.466485 E50.747589
G1 X111.211234 Y83.028251 E51.141986
G1 X113.971961 Y82.942616 E51.486375
G1 X126.681309 Y82.965484 E53.071053
G1 X130.234921 Y83.586449 E53.520852
G1 X133.602961 Y84.788846 E53.966758
G1 X136.844182 Y86.624430 E54.431200
G1 X139.745857 Y89.050150 E54.902767
G1 X142.189566 Y91.984744 E55.378922
G1 X144.042674 Y95.278834 E55.850179
G1 X145.264062 Y98.797621 E56.314601
G1 X145.822180 Y102.327536 E56.760199
G1 X145.817935 Y122.829807 E59.316542
G1 X145.198893 Y126.465954 E59.776441
G1 X143.906257 Y130.022474 E60.248270
G1 X142.010729 Y133.262802 E60.716345
G1 X139.581199 Y136.112348 E61.183252
G1 X136.625482 Y138.527321 E61.659159
G1 X133.205785 Y140.402115 E62.145421
G1 X129.493856 Y141.607631 E62.632042
G1 X126.064616 Y142.054318 E63.063232
G1 X112.116787 Y142.034716 E64.802330
G1 X108.990167 Y141.696807 E65.194446
G1 X105.854548 Y141.014197 E65.594570
G1 X102.912937 Y140.025993 E65.981490
G1 X100.116806 Y138.765667 E66.363907
G1 X97.327032 Y137.120102 E66.767757
G1 X94.842372 Y135.263703 E67.154479
G1 X92.639191 Y133.242166 E67.527301
G1 X90.605617 Y130.949142 E67.909446
G1 X88.777085 Y128.394822 E68.301128
G1 X87.206866 Y125.610833 E68.699658
G1 X85.960758 Y122.704618 E69.093927
G1 X85.037755 Y119.719193 E69.483552
G1 X84.433945 Y116.627267 E69.876354
G1 X84.158726 Y113.480409 E70.270220
G1 X84.228928 Y110.245517 E70.673660
G1 X84.627266 Y107.192493 E71.057555
G1 X85.326404 Y104.226276 E71.437535
G1 X85.513927 Y103.689623 E71.508416
G1 X85.277567 Y102.032953 E71.717070
G1 X89.835959 Y95.057438 E72.756062
G1 X91.710104 Y92.753356 E73.126385
;WALL LAYER:0 Z:0.300000 HEIGHT:0.300000 OVERLAP:0.200000 WIDTH:0.480000
;PERIMETER:1 LAYER:0 Z:0.300000 HEIGHT:0.300000 OVERLAP:0.200000 WIDTH:0.300000
G0 X104.380397 Y104.037972 F1800.000000
G1 X105.337323 Y103.090224 F600.000000 E73.226789
G1 X106.382897 Y102.254221 E73.326588
G1 X107.538192 Y101.517304 E73.428742
G1 X108.730366 Y100.926410 E73.527935
G1 X110.037068 Y100.446970 E73.631698
G1 X111.311512 Y100.129284 E73.729613
G1 X112.652302 Y99.941707 E73.830541
G1 X114.219505 Y99.893088 E73.947430
G1 X125.196370 Y99.912839 E74.765742
G1 X125.895260 Y100.034963 E74.818633
G1 X126.524540 Y100.259593 E74.868444
G1 X127.152848 Y100.615391 E74.922272
G1 X127.700007 Y101.072769 E74.975436
G1 X128.174758 Y101.642848 E75.030742
G1 X128.526736 Y102.268480 E75.084257
G1 X128.757252 Y102.932516 E75.136658
G1 X128.871886 Y103.657383 E75.191367
G1 X128.868231 Y121.395536 E76.513723
G1 X128.746032 Y122.113313 E76.568002
G1 X128.500412 Y122.789175 E76.621611
G1 X128.138371 Y123.408116 E76.675066
G1 X127.673979 Y123.952828 E76.728428
G1 X127.109222 Y124.414295 E76.782797
G1 X126.454765 Y124.773118 E76.838438
G1 X125.749717 Y125.002121 E76.893702
G1 X124.977291 Y125.102759 E76.951772
G1 X113.041939 Y125.086000 E77.841537
G1 X111.711336 Y124.942195 E77.941309
G1 X110.369805 Y124.650156 E78.043661
G1 X109.109731 Y124.226855 E78.142757
G1 X107.928613 Y123.694484 E78.239339
G1 X106.733230 Y122.989391 E78.342800
G1 X105.672239 Y122.196682 E78.441534
G1 X104.741706 Y121.342878 E78.535680
G1 X103.873604 Y120.364032 E78.633215
G1 X103.091698 Y119.271781 E78.733354
G1 X102.422619 Y118.085518 E78.834885
G1 X101.890871 Y116.845371 E78.935477
G1 X101.499568 Y115.579743 E79.034234
G1 X101.241435 Y114.257955 E79.134633
G1 X101.124790 Y112.924309 E79.234434
G1 X101.155048 Y111.529679 E79.338426
G1 X101.323158 Y110.241186 E79.435296
G1 X101.620572 Y108.979319 E79.531944
G1 X102.065881 Y107.704942 E79.632580
G1 X102.654941 Y106.466114 E79.734842
G1 X103.534596 Y105.063787 E79.858249
G1 X104.348846 Y104.076761 E79.953637
;PERIMETER:0 LAYER:0 Z:0.300000 HEIGHT:0.300000 OVERLAP:0.200000 WIDTH:0.600000
G0 X104.031301 Y103.754016 F1800.000000
G1 X105.037647 Y102.753674 F600.000000 E80.187123
G1 X106.120644 Y101.887749 E80.415289
G1 X107.316631 Y101.124877 E80.648714
G1 X108.552427 Y100.512364 E80.875670
G1 X109.904767 Y100.016179 E81.112701
G1 X111.225687 Y99.686907 E81.336708
G1 X112.614044 Y99.492678 E81.567385
G1 X114.212940 Y99.443075 E81.830608
G1 X125.235795 Y99.462909 E83.644407
G1 X126.010483 Y99.598278 E83.773813
G1 X126.712472 Y99.848868 E83.896463
G1 X127.410147 Y100.243953 E84.028394
G1 X128.019818 Y100.753594 E84.159149
G1 X128.546841 Y101.386449 E84.294665
G1 X128.938668 Y102.082920 E84.426160
G1 X129.195490 Y102.822753 E84.555025
G1 X129.321895 Y103.622084 E84.688188
G1 X129.318223 Y121.433609 E87.619051
G1 X129.182831 Y122.228883 E87.751795
G1 X128.909411 Y122.981222 E87.883514
G1 X128.506658 Y123.669756 E88.014770
G1 X127.990097 Y124.275652 E88.145785
G1 X127.361854 Y124.788986 E88.279283
G1 X126.633986 Y125.188053 E88.415873
G1 X125.849111 Y125.442979 E88.551664
G1 X125.006150 Y125.552801 E88.691545
G1 X113.017376 Y125.535965 E90.664284
G1 X111.639092 Y125.387008 E90.892399
G1 X110.249928 Y125.084599 E91.126338
G1 X108.945215 Y124.646302 E91.352816
G1 X107.721221 Y124.094605 E91.573737
G1 X106.483502 Y123.364538 E91.810192
G1 X105.384723 Y122.543597 E92.035885
G1 X104.420400 Y121.658789 E92.251237
G1 X103.521354 Y120.645049 E92.474196
G1 X102.711664 Y119.513985 E92.703085
G1 X102.018658 Y118.285301 E92.935204
G1 X101.467946 Y117.000924 E93.165155
G1 X101.062529 Y115.689642 E93.391003
G1 X100.795219 Y114.320861 E93.620488
G1 X100.674365 Y112.939074 E93.848728
G1 X100.705683 Y111.495579 E94.086309
G1 X100.879905 Y110.160243 E94.307899
G1 X101.187984 Y108.853130 E94.528876
G1 X101.639632 Y107.530298 E94.758883
G1 X102.366575 Y106.055276 E95.029472
G1 X103.178229 Y104.802795 E95.275057
G1 X103.999750 Y103.792805 E95.489285
;PERIMETER:1 LAYER:0 Z:0.300000 HEIGHT:0.300000 OVERLAP:0.200000 WIDTH:0.300000
G0 X104.538908 Y109.416847 F1800.000000
G1 X103.766840 Y109.591801 F600.000000 E95.548301
G1 X102.985740 Y109.998589 E95.613954
G1 X102.365126 Y110.579858 E95.677344
G1 X101.937601 Y111.236445 E95.735753
G1 X101.681352 Y111.994518 E95.795408
G1 X101.613870 Y112.773134 E95.853670
G1 X101.732841 Y113.532485 E95.910970
G1 X102.019406 Y114.241964 E95.968012
G1 X102.476647 Y114.874747 E96.026212
G1 X103.087658 Y115.394533 E96.086014
G1 X103.794054 Y115.740493 E96.144651
G1 X104.569070 Y115.912162 E96.203828
G1 X105.352568 Y115.890234 E96.262260
G1 X106.120220 Y115.677679 E96.321640
G1 X106.807253 Y115.292047 E96.380374
G1 X107.386678 Y114.747678 E96.439643
G1 X107.801554 Y114.099454 E96.497017
G1 X108.052769 Y113.405615 E96.552028
G1 X108.138605 Y112.635876 E96.609766
G1 X108.039133 Y111.853892 E96.668532
G1 X107.740483 Y111.097709 E96.729142
G1 X107.310826 Y110.494708 E96.784339
G1 X106.729276 Y109.976728 E96.842396
G1 X106.084459 Y109.633885 E96.896838
G1 X105.322272 Y109.428902 E96.955677
G1 X104.588902 Y109.417615 E97.010356
;PERIMETER:0 LAYER:0 Z:0.300000 HEIGHT:0.300000 OVERLAP:0.200000 WIDTH:0.600000
G0 X104.585846 Y109.867620 F1800.000000
G1 X103.920148 Y110.018471 F600.000000 E97.122673
G1 X103.247904 Y110.370062 E97.247505
G1 X102.714621 Y110.868961 E97.367670
G1 X102.346015 Y111.433492 E97.478611
G1 X102.125005 Y112.087283 E97.592172
G1 X102.066912 Y112.757470 E97.702864
G1 X102.169418 Y113.411785 E97.811844
G1 X102.416160 Y114.022695 E97.920258
G1 X102.809562 Y114.567147 E98.030786
G1 X103.336231 Y115.015195 E98.144566
G1 X103.943741 Y115.312735 E98.255877
G1 X104.612044 Y115.460776 E98.368511
G1 X105.285215 Y115.441944 E98.479324
G1 X105.947511 Y115.258571 E98.592404
G1 X106.539098 Y114.926523 E98.704034
G1 X107.037776 Y114.458027 E98.816623
G1 X107.395487 Y113.899142 E98.925811
G1 X107.611449 Y113.302690 E99.030192
G1 X107.685423 Y112.639417 E99.140009
G1 X107.599862 Y111.966723 E99.251592
G1 X107.342135 Y111.314133 E99.367045
G1 X106.973747 Y110.797103 E99.471508
G1 X106.470347 Y110.348717 E99.582437
G1 X105.918322 Y110.055201 E99.685314
G1 X105.259454 Y109.877995 E99.797582
G1 X104.635840 Y109.868388 E99.900209
;INFILL LAYER:0 Z:0.300000 HEIGHT:0.300000 OVERLAP:0.200000 WIDTH:0.480000
G0 X104.561909 Y109.267182 F2400.000000
G1 X113.772052 Y100.057039 F900.000000 E101.574570
G0 X114.464386 Y100.043528 F2400.000000
G1 X105.230470 Y109.277444 F900.000000 E103.253252
G0 X105.787944 Y109.398792 F2400.000000
G1 X115.141990 Y100.044746 F900.000000 E104.953773
G0 X115.819592 Y100.045966 F2400.000000
G1 X106.291490 Y109.574069 F900.000000 E106.685937
G0 X106.734691 Y109.809690 F2400.000000
G1 X116.497196 Y100.047185 F900.000000 E108.460715
G0 X117.174798 Y100.048405 F2400.000000
G1 X107.109079 Y110.114123 F900.000000 E110.290615
G0 X107.458525 Y110.443501 F2400.000000
G1 X117.852401 Y100.049624 F900.000000 E112.180172
G0 X118.530005 Y100.050843 F2400.000000
G1 X107.740975 Y110.839872 F900.000000 E114.141567
G0 X107.975435 Y111.284235 F2400.000000
G1 X119.207607 Y100.052063 F900.000000 E116.183522
G0 X119.885211 Y100.053282 F2400.000000
G1 X108.167643 Y111.770850 F900.000000 E118.313721
G0 X108.255033 Y112.362283 F2400.000000
G1 X120.562814 Y100.054502 F900.000000 E120.551217
G0 X121.240417 Y100.055720 F2400.000000
G1 X108.243023 Y113.053115 F900.000000 E122.914082
G0 X108.009689 Y113.965271 F2400.000000
G1 X121.918020 Y100.056940 F900.000000 E125.442551
G0 X122.595624 Y100.058159 F2400.000000
G1 X103.320324 Y119.333459 F900.000000 E128.946709
G0 X103.603529 Y119.729076 F2400.000000
G1 X123.273227 Y100.059379 F900.000000 E132.522567
G0 X123.950830 Y100.060598 F2400.000000
G1 X103.886734 Y120.124694 F900.000000 E136.170125
G0 X104.192597 Y120.497653 F2400.000000
G1 X124.628433 Y100.061817 F900.000000 E139.885263
G0 X125.287958 Y100.081115 F2400.000000
G1 X104.511655 Y120.857418 F900.000000 E143.662297
G0 X104.830712 Y121.217183 F2400.000000
G1 X125.864623 Y100.183272 F900.000000 E147.486162
G0 X126.364860 Y100.361858 F2400.000000
G1 X105.182741 Y121.543977 F900.000000 E151.336971
G0 X105.536746 Y121.868794 F2400.000000
G1 X126.811232 Y100.594309 F900.000000 E155.204572
G0 X127.218560 Y100.865803 F2400.000000
G1 X105.902720 Y122.181643 F900.000000 E159.079691
G0 X106.291252 Y122.471933 F2400.000000
G1 X127.588295 Y101.174891 F900.000000 E162.951393
G0 X127.897593 Y101.544415 F2400.000000
G1 X106.679784 Y122.762224 F900.000000 E166.808690
G0 X107.093238 Y123.027593 F2400.000000
G1 X128.173800 Y101.947031 F900.000000 E170.641036
G0 X128.410032 Y102.389621 F2400.000000
G1 X107.520209 Y123.279444 F900.000000 E174.438707
G0 X107.947181 Y123.531295 F2400.000000
G1 X128.584942 Y102.893534 F900.000000 E178.190555
G0 X128.689973 Y103.467325 F2400.000000
G1 X108.410253 Y123.747046 F900.000000 E181.877312
G0 X108.878166 Y123.957954 F2400.000000
G1 X128.721812 Y104.114308 F900.000000 E185.484793
G0 X128.721672 Y104.793271 F2400.000000
G1 X109.361684 Y124.153259 F900.000000 E189.004347
G0 X109.869807 Y124.323958 F2400.000000
G1 X128.721531 Y105.472235 F900.000000 E192.431501
G0 X128.721391 Y106.151197 F2400.000000
G1 X110.377931 Y124.494658 F900.000000 E195.766256
G0 X110.932311 Y124.619100 F2400.000000
G1 X128.721250 Y106.830161 F900.000000 E199.000200
G0 X128.721108 Y107.509125 F2400.000000
G1 X111.489776 Y124.740458 F900.000000 E202.132775
G0 X112.078096 Y124.830959 F2400.000000
G1 X128.720968 Y108.188087 F900.000000 E205.158371
G0 X128.720827 Y108.867051 F2400.000000
G1 X112.690710 Y124.897168 F900.000000 E208.072570
G0 X113.330297 Y124.936404 F2400.000000
G1 X128.720687 Y109.546014 F900.000000 E210.870470
G0 X128.720546 Y110.224977 F2400.000000
G1 X114.008166 Y124.937357 F900.000000 E213.545111
G0 X114.686036 Y124.938310 F2400.000000
G1 X128.720406 Y110.903940 F900.000000 E216.096493
G0 X128.720264 Y111.582904 F2400.000000
G1 X115.363906 Y124.939262 F900.000000 E218.524616
G0 X116.041776 Y124.940215 F2400.000000
G1 X128.720123 Y112.261868 F900.000000 E220.829480
G0 X128.719983 Y112.940830 F2400.000000
