;FLAVOR:UltiGCode
;MATERIAL:1049
;TIME:892
M140 S230
G0 X-59.054201 Y2.206493 Z0.200000 F900.000000
G1 X-58.254726 Y0.577680 E0.161726
G1 X-58.439942 Y-1.228900 E0.323596
G1 X-59.563377 Y-2.669986 E0.486463
G1 X-61.285097 Y-3.292641 E0.649652
G1 X-62.972518 Y-2.923794 E0.803608
G1 X-63.528840 Y-2.578077 E0.861989
G1 X-64.579571 Y-1.183402 E1.017631
G1 X-64.737400 Y0.632876 E1.180131
G1 X-63.915797 Y2.239459 E1.340969
G1 X-62.377394 Y3.175427 E1.501475
G1 X-60.569072 Y3.159784 E1.662662
G1 X-59.054201 Y2.206493 E1.822197
G0 X-59.425099 Y1.872766
G1 X-58.746265 Y0.489740 E1.959519
G1 X-58.903359 Y-1.042624 E2.096818
G1 X-59.856803 Y-2.265670 E2.235043
G1 X-61.317983 Y-2.794111 E2.373537
G1 X-62.789303 Y-2.472510 E2.507776
G1 X-63.199324 Y-2.217719 E2.550804
G1 X-64.113290 Y-1.004621 E2.686185
G1 X-64.247267 Y0.537059 E2.824117
G1 X-63.550288 Y1.899970 E2.960560
G1 X-62.244782 Y2.694254 E3.096768
G1 X-60.709452 Y2.680982 E3.233621
G1 X-59.425099 Y1.872766 E3.368879
G0 X-57.763166 Y0.665580
G1 X-57.976526 Y-1.415175 E3.555315
G1 X-59.269949 Y-3.074300 E3.742825
G1 X-61.252209 Y-3.791170 E3.930708
G1 X-63.155731 Y-3.375078 E4.104381
G1 X-63.858337 Y-2.938447 E4.178114
G1 X-64.624339 Y-1.921710 E4.291579
G1 X-64.471099 Y-3.140247 E4.401046
G1 X-63.388413 Y-5.941599 E4.668738
G1 X-63.223463 Y-6.242711 E4.699340
G1 X-61.409845 Y-8.635725 E4.966972
G1 X-59.130877 Y-10.484208 E5.228521
G1 X-56.451630 Y-11.741626 E5.492322
G1 X-53.519779 Y-12.320605 E5.758693
G1 X-40.783080 Y-12.256698 E6.893964
G1 X-39.458713 Y-11.682410 E7.022629
G1 X-38.477403 Y-10.649154 E7.149642
G1 X-37.964816 Y-9.284661 E7.279561
G1 X-38.000651 Y9.134349 E8.921301
G1 X-38.563377 Y10.456914 E9.049412
G1 X-39.604426 Y11.455464 E9.177988
G1 X-40.990758 Y11.972732 E9.309877
G1 X-54.149662 Y11.930506 E10.482773
G1 X-56.992697 Y11.223577 E10.743896
G1 X-59.591195 Y9.852914 E11.005754
G1 X-61.794312 Y7.896718 E11.268362
G1 X-63.463201 Y5.463272 E11.531369
G1 X-64.496310 Y2.706131 E11.793807
G1 X-64.580038 Y1.994930 E11.857636
G1 X-64.281354 Y2.578853 E11.916096
G1 X-62.510009 Y3.656599 E12.100908
G1 X-60.428694 Y3.638586 E12.286429
G1 X-58.683344 Y2.540247 E12.470237
G1 X-57.763166 Y0.665580 E12.656375
G0 X-64.966226 Y2.820018
G1 X-65.323179 Y-0.212300 E12.928520
G1 X-64.940004 Y-3.258516 E13.202177
G1 X-63.824665 Y-6.144321 E13.477939
G1 X-63.627387 Y-6.504445 E13.514539
G1 X-61.757315 Y-8.971936 E13.790501
G1 X-59.387790 Y-10.893868 E14.062443
G1 X-56.602318 Y-12.201139 E14.336703
G1 X-53.565528 Y-12.800841 E14.612607
G1 X-40.682337 Y-12.736198 E15.760936
G1 X-39.178006 Y-12.083872 E15.907085
G1 X-38.062293 Y-10.909087 E16.051495
G1 X-37.484643 Y-9.371382 E16.197906
G1 X-37.520842 Y9.232664 E17.856139
G1 X-38.160182 Y10.735297 E18.001692
G1 X-39.343737 Y11.870525 E18.147868
G1 X-40.904883 Y12.453012 E18.296388
G1 X-54.209202 Y12.410317 E19.482244
G1 X-57.165091 Y11.675327 E19.753734
G1 X-59.866488 Y10.250385 E20.025961
G1 X-62.156941 Y8.216641 E20.298979
G1 X-63.892151 Y5.686492 E20.572438
G1 X-64.966226 Y2.820018 E20.845282
G0 X-65.436130 Y2.933935
G1 X-65.806720 Y-0.214225 E21.127824
G1 X-65.408915 Y-3.376739 E21.411929
G1 X-64.260918 Y-6.347042 E21.695766
G1 X-64.031317 Y-6.766167 E21.738362
G1 X-62.104785 Y-9.308147 E22.022654
G1 X-59.644704 Y-11.303529 E22.304989
G1 X-56.753006 Y-12.660652 E22.589708
G1 X-53.611278 Y-13.281076 E22.875147
G1 X-40.581594 Y-13.215699 E24.036533
G1 X-38.897300 Y-12.485335 E24.200166
G1 X-37.647183 Y-11.169022 E24.361972
G1 X-37.004471 Y-9.458103 E24.524876
G1 X-37.041032 Y9.330980 E26.199602
G1 X-37.756986 Y11.013679 E26.362597
G1 X-39.083048 Y12.285585 E26.526373
G1 X-40.819008 Y12.933293 E26.691523
G1 X-54.268742 Y12.890129 E27.890341
G1 X-57.337485 Y12.127076 E28.172196
G1 X-60.141782 Y10.647857 E28.454792
G1 X-62.519570 Y8.536565 E28.738221
G1 X-64.321100 Y5.909712 E29.022132
G1 X-65.436130 Y2.933935 E29.305379
G0 X-63.087997 Y5.586027
G1 X-62.072083 Y3.892838 E29.481379
G0 X-62.706129 Y3.818209
G1 X-63.393843 Y4.964399 E29.600521
G0 X-63.654799 Y4.267957
G1 X-63.203424 Y3.515664 E29.678718
G0 X-63.700720 Y3.213119
G1 X-63.915756 Y3.571514 E29.715972
G0 X-61.389712 Y3.886924
G1 X-62.725935 Y6.113961 E29.947463
G0 X-62.363873 Y6.641895
G1 X-60.707341 Y3.881010 E30.234446
G0 X-59.825445 Y3.542554
G1 X-62.001811 Y7.169829 E30.611485
G0 X-61.639749 Y7.697763
G1 X-58.734816 Y2.856209 E31.114744
G0 X-57.834720 Y1.356048
G1 X-49.783974 Y-12.061862 E32.509479
G0 X-49.107189 Y-12.058466
G1 X-61.202837 Y8.100948 E34.604964
G0 X-60.759960 Y8.494190
G1 X-48.430404 Y-12.055070 E36.740973
G0 X-47.753619 Y-12.051674
G1 X-60.317082 Y8.887433 E38.917504
G0 X-59.874206 Y9.280675
G1 X-47.076835 Y-12.048278 E41.134557
G0 X-46.400049 Y-12.044882
G1 X-59.427673 Y9.667826 E43.391501
G0 X-58.912044 Y9.939814
G1 X-45.723265 Y-12.041485 E45.676363
G0 X-45.046480 Y-12.038089
G1 X-58.396414 Y10.211802 E47.989145
G0 X-57.880784 Y10.483789
G1 X-44.369695 Y-12.034693 E50.329845
G0 X-43.692910 Y-12.031297
G1 X-57.365154 Y10.755777 E52.698465
G0 X-56.841225 Y11.013932
G1 X-43.016126 Y-12.027901 E55.093565
G0 X-42.339341 Y-12.024505
G1 X-56.250529 Y11.160810 E57.503580
G0 X-55.659834 Y11.307690
G1 X-41.662556 Y-12.021109 E59.928509
G0 X-40.985771 Y-12.017713
G1 X-55.069139 Y11.454568 E62.368353
G0 X-54.478443 Y11.601446
G1 X-40.416015 Y-11.835936 E64.804569
G0 X-39.877344 Y-11.602349
G1 X-53.853626 Y11.691455 E67.225861
G0 X-53.176108 Y11.693630
G1 X-39.397957 Y-11.269957 E69.612828
G0 X-38.981956 Y-10.831920
G1 X-52.498591 Y11.695806 E71.954489
G0 X-51.821074 Y11.697981
G1 X-38.610174 Y-10.320187 E74.243184
G0 X-38.348814 Y-9.624414
G1 X-51.143557 Y11.700156 E76.459782
G0 X-50.466040 Y11.702332
G1 X-38.205870 Y-8.731285 E78.583770
G0 X-38.208079 Y-7.596231
G1 X-49.788523 Y11.704507 E80.589999
G0 X-49.111006 Y11.706682
G1 X-38.210289 Y-6.461177 E82.478471
G0 X-38.212500 Y-5.326123
G1 X-48.433488 Y11.708858 E84.249185
G0 X-47.755971 Y11.711033
G1 X-38.214709 Y-4.191070 E85.902141
G0 X-38.216919 Y-3.056016
G1 X-47.078454 Y11.713208 E87.437339
G0 X-46.400936 Y11.715384
G1 X-38.219129 Y-1.920961 E88.854779
G0 X-38.221338 Y-0.785908
G1 X-45.723419 Y11.717559 E90.154461
G0 X-45.045901 Y11.719734
G1 X-38.223549 Y0.349146 E91.336385
G0 X-38.225759 Y1.484200
G1 X-44.368384 Y11.721910 E92.400552
G0 X-43.690867 Y11.724085
G1 X-38.227968 Y2.619254 E93.346960
G0 X-38.230178 Y3.754308
G1 X-43.013350 Y11.726260 E94.175611
G0 X-42.335833 Y11.728436
G1 X-38.232388 Y4.889361 E94.886503
G0 X-38.234597 Y6.024416
G1 X-41.658315 Y11.730611 E95.479638
G0 X-40.965390 Y11.707108
G1 X-38.236808 Y7.159470 E95.952346
G0 X-38.239017 Y8.294523
G1 X-40.090777 Y11.380790 E96.273150
G0 X-38.786561 Y10.338467
G1 X-38.742693 Y10.265353 E96.280750
G0 X-57.606175 Y-0.156229
G1 X-50.460758 Y-12.065258 E97.518643
G0 X-51.137544 Y-12.068655
G1 X-57.705254 Y-1.122470 E98.656452
G0 X-57.975223 Y-1.803892
G1 X-51.814328 Y-12.072051 E99.723783
G0 X-52.491113 Y-12.075447
G1 X-58.358820 Y-2.295936 E100.740322
G0 X-58.742416 Y-2.787978
G1 X-53.167898 Y-12.078843 E101.706068
G0 X-53.892620 Y-12.002343
G1 X-59.127263 Y-3.277939 E102.612932
G0 X-59.685057 Y-3.479653
G1 X-54.662684 Y-11.850274 E103.483023
G0 X-55.432749 Y-11.698204
G1 X-60.242850 Y-3.681368 E104.316339
G0 X-60.800644 Y-3.883082
G1 X-56.202813 Y-11.546135 E105.112881
G0 X-57.108331 Y-11.168310
G1 X-61.407577 Y-4.002899 E105.857694
G0 X-62.188876 Y-3.832104
G1 X-58.053224 Y-10.724857 E106.574167
G0 X-58.998117 Y-10.281405
G1 X-62.970176 Y-3.661309 E107.262298
G0 X-63.945777 Y-3.166677
G1 X-60.318773 Y-9.211683 E107.890650
G0 X-62.234101 Y-7.150841
G1 X-63.441502 Y-5.138507 E108.099824
G0 X-62.814803 Y-3.003483 Z0.400000
G1 X-63.524229 Y-2.584542 E108.173260
G1 X-64.569471 Y-1.193125 E108.328375
G1 X-64.745467 Y0.583570 E108.487512
G1 X-63.952064 Y2.203135 E108.648260
G1 X-62.439058 Y3.152656 E108.807475
G1 X-60.665155 Y3.185926 E108.965616
G1 X-59.122736 Y2.277176 E109.125183
G1 X-58.281283 Y0.704594 E109.284156
G1 X-58.393976 Y-1.097946 E109.445135
G1 X-59.431200 Y-2.563850 E109.605195
G1 X-61.090509 Y-3.272924 E109.766032
G1 X-62.814803 Y-3.003483 E109.921588
G0 X-63.197954 Y-2.219770
G1 X-64.105037 Y-1.012204 E110.056205
G1 X-64.254347 Y0.494997 E110.191204
G1 X-63.581150 Y1.869208 E110.327599
G1 X-62.296815 Y2.675232 E110.462752
G1 X-60.791883 Y2.703467 E110.596914
G1 X-59.482438 Y1.931989 E110.732379
G1 X-58.768865 Y0.598423 E110.867190
G1 X-58.864532 Y-0.931945 E111.003862
G1 X-59.744622 Y-2.175786 E111.139675
G1 X-61.152462 Y-2.777411 E111.276137
G1 X-62.649809 Y-2.543441 E111.411219
G1 X-63.197954 Y-2.219770 E111.467959
G0 X-63.850712 Y-2.949190
G1 X-64.624045 Y-1.919679 E111.582727
G1 X-64.471665 Y-3.140295 E111.692368
G1 X-63.379076 Y-5.964196 E111.962253
G1 X-63.225641 Y-6.239950 E111.990381
G1 X-61.423449 Y-8.621953 E112.256615
G1 X-59.141852 Y-10.478074 E112.518776
G1 X-56.446748 Y-11.743508 E112.784159
G1 X-53.554168 Y-12.313016 E113.046933
G1 X-40.789663 Y-12.257983 E114.184678
G1 X-39.456549 Y-11.682804 E114.314091
G1 X-38.488151 Y-10.665969 E114.439250
G1 X-37.972674 Y-9.316371 E114.568019
G1 X-38.003364 Y9.144368 E116.213478
G1 X-38.570974 Y10.470698 E116.342068
G1 X-39.622941 Y11.467325 E116.471230
G1 X-41.012537 Y11.975661 E116.603116
G1 X-54.165047 Y11.928453 E117.775443
G1 X-57.008496 Y11.216217 E118.036717
G1 X-59.589383 Y9.855423 E118.296776
G1 X-61.807989 Y7.880652 E118.561516
G1 X-63.467140 Y5.453227 E118.823590
G1 X-64.496170 Y2.706067 E119.085067
G1 X-64.577215 Y2.018220 E119.146800
G1 X-64.323034 Y2.536948 E119.198288
G1 X-62.581303 Y3.630079 E119.381576
G1 X-60.538429 Y3.668386 E119.563695
G1 X-58.763038 Y2.622364 E119.747364
G1 X-57.793702 Y0.810768 E119.930499
G1 X-57.923419 Y-1.263945 E120.115785
G1 X-59.117778 Y-2.951912 E120.300092
G1 X-61.028554 Y-3.768436 E120.485303
G1 X-62.979682 Y-3.463542 E120.661323
G1 X-63.850712 Y-2.949190 E120.751486
G0 X-65.322202 Y-0.202785
G1 X-64.940639 Y-3.258449 E121.025961
G1 X-63.814715 Y-6.168471 E121.304077
G1 X-63.628695 Y-6.502786 E121.338178
G1 X-61.771286 Y-8.957756 E121.612568
G1 X-59.399118 Y-10.887556 E121.885136
G1 X-56.597352 Y-12.203071 E122.161022
G1 X-53.599942 Y-12.793218 E122.433319
G1 X-40.689540 Y-12.737556 E123.584069
G1 X-39.176476 Y-12.084735 E123.730950
G1 X-38.074109 Y-10.927222 E123.873424
G1 X-37.492524 Y-9.404521 E124.018709
G1 X-37.523527 Y9.243144 E125.680829
G1 X-38.168763 Y10.750861 E125.827005
G1 X-39.364866 Y11.884032 E125.973864
G1 X-40.928344 Y12.455969 E126.122253
G1 X-54.225097 Y12.408239 E127.307437
G1 X-57.181220 Y11.667781 E127.579064
G1 X-59.864908 Y10.252784 E127.849482
G1 X-62.171072 Y8.200077 E128.124670
G1 X-63.896240 Y5.676065 E128.397172
G1 X-64.966068 Y2.819984 E128.669015
G1 X-65.322202 Y-0.202785 E128.940306
G0 X-65.805719 Y-0.204469
G1 X-65.409618 Y-3.376555 E129.225239
G1 X-64.250353 Y-6.372748 E129.511591
G1 X-64.031759 Y-6.765606 E129.551663
G1 X-62.119122 Y-9.293559 E129.834211
G1 X-59.656384 Y-11.297039 E130.117185
G1 X-56.747956 Y-12.662634 E130.403574
G1 X-53.645716 Y-13.273420 E130.685394
G1 X-40.589417 Y-13.217130 E131.849148
G1 X-38.896404 Y-12.486667 E132.013498
G1 X-37.660069 Y-11.188476 E132.173287
G1 X-37.012375 Y-9.492673 E132.335089
G1 X-37.043691 Y9.341921 E134.013870
G1 X-37.766552 Y11.031024 E134.177632
G1 X-39.106788 Y12.300736 E134.342187
G1 X-40.844148 Y12.936277 E134.507079
G1 X-54.285147 Y12.888026 E135.705120
G1 X-57.353944 Y12.119346 E135.987100
G1 X-60.140432 Y10.650145 E136.267876
G1 X-62.534154 Y8.519501 E136.553512
G1 X-64.325340 Y5.898902 E136.836442
G1 X-65.435967 Y2.933901 E137.118653
G1 X-65.805719 Y-0.204469 E137.400319
G0 X-63.835476 Y3.785709
G1 X-50.643163 Y11.701098 E138.771604
G0 X-49.504980 Y11.705185
G1 X-62.562799 Y3.870493 E140.128909
G0 X-61.394956 Y3.892377
G1 X-48.366796 Y11.709272 E141.483131
G0 X-47.228614 Y11.713360
G1 X-60.353847 Y3.838221 E142.847443
G0 X-59.783021 Y3.501893
G1 X-46.090431 Y11.717447 E144.270729
G0 X-44.952248 Y11.721535
G1 X-59.212195 Y3.165565 E145.752990
G0 X-58.641370 Y2.829239
G1 X-43.814065 Y11.725622 E147.294225
G0 X-42.675882 Y11.729709
G1 X-58.336249 Y2.333488 E148.922054
G0 X-58.061306 Y1.819632
G1 X-41.537699 Y11.733796 E150.639613
G0 X-40.650104 Y11.587531
G1 X-57.786364 Y1.305775 E152.420854
G0 X-57.556062 Y0.765134
G1 X-39.947239 Y11.330427 E154.251216
G0 X-39.435174 Y10.958844
G1 X-57.600166 Y0.059848 E156.139390
G0 X-57.644271 Y-0.645437
G1 X-38.996476 Y10.543240 E158.077749
G0 X-38.659177 Y10.066797
G1 X-57.692561 Y-1.353233 E160.056188
G0 X-58.527269 Y-2.532881
G1 X-38.428023 Y9.526667 E162.145419
G0 X-38.243055 Y8.958825
G1 X-63.107014 Y-5.959550 E164.729922
G0 X-62.774322 Y-6.438758
G1 X-38.241927 Y8.280680 E167.279960
G0 X-38.240799 Y7.602533
G1 X-62.421079 Y-6.905634 E169.793397
G0 X-62.067835 Y-7.372511
G1 X-38.239671 Y6.924388 E172.270233
G0 X-38.238543 Y6.246243
G1 X-61.714592 Y-7.839387 E174.710469
G0 X-61.361348 Y-8.306264
G1 X-38.237414 Y5.568097 E177.114103
G0 X-38.236286 Y4.889952
G1 X-60.921317 Y-8.721067 E179.472116
G0 X-60.441080 Y-9.111748
G1 X-38.235158 Y4.211806 E181.780327
G0 X-38.234030 Y3.533660
G1 X-59.960842 Y-9.502428 E184.038737
G0 X-59.480604 Y-9.893107
G1 X-38.232902 Y2.855515 E186.247345
G0 X-38.231773 Y2.177369
G1 X-58.996243 Y-10.281313 E188.405723
G0 X-58.361548 Y-10.579319
G1 X-38.230645 Y1.499224 E190.498245
G0 X-38.229517 Y0.821078
G1 X-57.726855 Y-10.877325 E192.524911
G0 X-57.092161 Y-11.175331
G1 X-38.228388 Y0.142933 E194.485719
G0 X-38.227260 Y-0.535213
G1 X-56.457467 Y-11.473338 E196.380672
G0 X-55.635061 Y-11.658717
G1 X-38.226131 Y-1.213359 E198.190256
G0 X-38.225003 Y-1.891504
G1 X-54.783215 Y-11.826431 E199.911412
G0 X-53.931367 Y-11.994144
G1 X-38.223875 Y-2.569650 E201.544139
G0 X-38.222747 Y-3.247795
G1 X-52.926948 Y-12.070316 E203.072578
G0 X-51.787388 Y-12.065402
G1 X-38.221619 Y-3.925941 E204.482682
G0 X-38.220490 Y-4.604086
G1 X-50.647827 Y-12.060489 E205.774451
G0 X-49.508267 Y-12.055575
G1 X-38.219362 Y-5.282232 E206.947884
G0 X-38.218234 Y-5.960378
G1 X-48.368707 Y-12.050661 E208.002983
G0 X-47.229147 Y-12.045748
G1 X-38.217106 Y-6.638523 E208.939746
G0 X-38.215978 Y-7.316669
G1 X-46.089586 Y-12.040834 E209.758174
G0 X-44.950026 Y-12.035920
G1 X-38.214849 Y-7.994814 E210.458267
G0 X-38.213720 Y-8.672959
G1 X-43.810466 Y-12.031007 E211.040025
G0 X-42.670905 Y-12.026093
G1 X-38.251843 Y-9.374656 E211.499368
G0 X-38.588176 Y-10.255278
G1 X-41.531345 Y-12.021179 E211.805298
G0 X-60.999098 Y-4.015978
G1 X-63.333583 Y-5.416670 E212.047958
G0 X-63.546744 Y-4.865744
G1 X-61.896680 Y-3.875705 E212.219475
G0 X-62.794262 Y-3.735432
G1 X-63.759907 Y-4.314818 E212.319849
G0 X-63.973068 Y-3.763893
G1 X-63.462175 Y-3.457357 E212.372955
G0 X-64.025279 Y-3.116397
G1 X-64.186230 Y-3.212967 E212.389685
G0 X-63.507493 Y4.661323
G1 X-51.781345 Y11.697011 E213.608568
G0 X-52.919528 Y11.692924
G1 X-63.077311 Y5.598254 E214.664426
G0 X-62.290781 Y6.748995
G1 X-54.057712 Y11.688836 E215.520219
G0 X-55.945272 Y11.235122
G1 X-61.262856 Y8.044572 E216.072959
G0 X-62.384809 Y3.175443 Z0.600000
G1 X-60.570188 Y3.159877 E216.234707
G1 X-59.078689 Y2.227087 E216.391506
G1 X-58.275378 Y0.663528 E216.548188
G1 X-58.405563 Y-1.134945 E216.708910
G1 X-59.462620 Y-2.585095 E216.868861
G1 X-61.117947 Y-3.274768 E217.028698
G1 X-62.828796 Y-2.996426 E217.183196
G1 X-63.524585 Y-2.584066 E217.255287
G1 X-64.579049 Y-1.180374 E217.411771
G1 X-64.738993 Y0.615585 E217.572483
G1 X-63.931192 Y2.226089 E217.733077
G1 X-62.384809 Y3.175443 E217.894813
G0 X-62.251125 Y2.694279
G1 X-60.709826 Y2.681058 E218.032198
G1 X-59.445262 Y1.890204 E218.165139
G1 X-58.763851 Y0.563932 E218.298043
G1 X-58.874387 Y-0.963224 E218.434519
G1 X-59.771307 Y-2.193703 E218.570239
G1 X-61.176072 Y-2.778993 E218.705883
G1 X-62.662125 Y-2.537233 E218.840081
G1 X-63.197936 Y-2.219693 E218.895596
G1 X-64.113072 Y-1.001507 E219.031401
G1 X-64.248786 Y0.522284 E219.167758
G1 X-63.563484 Y1.888586 E219.304001
G1 X-62.251125 Y2.694279 E219.441260
G0 X-62.518492 Y3.656607
G1 X-60.430553 Y3.638697 E219.627371
