;FLAVOR:UltiGCode
;MATERIAL:6181
;TIME:3815
M140 S230
G0 X99.229807 Y93.816045 Z0.350000 F1500.000000
G1 X101.930371 Y92.005437 E0.477849
G1 X103.349292 Y90.038729 E0.834269
G1 X109.273068 Y87.645813 E1.773229
G1 X112.128679 Y87.451227 E2.193889
G1 X112.709650 Y87.043071 E2.298239
G1 X120.610162 Y86.663612 E3.460708
G1 X124.008427 Y88.333497 E4.017189
G1 X126.834787 Y88.311585 E4.432589
G1 X132.284088 Y95.512595 E5.759789
G1 X132.974282 Y95.816898 E5.870647
G1 X137.426763 Y99.731637 E6.741986
G1 X138.661014 Y102.541009 E7.192967
G1 X140.485352 Y104.969318 E7.639348
G1 X140.983457 Y112.779845 E8.789586
G1 X140.475348 Y113.905516 E8.971098
G1 X140.640862 Y114.475850 E9.058377
G1 X138.796850 Y122.341395 E10.245712
G1 X136.021991 Y125.139313 E10.824856
G1 X134.611388 Y127.628223 E11.245312
G1 X128.334924 Y131.072568 E12.297528
G1 X128.301196 Y131.182145 E12.314378
G1 X127.208552 Y133.179231 E12.648945
G1 X125.649579 Y136.402321 E13.175142
G1 X123.069552 Y138.037092 E13.624036
G1 X121.854841 Y139.753831 E13.933115
G1 X116.158902 Y142.239805 E14.846499
G1 X112.715789 Y142.583769 E15.355049
G1 X112.421455 Y142.780432 E15.407074
G1 X105.193773 Y143.474109 E16.474201
G1 X100.045016 Y141.347556 E17.292911
G1 X99.670381 Y141.045274 E17.363659
G1 X97.482137 Y140.359580 E17.700682
G1 X92.731964 Y134.794837 E18.775974
G1 X92.613919 Y134.449559 E18.829603
G1 X92.101129 Y134.225155 E18.911868
G1 X87.790287 Y130.541644 E19.745217
G1 X86.325754 Y127.461448 E20.246476
G1 X84.569411 Y125.073666 E20.682115
G1 X84.004607 Y117.431462 E21.808346
G1 X84.530849 Y116.198347 E22.005389
G1 X84.399362 Y115.758628 E22.072841
G1 X85.944423 Y108.336270 E23.187082
G1 X89.030343 Y104.741256 E23.883396
G1 X90.016720 Y102.969524 E24.181420
G1 X94.229697 Y100.157732 E24.925834
G1 X96.637879 Y99.090578 E25.312956
G1 X96.853885 Y98.454055 E25.411745
G1 X97.844755 Y96.709160 E25.706655
G1 X99.229807 Y93.816045 E26.178068
G0 X99.606091 Y94.141662
G1 X102.269232 Y92.356145 E26.649295
G1 X103.657512 Y90.431908 E26.998018
G1 X109.381967 Y88.119505 E27.905384
G1 X112.294990 Y87.921007 E28.334501
G1 X112.871702 Y87.515842 E28.438086
G1 X120.509554 Y87.148996 E29.561908
G1 X123.898625 Y88.814363 E30.116884
G1 X126.597477 Y88.793441 E30.513543
G1 X131.976484 Y95.901558 E31.823622
G1 X132.712928 Y96.226252 E31.941910
G1 X137.030034 Y100.021968 E32.786756
G1 X138.243894 Y102.784925 E33.230286
G1 X140.015451 Y105.142980 E33.663753
G1 X140.496829 Y112.691212 E34.775363
G1 X139.965034 Y113.869361 E34.965337
G1 X140.144812 Y114.488823 E35.060135
G1 X138.360496 Y122.099726 E36.209031
G1 X135.636018 Y124.846843 E36.777659
G1 X134.260992 Y127.272983 E37.187512
G1 X127.933385 Y130.745394 E38.248301
G1 X127.856600 Y130.994905 E38.286668
G1 X126.781688 Y132.959385 E38.615781
G1 X125.277065 Y136.070110 E39.123633
G1 X122.732514 Y137.682403 E39.566354
G1 X121.540259 Y139.367404 E39.869720
G1 X116.036079 Y141.769685 E40.752354
G1 X112.548784 Y142.118063 E41.267429
G1 X112.255278 Y142.314173 E41.319308
G1 X105.266714 Y142.984905 E42.351130
G1 X100.292413 Y140.930407 E43.142100
G1 X99.900861 Y140.614474 E43.216043
G1 X97.757508 Y139.942849 E43.546152
G1 X93.156522 Y134.552880 E44.587673
G1 X92.999748 Y134.094316 E44.658897
G1 X92.358708 Y133.813897 E44.761730
G1 X88.179864 Y130.243164 E45.569563
G1 X86.739573 Y127.213952 E46.062525
G1 X85.037925 Y124.900529 E46.484598
G1 X84.491905 Y117.512504 E47.573370
G1 X85.040465 Y116.227092 E47.778770
G1 X84.894048 Y115.737466 E47.853878
G1 X86.389155 Y108.555115 E48.932089
G1 X89.426144 Y105.017103 E49.617362
G1 X90.379674 Y103.304372 E49.905462
G1 X94.461861 Y100.579870 E50.626766
G1 X97.024792 Y99.444140 E51.038765
G1 X97.293793 Y98.651426 E51.161794
G1 X98.270442 Y96.931586 E51.452469
G1 X99.606091 Y94.141662 E51.907068
G0 X99.982376 Y94.467278
G1 X102.608092 Y92.706853 E52.371673
G1 X103.965731 Y90.825088 E52.712699
G1 X109.490865 Y88.593197 E53.588473
G1 X112.461299 Y88.390787 E54.026047
G1 X113.033752 Y87.988614 E54.128867
G1 X120.408947 Y87.634380 E55.214041
G1 X123.788824 Y89.295230 E55.767512
G1 X126.360167 Y89.275297 E56.145431
G1 X131.668880 Y96.290520 E57.438389
G1 X132.451570 Y96.635603 E57.564104
G1 X136.633305 Y100.312298 E58.382459
G1 X137.826773 Y103.028841 E58.818538
G1 X139.545550 Y105.316642 E59.239091
G1 X140.010202 Y112.602580 E60.312074
G1 X139.454719 Y113.833205 E60.510509
G1 X139.648762 Y114.501794 E60.612826
G1 X137.924140 Y121.858058 E61.723283
G1 X135.250045 Y124.554374 E62.281396
G1 X133.910593 Y126.917744 E62.680644
G1 X127.531848 Y130.418219 E63.750006
G1 X127.412108 Y130.807330 E63.809840
G1 X126.354828 Y132.739530 E64.133547
G1 X124.904550 Y135.737899 E64.623056
G1 X122.395473 Y137.327715 E65.059606
G1 X121.225676 Y138.980976 E65.357257
G1 X115.913257 Y141.299565 E66.209140
G1 X112.381779 Y141.652357 E66.730742
G1 X112.089102 Y141.847913 E66.782474
G1 X105.339655 Y142.495700 E67.778992
G1 X100.539810 Y140.513258 E68.542221
G1 X100.131341 Y140.183675 E68.619358
G1 X98.032878 Y139.526119 E68.942554
G1 X93.581080 Y134.310922 E69.950303
G1 X93.385586 Y133.739099 E70.039119
G1 X92.616297 Y133.402644 E70.162521
G1 X88.569444 Y129.944686 E70.944840
G1 X87.153392 Y126.966457 E71.429504
G1 X85.506440 Y124.727393 E71.838011
G1 X84.979203 Y117.593546 E72.889325
G1 X85.550082 Y116.255836 E73.103081
G1 X85.388734 Y115.716308 E73.185845
G1 X86.833888 Y108.773960 E74.228027
G1 X89.821945 Y105.292951 E74.902260
G1 X90.742628 Y103.639220 E75.180434
G1 X94.694025 Y101.002009 E75.878629
G1 X97.411707 Y99.797702 E76.315504
G1 X97.733699 Y98.848806 E76.462773
G1 X98.696128 Y97.154012 E76.749215
G1 X99.982376 Y94.467278 E77.187000
G0 X100.358661 Y94.792895
G1 X102.946953 Y93.057561 E77.644983
G1 X104.273951 Y91.218268 E77.978312
G1 X109.599764 Y89.066890 E78.822491
G1 X112.627608 Y88.860566 E79.268523
G1 X113.195803 Y88.461386 E79.370578
G1 X120.308339 Y88.119764 E80.417105
G1 X123.679023 Y89.776096 E80.969070
G1 X126.122856 Y89.757152 E81.328249
G1 X131.361276 Y96.679483 E82.604087
G1 X132.190214 Y97.044957 E82.737230
G1 X136.236576 Y100.602629 E83.529093
G1 X137.409653 Y103.272757 E83.957721
G1 X139.075650 Y105.490305 E84.365360
G1 X139.523575 Y112.513947 E85.399715
G1 X138.944405 Y113.797050 E85.606612
G1 X139.152711 Y114.514764 E85.716446
G1 X137.487785 Y121.616389 E86.788465
G1 X134.864073 Y124.261905 E87.336062
G1 X133.560195 Y126.562505 E87.724708
G1 X127.130311 Y130.091044 E88.802643
G1 X126.967637 Y130.619687 E88.883932
G1 X125.927968 Y132.519675 E89.202244
G1 X124.532036 Y135.405687 E89.673409
G1 X122.058433 Y136.973027 E90.103787
G1 X120.911094 Y138.594548 E90.395724
G1 X115.790435 Y140.829445 E91.216857
G1 X112.214774 Y141.186651 E91.744985
G1 X111.922926 Y141.381654 E91.796571
G1 X105.412597 Y142.006496 E92.757784
G1 X100.787205 Y140.096107 E93.493273
G1 X100.361822 Y139.752878 E93.573605
G1 X98.308249 Y139.109388 E93.889887
G1 X94.005638 Y134.068965 E94.863864
G1 X93.771428 Y133.383894 E94.970269
G1 X92.873893 Y132.991394 E95.114241
G1 X88.959021 Y129.646206 E95.871046
G1 X87.567210 Y126.718961 E96.347414
G1 X85.974954 Y124.554256 E96.742354
G1 X85.466501 Y117.674586 E97.756210
G1 X86.059698 Y116.284581 E97.978322
G1 X85.883422 Y115.695153 E98.068741
G1 X87.278621 Y108.992805 E99.074895
G1 X90.217747 Y105.568799 E99.738086
G1 X91.105582 Y103.974068 E100.006337
G1 X94.926188 Y101.424147 E100.681421
G1 X97.798620 Y100.151265 E101.143172
G1 X98.173604 Y99.046188 E101.314680
G1 X99.121815 Y97.376438 E101.596890
G1 X100.358661 Y94.792895 E102.017860
G0 X100.734945 Y95.118512
G1 X103.285811 Y93.408270 E102.469221
G1 X104.582169 Y91.611449 E102.794854
G1 X109.708664 Y89.540582 E103.607440
G1 X112.793918 Y89.330346 E104.061928
G1 X113.357853 Y88.934157 E104.163218
G1 X120.207732 Y88.605148 E105.171099
G1 X123.569221 Y90.256962 E105.721558
G1 X125.885545 Y90.239007 E106.061996
G1 X131.053672 Y97.068445 E107.320713
G1 X131.928858 Y97.454309 E107.461285
G1 X135.839847 Y100.892960 E108.226656
G1 X136.992533 Y103.516673 E108.647833
G1 X138.605749 Y105.663967 E109.042558
G1 X139.036948 Y112.425314 E110.038285
G1 X138.434091 Y113.760894 E110.253644
G1 X138.656660 Y114.527733 E110.370997
G1 X137.051429 Y121.374720 E111.404577
G1 X134.478100 Y123.969435 E111.941659
G1 X133.209798 Y126.207265 E112.319700
G1 X127.048964 Y129.588157 E113.352531
G1 X126.771040 Y129.627566 E113.393785
G1 X126.523166 Y130.432038 E113.517503
G1 X125.501108 Y132.299820 E113.830420
G1 X124.159521 Y135.073476 E114.283242
G1 X121.721392 Y136.618340 E114.707448
G1 X120.596512 Y138.208120 E114.993670
G1 X115.667613 Y140.359326 E115.784054
G1 X112.047769 Y140.720945 E116.318707
G1 X111.756750 Y140.915394 E116.370146
G1 X105.485538 Y141.517291 E117.296056
G1 X101.034600 Y139.678957 E118.003804
G1 X100.592302 Y139.322079 E118.087330
G1 X98.583620 Y138.692657 E118.396698
G1 X94.430196 Y133.827008 E119.336903
G1 X94.157273 Y133.028697 E119.460898
G1 X93.131492 Y132.580145 E119.625439
G1 X89.348600 Y129.347728 E120.356730
G1 X87.981029 Y126.471465 E120.824802
G1 X86.443468 Y124.381119 E121.206175
G1 X85.953799 Y117.755627 E122.182573
G1 X86.569314 Y116.313325 E122.413042
G1 X86.378110 Y115.674001 E122.511115
G1 X87.723353 Y109.211649 E123.481241
G1 X90.613548 Y105.844646 E124.133392
G1 X91.468536 Y104.308916 E124.391717
G1 X95.158350 Y101.846287 E125.043691
G1 X98.185534 Y100.504826 E125.530320
G1 X98.613508 Y99.243574 E125.726066
G1 X99.547501 Y97.598864 E126.004044
G1 X100.734945 Y95.118512 E126.408200
G0 X101.111230 Y95.444130
G1 X103.624669 Y93.758979 E126.852939
G1 X104.890387 Y92.004629 E127.170874
G1 X109.817565 Y90.014274 E127.951867
G1 X112.960229 Y89.800126 E128.414813
G1 X113.519905 Y89.406929 E128.515338
G1 X120.107124 Y89.090532 E129.484571
G1 X123.459420 Y90.737829 E130.033525
G1 X125.648234 Y90.720863 E130.355223
G1 X130.746068 Y97.457408 E131.596819
G1 X131.667500 Y97.863662 E131.744819
G1 X135.443118 Y101.183291 E132.483698
G1 X136.575413 Y103.760589 E132.897424
G1 X138.135848 Y105.837629 E133.279234
G1 X138.550321 Y112.336681 E134.236334
G1 X137.923777 Y113.724737 E134.460155
G1 X138.160608 Y114.540700 E134.585025
G1 X136.615074 Y121.133053 E135.580167
G1 X134.092127 Y123.676966 E136.106734
G1 X132.859399 Y125.852026 E136.474171
G1 X126.894843 Y129.125208 E137.474097
G1 X126.401747 Y129.195124 E137.547292
G1 X126.078706 Y130.244360 E137.708640
G1 X125.074248 Y132.079965 E138.016167
G1 X123.787007 Y134.741264 E138.450646
G1 X121.384352 Y136.263653 E138.868680
G1 X120.281930 Y137.821693 E139.149187
G1 X115.544791 Y139.889206 E139.908821
G1 X111.880764 Y140.255240 E140.450000
G1 X111.590574 Y140.449135 E140.501293
G1 X105.558480 Y141.028087 E141.391898
G1 X101.281996 Y139.261807 E142.071907
G1 X100.822784 Y138.891282 E142.158626
G1 X98.858990 Y138.275927 E142.461081
G1 X94.854754 Y133.585049 E143.367515
G1 X94.543119 Y132.673504 E143.509096
G1 X93.389097 Y132.168900 E143.694207
G1 X89.738178 Y129.049249 E144.399986
G1 X88.394847 Y126.223969 E144.859761
G1 X86.911982 Y124.207983 E145.227568
G1 X86.441097 Y117.836668 E146.166507
G1 X87.078930 Y116.342070 E146.405333
G1 X86.872799 Y115.652851 E146.511060
G1 X88.168086 Y109.430494 E147.445158
G1 X91.009349 Y106.120494 E148.086268
G1 X91.831489 Y104.643766 E148.334669
G1 X95.390515 Y102.268426 E148.963533
G1 X98.572447 Y100.858389 E149.475038
G1 X99.053411 Y99.440962 E149.695022
G1 X99.973188 Y97.821289 E149.968769
G1 X101.111230 Y95.444130 E150.356110
G0 X101.487516 Y95.769746
G1 X103.963527 Y94.109689 E150.794226
G1 X105.198605 Y92.397809 E151.104465
G1 X109.926465 Y90.487966 E151.853865
G1 X113.126538 Y90.269906 E152.325267
G1 X113.681955 Y89.879701 E152.425028
G1 X120.006517 Y89.575916 E153.355614
G1 X123.349619 Y91.218695 E153.903062
G1 X125.410923 Y91.202718 E154.206019
G1 X130.438465 Y97.846371 E155.430495
G1 X131.406141 Y98.273012 E155.585923
G1 X135.046389 Y101.473622 E156.298310
G1 X136.158293 Y104.004504 E156.704586
G1 X137.665947 Y106.011291 E157.073482
G1 X138.063694 Y112.248049 E157.991954
G1 X137.413463 Y113.688581 E158.224236
G1 X137.664556 Y114.553667 E158.356624
G1 X136.178718 Y120.891383 E159.313328
G1 X133.706155 Y123.384496 E159.829379
G1 X132.509001 Y125.496787 E160.186213
G1 X126.740722 Y128.662259 E161.153234
G1 X126.032547 Y128.762669 E161.258355
G1 X125.634249 Y130.056671 E161.457338
G1 X124.647389 Y131.860110 E161.759476
G1 X123.414493 Y134.409053 E162.175612
G1 X121.047311 Y135.908966 E162.587474
G1 X119.967348 Y137.435265 E162.862267
G1 X115.421969 Y139.419086 E163.591151
G1 X111.713759 Y139.789534 E164.138856
G1 X111.424398 Y139.982876 E164.190002
G1 X105.631421 Y140.538883 E165.045303
G1 X101.529393 Y138.844658 E165.697571
G1 X101.053268 Y138.460485 E165.787485
G1 X99.134361 Y137.859196 E166.083026
G1 X95.279312 Y133.343091 E166.955688
G1 X94.928966 Y132.318314 E167.114857
G1 X93.646701 Y131.757654 E167.320537
G1 X90.127757 Y128.750770 E168.000804
G1 X88.808666 Y125.976473 E168.452282
G1 X87.380497 Y124.034846 E168.806522
G1 X86.928396 Y117.917710 E169.708004
G1 X87.588545 Y116.370816 E169.955186
G1 X87.367488 Y115.631702 E170.068568
G1 X88.612818 Y109.649339 E170.966637
G1 X91.387789 Y106.432070 E171.591062
G1 X92.194443 Y104.978614 E171.835368
G1 X95.622679 Y102.690564 E172.441122
G1 X98.959362 Y101.211952 E172.977504
G1 X99.493314 Y99.638350 E173.221726
G1 X100.398874 Y98.043715 E173.491240
G1 X101.487516 Y95.769746 E173.861768
G0 X101.863801 Y96.095363
G1 X104.302386 Y94.460400 E174.293262
G1 X105.506824 Y92.790988 E174.595804
G1 X110.035365 Y90.961659 E175.313611
G1 X113.292847 Y90.739686 E175.793470
G1 X113.844006 Y90.352473 E175.892465
G1 X119.905909 Y90.061300 E176.784404
G1 X123.239817 Y91.699562 E177.330347
G1 X125.173611 Y91.684574 E177.614564
G1 X129.959347 Y98.008684 E178.780146
G1 X129.990705 Y98.173011 E178.804733
G1 X131.144790 Y98.682367 E178.990132
G1 X134.649660 Y101.763952 E179.676027
G1 X135.741172 Y104.248420 E180.074852
G1 X137.196046 Y106.184953 E180.430833
G1 X137.577066 Y112.159416 E181.310678
G1 X136.903149 Y113.652425 E181.551422
G1 X137.168504 Y114.566633 E181.691328
G1 X135.742364 Y120.649714 E182.609593
G1 X133.320182 Y123.092027 E183.115129
G1 X132.158605 Y125.141547 E183.461359
G1 X126.586601 Y128.199310 E184.395476
G1 X125.663375 Y128.330211 E184.532518
G1 X125.189793 Y129.868977 E184.769138
G1 X124.220529 Y131.640254 E185.065888
G1 X123.041979 Y134.076841 E185.463681
G1 X120.710270 Y135.554281 E185.869371
G1 X119.652766 Y137.048837 E186.138449
G1 X115.299147 Y138.948966 E186.836583
G1 X111.546755 Y139.323828 E187.390813
G1 X111.258222 Y139.516616 E187.441814
G1 X105.704363 Y140.049678 E188.261810
G1 X101.776790 Y138.427509 E188.886338
G1 X101.283748 Y138.029687 E188.979446
G1 X99.409731 Y137.442466 E189.268073
G1 X95.703869 Y133.101132 E190.106964
G1 X95.314814 Y131.963127 E190.283720
G1 X93.904308 Y131.346409 E190.509969
G1 X90.517335 Y128.452291 E191.164724
G1 X89.222485 Y125.728977 E191.607905
G1 X87.849011 Y123.861710 E191.948579
G1 X87.415694 Y117.998752 E192.812602
G1 X88.098161 Y116.399561 E193.068141
G1 X87.862177 Y115.610554 E193.189177
G1 X89.057551 Y109.868185 E194.051219
G1 X91.754061 Y106.742510 E194.657918
G1 X92.557397 Y105.313463 E194.898854
G1 X95.854842 Y103.112703 E195.481499
G1 X99.346276 Y101.565515 E196.042757
G1 X99.933219 Y99.835739 E196.311217
G1 X100.824560 Y98.266141 E196.576500
G1 X101.863801 Y96.095363 E196.930213
G0 X102.240086 Y96.420979
G1 X104.641244 Y94.811110 E197.355084
G1 X105.815042 Y93.184167 E197.649930
G1 X110.144265 Y91.435351 E198.336144
G1 X113.459157 Y91.209466 E198.824460
G1 X114.006056 Y90.825244 E198.922691
G1 X119.805303 Y90.546684 E199.775983
G1 X123.130016 Y92.180428 E200.320420
G1 X124.936299 Y92.166429 E200.585896
G1 X129.508880 Y98.208858 E201.699562
G1 X129.566497 Y98.510808 E201.744740
G1 X130.883434 Y99.091719 E201.956283
G1 X134.252931 Y102.054283 E202.615686
G1 X135.324052 Y104.492336 E203.007060
G1 X136.726145 Y106.358615 E203.350127
G1 X137.090440 Y112.070783 E204.191344
G1 X136.392835 Y113.616270 E204.440550
G1 X136.672452 Y114.579599 E204.587973
