;FLAVOR:UltiGCode
;MATERIAL:12592
;TIME:0
G0 X0.000000 Y0.000000 Z0.300000
;BRIM LAYER:0 Z:0.300000 HEIGHT:0.300000 OVERLAP:0.000000 WIDTH:0.000000
;PERIMETER:0 LAYER:0 Z:0.300000 HEIGHT:0.300000 OVERLAP:0.000000 WIDTH:0.480000
G10
G0 X1.830628 Y84.963790 F2400.000000
G11
G1 X14.522060 Y84.988140 F1500.000000 E1.582445
G1 X14.527524 Y84.967554 E1.585100
G1 X33.698273 Y84.998000 E3.975424
G1 X49.108711 Y85.039840 E5.896895
G1 X49.911750 Y84.863092 E5.999419
G1 X52.546626 Y84.564169 E6.330058
G1 X55.500558 Y84.549484 E6.698376
G1 X58.061025 Y84.799233 E7.019145
G1 X59.072483 Y84.983729 E7.147340
G1 X64.080427 Y84.995217 E7.771762
G1 X65.002156 Y84.763492 E7.890265
G1 X68.229010 Y84.510096 E8.293846
G1 X70.836952 Y84.666794 E8.619606
G1 X72.592259 Y84.978837 E8.841899
G1 X81.244996 Y84.997374 E9.920775
G1 X82.390271 Y84.723897 E10.067590
G1 X85.478880 Y84.514741 E10.453578
G1 X87.948446 Y84.665464 E10.762070
G1 X89.897303 Y85.015118 E11.008945
G1 X109.102287 Y85.005105 E13.403535
G1 X111.747696 Y84.640792 E13.736493
G1 X114.313967 Y84.521694 E14.056815
G1 X117.037641 Y84.666879 E14.396901
G1 X119.178202 Y85.001706 E14.667044
G1 X121.110652 Y84.996892 E14.907994
G1 X121.106493 Y84.977089 E14.910517
G1 X147.780882 Y85.035107 E18.236443
G1 X147.765428 Y84.962281 E18.245726
G1 X152.225302 Y84.972906 E18.801811
G1 X152.724179 Y84.863108 E18.865502
G1 X155.359126 Y84.564169 E19.196150
G1 X158.313074 Y84.549484 E19.564470
G1 X160.873540 Y84.799237 E19.885239
G1 X161.966460 Y85.008757 E20.023992
G1 X196.559075 Y85.015116 E24.337202
G1 X198.301060 Y84.713608 E24.557632
G1 X200.897597 Y84.543530 E24.882077
G1 X203.498688 Y84.580597 E25.206429
G1 X206.194484 Y84.918235 E25.545183
G1 X206.591466 Y85.015033 E25.596131
G1 X212.052941 Y85.015076 E26.277100
G1 X211.624446 Y86.693368 E26.493072
G1 X213.038535 Y87.406948 E26.690566
G1 X214.929379 Y88.636648 E26.971799
G1 X216.690752 Y90.089105 E27.256457
G1 X218.286028 Y91.742868 E27.542958
G1 X219.687973 Y93.580430 E27.831144
G1 X220.795383 Y95.446851 E28.101741
G1 X221.888888 Y97.802519 E28.425562
G1 X221.912891 Y97.908543 E28.439116
G1 X224.745673 Y97.915720 E28.792325
G1 X224.555356 Y115.964936 E31.042932
G1 X224.109114 Y118.902596 E31.413418
G1 X223.245007 Y121.864375 E31.798106
G1 X222.155842 Y124.154076 E32.114254
G1 X220.998409 Y126.058341 E32.392106
G1 X219.525354 Y127.924358 E32.688531
G1 X217.839208 Y129.593168 E32.984329
G1 X216.090033 Y130.948231 E33.260215
G1 X213.954487 Y132.283659 E33.574263
G1 X211.125609 Y133.477526 E33.957109
G1 X208.309785 Y134.248848 E34.321136
G1 X206.045301 Y134.563999 E34.606206
G1 X207.290773 Y140.404743 E35.350837
G1 X174.610454 Y140.404806 E39.425610
G1 X174.629284 Y140.455612 E39.432366
G1 X148.908534 Y140.416032 E42.639383
G1 X148.910335 Y140.450185 E42.643647
G1 X127.225978 Y140.399567 E45.347387
G1 X101.217114 Y140.404797 E48.590324
G1 X101.238756 Y140.506832 E48.603329
G1 X67.258460 Y140.424739 E52.840203
G1 X49.264770 Y140.414405 E55.083762
G1 X49.268436 Y140.430189 E55.085782
G1 X13.600149 Y140.373608 E59.533118
G1 X1.851418 Y85.061604 E66.583604
;PERIMETER:1 LAYER:0 Z:0.300000 HEIGHT:0.300000 OVERLAP:0.000000 WIDTH:0.480000
G0 X1.831841 Y84.483792 F2400.000000
G1 X14.041452 Y84.506858 F1500.000000 E68.105972
G1 X14.046960 Y84.486068 E68.108653
G1 X33.366976 Y84.517703 E70.517589
G1 X49.057100 Y84.559710 E72.473932
G1 X49.832892 Y84.388960 E72.572978
G1 X52.518303 Y84.084303 E72.909958
G1 X55.522722 Y84.069369 E73.284571
G1 X58.127511 Y84.323441 E73.610893
G1 X59.116442 Y84.503826 E73.736233
G1 X64.021558 Y84.515080 E74.347833
G1 X64.924304 Y84.288128 E74.463895
G1 X68.224600 Y84.028965 E74.876662
G1 X70.893541 Y84.189329 E75.210042
G1 X72.635096 Y84.498927 E75.430594
G1 X81.188991 Y84.517252 E76.497146
G1 X82.317809 Y84.247705 E76.641850
G1 X85.477282 Y84.033751 E77.036694
G1 X88.005646 Y84.188062 E77.352532
G1 X89.940022 Y84.535118 E77.597572
G1 X108.987012 Y84.535127 E79.972462
G1 X111.703853 Y84.162310 E80.314388
G1 X114.315618 Y84.041101 E80.640389
G1 X117.087635 Y84.188863 E80.986511
G1 X119.215905 Y84.521765 E81.255102
G1 X120.601090 Y84.515967 E81.427817
G1 X120.596951 Y84.495865 E81.430376
G1 X147.188014 Y84.553726 E84.745913
G1 X147.172515 Y84.480692 E84.755222
G1 X152.173739 Y84.492767 E85.378805
G1 X152.645313 Y84.388978 E85.439011
G1 X155.330803 Y84.084303 E85.776002
G1 X158.335237 Y84.069369 E86.150617
G1 X160.940028 Y84.323444 E86.476939
G1 X162.010517 Y84.528873 E86.612849
G1 X196.517843 Y84.535115 E90.915424
G1 X198.244288 Y84.236298 E91.133888
G1 X200.885313 Y84.063305 E91.463892
G1 X203.532030 Y84.101023 E91.793933
G1 X206.281461 Y84.445378 E92.139427
G1 X206.649126 Y84.535029 E92.186613
G1 X212.670900 Y84.535074 E92.937442
G1 X212.184912 Y86.438532 E93.182390
G1 X213.278196 Y86.990234 E93.335080
G1 X215.213824 Y88.249055 E93.622975
G1 X217.017228 Y89.736173 E93.914425
G1 X218.650793 Y91.429627 E94.207803
G1 X220.086529 Y93.311481 E94.502935
G1 X221.220063 Y95.221934 E94.779915
G1 X222.255922 Y97.430155 E95.084037
G1 X225.230753 Y97.436796 E95.454957
G1 X225.034975 Y116.003699 E97.770116
G1 X224.578864 Y119.006322 E98.148795
G1 X223.695011 Y122.035782 E98.542274
G1 X222.578760 Y124.382419 E98.866282
G1 X221.393344 Y126.332727 E99.150853
G1 X219.883893 Y128.244848 E99.454602
G1 X218.156178 Y129.954799 E99.757692
G1 X216.364949 Y131.342441 E100.040211
G1 X214.176462 Y132.710975 E100.362045
G1 X211.283011 Y133.932093 E100.753629
G1 X208.406672 Y134.719990 E101.125480
G1 X206.622326 Y134.968321 E101.350107
G1 X207.883924 Y140.884743 E102.104386
G1 X175.300304 Y140.884805 E106.167102
G1 X175.319733 Y140.937228 E106.174072
G1 X149.414896 Y140.897068 E109.404043
G1 X149.416721 Y140.931577 E109.408352
G1 X127.818847 Y140.880367 E112.101308
G1 X101.809629 Y140.884796 E115.344289
G1 X101.831612 Y140.988431 E115.357498
G1 X67.851048 Y140.905942 E119.594406
G1 X49.747891 Y140.895114 E121.851613
G1 X49.751557 Y140.911041 E121.853651
G1 X13.211080 Y140.852940 E126.409737
G1 X1.237565 Y84.482292 E133.595163
G1 X1.731842 Y84.483540 E133.656793
;PERIMETER:2 LAYER:0 Z:0.300000 HEIGHT:0.300000 OVERLAP:0.000000 WIDTH:0.480000
G0 X1.833055 Y84.003794 F2400.000000
G1 X13.560825 Y84.025576 F1500.000000 E135.119082
G1 X13.557431 Y84.006146 E135.121541
G1 X33.035686 Y84.030306 E137.550205
G1 X49.005489 Y84.079581 E139.541423
G1 X49.754032 Y83.914829 E139.636990
G1 X52.489981 Y83.604437 E139.980312
G1 X55.544886 Y83.589253 E140.361220
G1 X58.193988 Y83.847647 E140.693093
G1 X59.160401 Y84.023924 E140.815580
G1 X63.962690 Y84.034944 E141.414358
G1 X64.846451 Y83.812764 E141.527980
G1 X68.220190 Y83.547833 E141.949932
G1 X70.950129 Y83.711863 E142.290931
G1 X72.677933 Y84.019017 E142.509741
G1 X81.132987 Y84.037130 E143.563969
G1 X82.245349 Y83.771514 E143.706564
G1 X85.475685 Y83.552760 E144.110264
G1 X88.062848 Y83.710660 E144.433447
G1 X89.982741 Y84.055117 E144.676652
G1 X108.954233 Y84.055126 E147.042129
G1 X111.660008 Y83.683828 E147.382662
G1 X114.317268 Y83.560509 E147.714341
G1 X117.137630 Y83.710847 E148.066500
G1 X119.253607 Y84.041826 E148.333540
G1 X120.091548 Y84.035032 E148.438023
G1 X120.087418 Y84.014643 E148.440617
G1 X146.595144 Y84.072346 E151.745763
G1 X146.579601 Y83.999103 E151.755099
G1 X152.122175 Y84.012629 E152.446181
G1 X152.566446 Y83.914848 E152.502901
G1 X155.302481 Y83.604437 E152.846234
G1 X158.357400 Y83.589253 E153.227144
G1 X161.006513 Y83.847652 E153.559019
G1 X162.054569 Y84.048990 E153.692086
G1 X196.476612 Y84.055115 E157.984027
G1 X198.187517 Y83.758988 E158.200525
G1 X200.873030 Y83.583081 E158.536088
G1 X203.565373 Y83.621449 E158.871819
G1 X206.538954 Y84.004573 E159.245647
G1 X206.706515 Y84.054928 E159.267462
G1 X213.288858 Y84.055073 E160.088187
G1 X212.745378 Y86.183694 E160.362110
G1 X213.517843 Y86.573512 E160.469995
G1 X215.498269 Y87.861462 E160.764552
G1 X217.343705 Y89.383241 E161.062795
G1 X219.015558 Y91.116387 E161.363049
G1 X220.485084 Y93.042533 E161.665127
G1 X221.644743 Y94.997016 E161.948491
G1 X222.561260 Y96.950826 E162.217575
G1 X225.715832 Y96.957871 E162.610907
G1 X225.514594 Y116.042461 E164.990617
G1 X225.048615 Y119.110046 E165.377489
G1 X224.145014 Y122.207190 E165.779759
G1 X223.001678 Y124.610767 E166.111629
G1 X221.788281 Y126.607111 E166.402917
G1 X220.242432 Y128.565337 E166.713991
G1 X218.473148 Y130.316430 E167.024373
G1 X216.639865 Y131.736652 E167.313525
G1 X214.398436 Y133.138291 E167.643144
G1 X211.440414 Y134.386659 E168.043467
G1 X208.503561 Y135.191132 E168.423141
G1 X207.199359 Y135.372642 E168.587323
G1 X208.477074 Y141.364743 E169.351250
G1 X175.990155 Y141.364803 E173.401909
G1 X176.010184 Y141.418841 E173.409094
G1 X149.921255 Y141.378108 E176.662018
G1 X149.923104 Y141.412969 E176.666371
G1 X128.411923 Y141.361168 E179.348518
G1 X102.402146 Y141.364796 E182.591569
G1 X102.424468 Y141.470030 E182.604982
G1 X68.443690 Y141.387145 E186.841916
G1 X50.231027 Y141.375823 E189.112778
G1 X50.234693 Y141.391893 E189.114833
G1 X12.822012 Y141.332272 E193.779670
G1 X0.644502 Y84.000792 E201.087569
G1 X1.733055 Y84.003541 E201.223297
;WALL LAYER:0 Z:0.300000 HEIGHT:0.300000 OVERLAP:0.200000 WIDTH:0.480000
;PERIMETER:1 LAYER:0 Z:0.300000 HEIGHT:0.300000 OVERLAP:0.200000 WIDTH:0.300000
G10
G0 X65.468559 Y102.409388 F1800.000000
G11
G1 X65.714154 Y101.814849 F600.000000 E201.271251
G1 X66.039493 Y101.363259 E201.312743
G1 X66.444931 Y101.014668 E201.352604
G1 X66.952382 Y100.760819 E201.394903
G1 X67.595563 Y100.599079 E201.444344
G1 X68.375942 Y100.537777 E201.502700
G1 X68.951600 Y100.572349 E201.545692
G1 X69.504795 Y100.670673 E201.587578
G1 X70.027112 Y100.831475 E201.628319
G1 X70.523057 Y101.055341 E201.668884
G1 X70.992023 Y101.341661 E201.709845
G1 X71.444439 Y101.708110 E201.753248
G1 X72.721515 Y103.075893 E201.892751
G1 X73.730213 Y102.571601 E201.976822
G1 X73.432154 Y101.006742 E202.095577
G1 X76.514854 Y101.013742 E202.325389
G1 X81.489753 Y124.464932 E204.112549
G1 X77.857465 Y124.455231 E204.383332
G1 X75.970306 Y115.641800 E205.055255
G1 X74.799546 Y115.602251 E205.142583
G1 X74.439773 Y116.860437 E205.240139
G1 X74.202475 Y117.379134 E205.282661
G1 X73.917367 Y117.798620 E205.320473
G1 X73.586752 Y118.128602 E205.355295
G1 X73.202757 Y118.382813 E205.389626
G1 X72.750888 Y118.568561 E205.426047
G1 X72.216833 Y118.684217 E205.466783
G1 X71.602891 Y118.722601 E205.512641
G1 X70.761858 Y118.657180 E205.575529
G1 X70.020540 Y118.429211 E205.633347
G1 X69.397989 Y118.081147 E205.686518
G1 X68.825024 Y117.568599 E205.743829
G1 X68.302041 Y116.903203 E205.806921
G1 X67.839892 Y116.042289 E205.879764
G1 X67.283871 Y114.611503 E205.994198
G1 X66.725292 Y112.759471 E206.138407
G1 X66.055243 Y110.107214 E206.342342
G1 X65.662816 Y108.109088 E206.494145
G1 X65.330954 Y105.620005 E206.681345
G1 X65.242919 Y104.097983 E206.794999
G1 X65.305018 Y103.166286 E206.864610
G1 X65.457998 Y102.458260 E206.918610
;PERIMETER:0 LAYER:0 Z:0.300000 HEIGHT:0.300000 OVERLAP:0.200000 WIDTH:0.600000
G0 X65.052648 Y102.237580 F1800.000000
G1 X65.318321 Y101.594437 F600.000000 E207.033112
G1 X65.705647 Y101.056821 E207.142144
G1 X66.193843 Y100.637097 E207.248084
G1 X66.795051 Y100.336364 E207.358698
G1 X67.522593 Y100.153421 E207.482141
G1 X68.371812 Y100.086716 E207.622309
G1 X69.004672 Y100.124726 E207.726633
G1 X69.610800 Y100.232461 E207.827934
G1 X70.186546 Y100.409718 E207.927060
G1 X70.733716 Y100.656713 E208.025845
G1 X71.252059 Y100.973183 E208.125778
G1 X71.752017 Y101.378146 E208.231647
G1 X72.820981 Y102.523033 E208.489388
G1 X73.224324 Y102.321430 E208.563586
G1 X72.888084 Y100.555488 E208.859390
G1 X76.879806 Y100.564576 E209.516224
G1 X82.045547 Y124.916419 E213.612452
G1 X77.493404 Y124.904260 E214.361504
G1 X75.603864 Y116.079681 E215.846491
G1 X75.135738 Y116.063860 E215.923564
G1 X74.863113 Y117.016751 E216.086652
G1 X74.595917 Y117.600808 E216.192338
G1 X74.265479 Y118.086975 E216.289065
G1 X73.872688 Y118.478995 E216.380380
G1 X73.414443 Y118.782344 E216.470809
G1 X72.885042 Y118.999948 E216.564993
G1 X72.278804 Y119.131225 E216.667061
G1 X71.603466 Y119.183462 E216.778518
G1 X70.659727 Y119.097889 E216.934447
G1 X69.844119 Y118.846137 E217.074902
G1 X69.134978 Y118.449655 E217.208590
G1 X68.495583 Y117.877671 E217.349756
G1 X67.924050 Y117.150499 E217.501946
G1 X67.430401 Y116.230896 E217.673689
G1 X66.858089 Y114.758185 E217.933677
G1 X66.291510 Y112.879629 E218.256544
G1 X65.615999 Y110.205750 E218.710351
G1 X65.218589 Y108.182253 E219.049676
G1 X64.882677 Y105.662786 E219.467919
G1 X64.792053 Y104.095999 E219.726163
G1 X64.858206 Y103.103458 E219.889846
G1 X65.035201 Y102.284305 E220.027747
;PERIMETER:1 LAYER:0 Z:0.300000 HEIGHT:0.300000 OVERLAP:0.200000 WIDTH:0.300000
G0 X69.030093 Y104.234708 F1800.000000
G1 X68.893240 Y105.170370 F600.000000 E220.098242
G1 X69.003449 Y106.416988 E220.191538
G1 X69.414087 Y108.458477 E220.346777
G1 X70.394864 Y112.616424 E220.665253
G1 X70.755935 Y113.807959 E220.758069
G1 X71.110503 Y114.609817 E220.823429
G1 X72.915570 Y115.897672 E220.988733
G1 X74.008117 Y115.681586 E221.071759
G1 X74.721793 Y115.140494 E221.138525
G1 X75.104401 Y114.327621 E221.205501
G1 X75.224868 Y113.396989 E221.275457
G1 X75.122801 Y112.158145 E221.368124
G1 X74.678628 Y109.849565 E221.543382
G1 X73.918115 Y106.288453 E221.814845
G1 X73.586874 Y105.121374 E221.905286
G1 X73.169996 Y104.091884 E221.988086
G1 X72.316636 Y103.101782 E222.085529
G1 X71.094528 Y102.773278 E222.179870
G1 X70.146990 Y102.942848 E222.251630
G1 X69.418723 Y103.460837 E222.318253
G1 X69.052529 Y104.190024 E222.379083
;PERIMETER:0 LAYER:0 Z:0.300000 HEIGHT:0.300000 OVERLAP:0.200000 WIDTH:0.600000
G0 X69.454425 Y104.392461 F1800.000000
G1 X69.345967 Y105.181316 F600.000000 E222.510109
G1 X69.449512 Y106.352603 E222.703594
G1 X69.853775 Y108.362400 E223.040928
G1 X70.829613 Y112.499412 E223.740349
G1 X71.178617 Y113.651126 E223.938372
G1 X71.472195 Y114.315061 E224.057826
G1 X73.018788 Y115.418529 E224.370451
G1 X73.818921 Y115.260291 E224.504661
G1 X74.361713 Y114.848789 E224.616743
G1 X74.667168 Y114.199894 E224.734756
G1 X74.772475 Y113.386489 E224.869718
G1 X74.676219 Y112.218147 E225.062618
G1 X74.238339 Y109.943222 E225.443825
G1 X73.481186 Y106.397133 E226.040482
G1 X73.160626 Y105.267687 E226.233672
G1 X72.780731 Y104.329523 E226.400222
G1 X72.066164 Y103.500441 E226.580324
G1 X71.074855 Y103.233960 E226.749234
G1 X70.325633 Y103.368024 E226.874475
G1 X69.770720 Y103.762686 E226.986524
G1 X69.476861 Y104.347777 E227.094260
;WALL LAYER:0 Z:0.300000 HEIGHT:0.300000 OVERLAP:0.200000 WIDTH:0.600000
;PERIMETER:1 LAYER:0 Z:0.300000 HEIGHT:0.300000 OVERLAP:0.200000 WIDTH:0.300000
G10
G0 X128.164300 Y104.372097 F1800.000000
G11
G1 X128.165695 Y101.006375 F600.000000 E227.345171
G1 X133.019052 Y101.014235 E227.706982
G1 X136.802577 Y113.182242 E228.656931
G1 X137.607553 Y116.341201 E228.899953
G1 X139.213254 Y116.248852 E229.019853
G1 X138.875138 Y114.270331 E229.169488
G1 X138.078924 Y101.002594 E230.160359
G1 X142.955396 Y101.013926 E230.523895
G1 X151.629982 Y124.415097 E232.384423
G1 X147.634616 Y124.406042 E232.682273
G1 X143.811534 Y111.942097 E233.654171
G1 X142.402810 Y106.794364 E234.052038
G1 X140.954632 Y106.949584 E234.160616
G1 X141.224514 Y111.091392 E234.470037
G1 X141.847601 Y124.413400 E235.464261
G1 X137.727495 Y124.405805 E235.771410
G1 X133.298870 Y110.163776 E236.883280
G1 X132.407598 Y106.831302 E237.140443
G1 X130.943102 Y106.900960 E237.249743
G1 X131.428971 Y112.945585 E237.701815
G1 X132.041493 Y124.417295 E238.558234
G1 X128.156023 Y124.406818 E238.847892
G1 X128.164279 Y104.422097 E240.337726
;PERIMETER:0 LAYER:0 Z:0.300000 HEIGHT:0.300000 OVERLAP:0.200000 WIDTH:0.600000
G0 X127.714300 Y104.371910 F1800.000000
G1 X127.715881 Y100.555640 F600.000000 E240.965688
G1 X133.350551 Y100.564774 E241.892867
G1 X137.235760 Y113.059811 E244.046009
G1 X137.952023 Y115.870634 E244.523307
G1 X138.687319 Y115.828365 E244.644498
G1 X138.427611 Y114.322302 E244.895977
G1 X137.601253 Y100.551481 E247.166023
