;FLAVOR:UltiGCode
;MATERIAL:2103
;TIME:0
G0 X0.000000 Y0.000000 Z0.300000
;BRIM LAYER:0 Z:0.300000 HEIGHT:0.300000 OVERLAP:0.000000 WIDTH:0.000000
;PERIMETER:0 LAYER:0 Z:0.300000 HEIGHT:0.300000 OVERLAP:0.000000 WIDTH:0.480000
G10
G0 X80.065915 Y87.484927 F2400.000000
G11
G1 X83.246465 Y84.973687 F1500.000000 E0.505281
G1 X86.862004 Y83.212159 E1.006746
G1 X90.847370 Y82.281904 E1.517022
G1 X96.260423 Y82.251369 E2.191964
G1 X139.049589 Y82.270936 E7.527168
G1 X142.992207 Y83.166983 E8.031292
G1 X146.628450 Y84.888688 E8.532934
G1 X149.848293 Y87.401419 E9.042184
G1 X152.482537 Y90.648953 E9.563570
G1 X154.263179 Y94.318298 E10.072110
G1 X155.207922 Y98.248376 E10.576095
G1 X155.240694 Y101.476172 E10.978576
G1 X155.229081 Y126.483594 E14.096648
G1 X154.362174 Y130.428129 E14.600213
G1 X152.631466 Y134.088434 E15.105047
G1 X150.158578 Y137.282584 E15.608719
G1 X146.981621 Y139.892952 E16.121405
G1 X143.362706 Y141.698443 E16.625671
G1 X139.621176 Y142.637559 E17.106658
G1 X137.340200 Y142.740429 E17.391352
G1 X114.188643 Y142.734983 E20.278024
G1 X111.974731 Y145.827359 E20.752227
G1 X110.497605 Y142.734141 E21.179626
G1 X90.950208 Y142.729518 E23.616910
G1 X87.008366 Y141.832637 E24.120963
G1 X83.372042 Y140.112236 E24.622545
G1 X80.151527 Y137.598012 E25.131975
G1 X77.516697 Y134.350566 E25.653398
G1 X75.798840 Y130.808486 E26.144245
G1 X74.761371 Y130.984385 E26.275449
G1 X74.760002 Y117.674620 E27.934988
G1 X74.683756 Y117.674486 E27.944495
G1 X74.764113 Y99.157264 E30.253352
G1 X74.759025 Y95.780345 E30.674406
G1 X75.383671 Y95.780304 E30.752291
G1 X75.728620 Y94.325901 E30.938665
G1 X77.501271 Y90.692275 E31.442765
G1 X80.003464 Y87.563028 E31.942336
;PERIMETER:1 LAYER:0 Z:0.300000 HEIGHT:0.300000 OVERLAP:0.000000 WIDTH:0.480000
G0 X79.768466 Y87.108201 F2400.000000
G1 X82.989671 Y84.564861 F1500.000000 E32.454076
G1 X86.700313 Y82.756997 E32.968731
G1 X90.790760 Y81.802214 E33.492462
G1 X96.259173 Y81.771367 E34.174306
G1 X139.103556 Y81.790960 E39.516395
G1 X143.149980 Y82.710599 E40.033792
G1 X146.881876 Y84.477595 E40.548631
G1 X150.186663 Y87.056615 E41.071315
G1 X152.890201 Y90.389577 E41.606416
G1 X154.717726 Y94.155534 E42.128346
G1 X155.687345 Y98.189093 E42.645601
G1 X155.720695 Y101.473926 E43.055194
G1 X155.709058 Y126.535828 E46.180058
G1 X154.819328 Y130.584207 E46.696881
G1 X153.043038 Y134.340912 E47.215010
G1 X150.505049 Y137.619150 E47.731942
G1 X147.244441 Y140.298251 E48.258127
G1 X143.530236 Y142.151282 E48.775671
G1 X139.691115 Y143.114893 E49.269204
G1 X137.350960 Y143.220432 E49.561284
G1 X114.435288 Y143.215041 E52.418544
G1 X111.891849 Y146.767702 E52.963330
G1 X110.194864 Y143.214067 E53.454346
G1 X90.896235 Y143.209506 E55.860612
G1 X86.850610 Y142.289011 E56.377936
G1 X83.118632 Y140.523354 E56.892712
G1 X79.813150 Y137.942796 E57.415583
G1 X77.109010 Y134.609926 E57.950722
G1 X75.524080 Y131.341930 E58.403587
G1 X74.281391 Y131.552626 E58.560744
G1 X74.280003 Y118.153821 E60.231386
G1 X74.201274 Y118.153683 E60.241202
G1 X74.285244 Y98.916669 E62.639808
G1 X74.278994 Y95.300351 E63.090712
G1 X75.004180 Y95.300311 E63.181133
G1 X75.273852 Y94.163350 E63.326829
G1 X77.093182 Y90.434031 E63.844204
G1 X79.697205 Y87.177438 E64.364106
;PERIMETER:2 LAYER:0 Z:0.300000 HEIGHT:0.300000 OVERLAP:0.000000 WIDTH:0.480000
G0 X79.471017 Y86.731475 F2400.000000
G1 X82.732872 Y84.156036 F1500.000000 E64.882304
G1 X86.538622 Y82.301836 E65.410150
G1 X90.734149 Y81.322525 E65.947335
G1 X96.257923 Y81.291366 E66.636082
G1 X139.157524 Y81.310985 E71.985055
G1 X143.307754 Y82.254216 E72.515726
G1 X147.135302 Y84.066503 E73.043761
G1 X150.525033 Y86.711812 E73.579880
G1 X153.297866 Y90.130201 E74.128695
G1 X155.172273 Y93.992770 E74.664015
G1 X156.166767 Y98.129810 E75.194540
G1 X156.200697 Y101.471679 E75.611245
G1 X156.189034 Y126.588063 E78.742903
G1 X155.276482 Y130.740285 E79.272982
G1 X153.454610 Y134.593390 E79.804408
G1 X150.851521 Y137.955717 E80.334598
G1 X147.507261 Y140.703551 E80.874283
G1 X143.697765 Y142.604121 E81.405105
G1 X139.761054 Y143.592228 E81.911183
G1 X137.361721 Y143.700436 E82.210650
G1 X114.681935 Y143.695099 E85.038498
G1 X111.808968 Y147.708045 E85.653866
G1 X109.892122 Y143.693993 E86.208500
G1 X90.842262 Y143.689494 E88.583748
G1 X86.692855 Y142.745385 E89.114343
G1 X82.865221 Y140.934473 E89.642313
G1 X79.474776 Y138.287582 E90.178624
G1 X76.701323 Y134.869284 E90.727480
G1 X75.249320 Y131.875375 E91.142363
G1 X73.801416 Y132.120867 E91.325473
G1 X73.800003 Y118.633024 E93.007216
G1 X73.718794 Y118.632882 E93.017342
G1 X73.806381 Y98.676075 E95.505697
G1 X73.798963 Y94.820358 E95.986451
G1 X74.624683 Y94.820317 E96.089407
G1 X74.819081 Y94.000814 E96.194423
G1 X76.685094 Y90.175785 E96.725076
G1 X79.392531 Y86.793444 E97.265275
;WALL LAYER:0 Z:0.300000 HEIGHT:0.300000 OVERLAP:0.200000 WIDTH:0.480000
;PERIMETER:1 LAYER:0 Z:0.300000 HEIGHT:0.300000 OVERLAP:0.200000 WIDTH:0.300000
G0 X91.411261 Y98.900418 F1800.000000
G1 X91.800920 Y98.592758 F600.000000 E97.302287
G1 X92.248208 Y98.374788 E97.339380
G1 X92.730813 Y98.251826 E97.376507
G1 X116.776882 Y98.248884 E99.169110
G1 X137.251812 Y98.260117 E100.695489
G1 X137.736185 Y98.370200 E100.732519
G1 X138.186035 Y98.583149 E100.769622
G1 X138.576197 Y98.887574 E100.806515
G1 X138.902131 Y99.289319 E100.845081
G1 X139.120987 Y99.740212 E100.882445
G1 X139.246826 Y100.220738 E100.919475
G1 X139.239887 Y124.743554 E102.747619
G1 X139.133295 Y125.228563 E102.784638
G1 X138.920989 Y125.677675 E102.821672
G1 X138.616870 Y126.070565 E102.858710
G1 X138.226610 Y126.391282 E102.896368
G1 X137.781974 Y126.613162 E102.933413
G1 X137.293834 Y126.746035 E102.971127
G1 X92.748205 Y126.739940 E106.291944
G1 X92.263797 Y126.629723 E106.328979
G1 X91.813895 Y126.416916 E106.366081
G1 X91.423795 Y126.112424 E106.402973
G1 X91.097870 Y125.710789 E106.441533
G1 X90.879077 Y125.259756 E106.478904
G1 X90.760435 Y124.766912 E106.516694
G1 X90.748313 Y116.783246 E107.111867
G1 X90.882975 Y116.695201 E107.123861
G1 X91.777142 Y116.320681 E107.196131
G1 X92.073027 Y116.293431 E107.218282
G1 X92.347548 Y116.342970 E107.239078
G1 X93.243982 Y116.781275 E107.313466
G1 X95.178194 Y118.169932 E107.490972
G1 X96.368069 Y118.703312 E107.588181
G1 X97.132421 Y118.790164 E107.645529
G1 X97.854042 Y118.660006 E107.700193
G1 X98.791438 Y118.253791 E107.776354
G1 X101.209803 Y116.666828 E107.991990
G1 X101.908581 Y116.315640 E108.050292
G1 X102.040253 Y116.298983 E108.060187
G1 X102.533138 Y116.761573 E108.110579
G1 X103.267130 Y117.977071 E108.216432
G1 X103.948613 Y118.670173 E108.288894
G1 X104.625117 Y118.808232 E108.340366
G1 X105.233199 Y118.587397 E108.388595
G1 X106.034396 Y117.739477 E108.475561
G1 X107.008359 Y116.397574 E108.599170
G1 X107.389059 Y116.800437 E108.640492
G1 X108.223794 Y118.011051 E108.750115
G1 X108.966640 Y118.676910 E108.824484
G1 X109.627550 Y118.806976 E108.874699
G1 X110.232992 Y118.587655 E108.922704
G1 X110.998199 Y117.777786 E109.005766
G1 X111.995769 Y116.384254 E109.133527
G1 X112.389064 Y116.800443 E109.176215
G1 X113.223794 Y118.011051 E109.285838
G1 X113.966643 Y118.676911 E109.360208
G1 X114.627550 Y118.806976 E109.410422
G1 X115.232992 Y118.587655 E109.458427
G1 X115.998199 Y117.777787 E109.541489
G1 X117.015033 Y116.357344 E109.671717
G1 X117.443023 Y116.727989 E109.713924
G1 X119.342517 Y119.067252 E109.938565
G1 X120.418210 Y118.342649 E110.035253
G1 X119.902612 Y116.731808 E110.161341
G1 X118.832852 Y114.346399 E110.356234
G1 X118.969987 Y114.200958 E110.371136
G1 X119.624403 Y114.449151 E110.423312
G1 X120.356306 Y114.498835 E110.478000
G1 X120.766993 Y114.404647 E110.509411
G1 X120.767414 Y114.907973 E110.546934
G1 X122.744710 Y115.436648 E110.699516
G1 X122.745011 Y114.438189 E110.773950
G1 X124.045151 Y114.437961 E110.870874
G1 X124.246950 Y114.480816 E110.886253
G1 X124.247360 Y115.692028 E110.976547
G1 X126.236266 Y115.692398 E111.124818
G1 X126.236329 Y115.488082 E111.140049
G1 X126.968825 Y115.487627 E111.194656
G1 X127.325430 Y114.342276 E111.284083
G1 X127.542541 Y114.339122 E111.300270
G1 X127.936314 Y115.487200 E111.390752
G1 X130.054108 Y115.487602 E111.548631
G1 X128.178254 Y110.250065 E111.963370
G1 X126.573587 Y110.249976 E112.082995
G1 X126.489534 Y110.506745 E112.103137
G1 X126.237021 Y110.466856 E112.122195
G1 X126.236649 Y110.250529 E112.138322
G1 X122.683819 Y110.249517 E112.403180
G1 X122.300392 Y110.179832 E112.432233
G1 X121.624588 Y110.280209 E112.483166
G1 X121.369302 Y110.467762 E112.506781
G1 X120.511691 Y110.227689 E112.573172
G1 X120.099613 Y110.185122 E112.604056
G1 X119.413106 Y110.266016 E112.655588
G1 X118.781695 Y110.565016 E112.707670
G1 X118.305162 Y111.059711 E112.758876
G1 X118.018233 Y111.698874 E112.811105
G1 X117.950832 Y112.500036 E112.871042
G1 X117.974213 Y112.570860 E112.876602
G1 X117.801645 Y112.681603 E112.891888
G1 X117.245722 Y112.272112 E112.943361
G1 X116.525210 Y112.275082 E112.997074
G1 X115.949838 Y112.678414 E113.049457
G1 X115.470108 Y113.351760 E113.111091
G1 X114.870397 Y114.323160 E113.196196
G1 X114.735940 Y114.501975 E113.212875
G1 X114.416011 Y113.832926 E113.268160
G1 X113.459365 Y111.199807 E113.477010
G1 X112.793115 Y110.070069 E113.574785
G1 X112.627141 Y109.993140 E113.588423
G1 X112.648369 Y109.894355 E113.595955
G1 X112.444635 Y109.787565 E113.613103
G1 X112.367102 Y109.871778 E113.621637
G1 X111.990013 Y109.698013 E113.652589
G1 X111.235439 Y110.106676 E113.716562
G1 X110.774218 Y110.928676 E113.786828
G1 X110.550436 Y110.870293 E113.804069
G1 X110.550017 Y106.710067 E114.114208
G1 X109.059389 Y106.710024 E114.225333
G1 X108.985657 Y106.517864 E114.240676
G1 X109.288508 Y106.245051 E114.271063
G1 X109.759626 Y105.610443 E114.329984
G1 X110.065910 Y104.872168 E114.389569
G1 X110.183379 Y104.081744 E114.449142
G1 X110.105765 Y103.286250 E114.508726
G1 X109.836636 Y102.533918 E114.568292
G1 X109.391858 Y101.865980 E114.628116
G1 X108.791213 Y101.324909 E114.688382
G1 X108.085046 Y100.950503 E114.747967
G1 X107.309218 Y100.758737 E114.807545
G1 X106.510068 Y100.761354 E114.867121
G1 X105.735380 Y100.957926 E114.926703
G1 X105.031778 Y101.337044 E114.986285
G1 X104.450013 Y101.867546 E115.044979
G1 X103.979536 Y102.565743 E115.107743
G1 X103.806320 Y102.552954 E115.120692
G1 X103.768151 Y102.473927 E115.127234
G1 X103.258254 Y101.897194 E115.184623
G1 X102.606865 Y101.481543 E115.242227
G1 X101.887184 Y101.269489 E115.298159
G1 X101.425288 Y101.236186 E115.332682
G1 X100.682282 Y101.344396 E115.388656
G1 X99.977051 Y101.663813 E115.446371
G1 X99.388748 Y102.165213 E115.503996
G1 X98.957639 Y102.816217 E115.562204
G1 X98.391877 Y102.207215 E115.624173
G1 X97.758163 Y101.862542 E115.677951
G1 X97.049908 Y101.731167 E115.731651
G1 X96.335709 Y101.831305 E115.785414
G1 X95.684900 Y102.149906 E115.839433
G1 X95.164640 Y102.665078 E115.894015
G1 X94.839689 Y103.308882 E115.947777
G1 X94.730742 Y104.021146 E116.001493
G1 X94.853018 Y104.731795 E116.055249
G1 X95.190013 Y105.368730 E116.108969
G1 X95.717312 Y105.872465 E116.163333
G1 X96.249895 Y106.122316 E116.207188
G1 X96.250000 Y108.168984 E116.359764
G1 X97.210022 Y108.169379 E116.431333
G1 X97.209976 Y109.549919 E116.534250
G1 X96.250200 Y109.550043 E116.605800
G1 X96.249959 Y112.009831 E116.789174
G1 X100.709973 Y112.010031 E117.121662
G1 X100.709985 Y112.535503 E117.160835
G1 X100.977442 Y112.564548 E117.180891
G1 X100.989345 Y112.511694 E117.184930
G1 X105.089852 Y112.510043 E117.490617
G1 X105.090002 Y106.721069 E117.922178
G1 X105.906150 Y107.102566 E117.989339
G1 X106.169679 Y107.154464 E118.009362
G1 X106.169990 Y112.677071 E118.421065
G1 X105.719498 Y113.181334 E118.471474
G1 X104.956170 Y114.415463 E118.579653
G1 X104.868864 Y114.521887 E118.589915
G1 X104.536015 Y114.778045 E118.621225
G1 X104.307064 Y114.726642 E118.638718
G1 X103.374191 Y114.261115 E118.716441
G1 X101.050360 Y112.788353 E118.921541
G1 X100.091347 Y112.357791 E118.999909
G1 X99.444319 Y112.277430 E119.048515
G1 X98.842575 Y112.410825 E119.094463
G1 X97.988575 Y113.117531 E119.177099
G1 X96.997200 Y114.685325 E119.315383
G1 X96.027258 Y113.267830 E119.443426
G1 X95.620668 Y112.830450 E119.487944
G1 X95.003527 Y112.429269 E119.542818
G1 X94.215237 Y112.169659 E119.604689
G1 X93.300807 Y112.050599 E119.673434
G1 X93.318860 Y111.770346 E119.694370
G1 X93.749699 Y111.769983 E119.726488
G1 X93.750000 Y101.716258 E120.475980
G1 X90.753882 Y101.711253 E120.699337
G1 X90.761365 Y100.233337 E120.809515
G1 X90.877914 Y99.741639 E120.847186
G1 X91.095689 Y99.295141 E120.884220
G1 X91.380035 Y98.939469 E120.918167
;PERIMETER:0 LAYER:0 Z:0.300000 HEIGHT:0.300000 OVERLAP:0.200000 WIDTH:0.600000
G0 X91.132402 Y98.547237 F1800.000000
G1 X91.560187 Y98.209474 F600.000000 E121.007855
G1 X92.096653 Y97.948059 E121.106052
G1 X92.677774 Y97.802111 E121.204645
G1 X116.801563 Y97.797302 E125.174182
G1 X137.302407 Y97.810140 E128.547569
G1 X137.884128 Y97.942348 E128.645732
G1 X138.423651 Y98.197763 E128.743955
G1 X138.893447 Y98.564342 E128.842009
G1 X139.284336 Y99.046177 E128.944103
G1 X139.547139 Y99.587651 E129.043141
G1 X139.696293 Y100.165192 E129.141293
G1 X139.689864 Y124.792523 E133.193688
G1 X139.561869 Y125.374919 E133.291807
G1 X139.306825 Y125.914403 E133.389999
G1 X138.941667 Y126.386123 E133.488159
G1 X138.472978 Y126.771271 E133.587980
G1 X137.939006 Y127.037713 E133.686175
G1 X137.359372 Y127.193545 E133.784940
G1 X92.697601 Y127.189928 E141.133975
G1 X92.115869 Y127.057568 E141.232145
G1 X91.576297 Y126.802327 E141.330363
G1 X91.106541 Y126.435640 E141.428423
G1 X90.715642 Y125.953912 E141.530504
G1 X90.452936 Y125.412316 E141.629554
G1 X90.302678 Y124.830794 E141.728385
G1 X90.300000 Y116.541498 E143.092378
G1 X90.670312 Y116.296315 E143.165458
G1 X91.667102 Y115.878901 E143.343279
G1 X92.092906 Y115.839702 E143.413641
G1 X92.489217 Y115.911288 E143.479908
G1 X93.475688 Y116.393659 E143.660598
G1 X95.403731 Y117.777889 E144.051152
G1 X96.488328 Y118.264077 E144.246732
G1 X97.117526 Y118.335578 E144.350932
G1 X97.720663 Y118.226805 E144.451778
G1 X98.576983 Y117.856682 E144.605283
G1 X100.981760 Y116.278015 E145.078633
G1 X101.777732 Y115.878578 E145.225176
G1 X102.064501 Y115.842354 E145.272738
G1 X102.267008 Y115.894046 E145.307129
G1 X102.886430 Y116.476074 E145.446990
G1 X103.625041 Y117.699238 E145.682109
G1 X104.173146 Y118.256694 E145.810749
G1 X104.590639 Y118.341931 E145.880864
G1 X104.979241 Y118.200883 E145.948890
G1 X105.687298 Y117.451604 E146.118524
G1 X106.651398 Y116.123292 E146.388599
G1 X107.048004 Y115.784471 E146.474433
G1 X107.739960 Y116.516590 E146.640195
G1 X108.563935 Y117.711618 E146.879047
G1 X109.174863 Y118.259236 E147.014049
G1 X109.591672 Y118.341294 E147.083951
G1 X109.979160 Y118.201003 E147.151762
G1 X110.650081 Y117.490994 E147.312502
G1 X111.620121 Y116.135922 E147.586721
G1 X112.049411 Y115.785958 E147.677859
G1 X112.739961 Y116.516590 E147.843284
G1 X113.563936 Y117.711621 E148.082137
G1 X114.174864 Y118.259236 E148.217138
G1 X114.591672 Y118.341294 E148.287040
G1 X114.979160 Y118.201003 E148.354851
G1 X115.650081 Y117.490994 E148.515591
G1 X116.620486 Y116.135413 E148.789913
G1 X117.043998 Y115.787256 E148.880127
G1 X117.767539 Y116.413739 E149.037612
G1 X119.432426 Y118.464096 E149.472214
G1 X119.886564 Y118.158211 E149.562312
G1 X119.481716 Y116.892993 E149.780901
G1 X118.344325 Y114.356772 E150.238277
G1 X117.863367 Y113.509112 E150.398647
G1 X117.485323 Y113.008075 E150.501927
G1 X117.098615 Y112.722778 E150.581003
G1 X116.668205 Y112.724480 E150.651827
G1 X116.271543 Y113.002440 E150.731527
G1 X115.846655 Y113.598765 E150.852011
G1 X115.372495 Y114.385844 E151.003210
G1 X114.658019 Y115.383834 E151.205174
G1 X114.000492 Y114.007065 E151.456230
G1 X113.050619 Y111.392569 E151.913955
G1 X112.476741 Y110.419461 E152.099849
G1 X112.005775 Y110.201247 E152.185260
G1 X111.564307 Y110.440291 E152.267869
G1 X110.966976 Y111.504813 E152.468727
G1 X109.948160 Y114.278063 E152.954881
G1 X109.387155 Y115.389977 E153.159814
G1 X108.775933 Y114.656900 E153.316869
