;FLAVOR:UltiGCode
;MATERIAL:18669
;TIME:16101
M140 S230
G0 X-25.159617 Y15.688011 Z0.200000 F900.000000
G1 X-25.159657 Y-42.294507 E5.168141
G1 X32.822901 Y-42.294548 E10.336285
G1 X32.822903 Y15.687970 E15.504426
G1 X-25.159617 Y15.688011 E20.672567
G0 X-25.639617 Y16.168012
G1 X-25.639657 Y-42.774507 E25.926275
G1 X33.302901 Y-42.774549 E31.179987
G1 X33.302903 Y16.167970 E36.433695
G1 X-25.639617 Y16.168012 E41.687404
G0 X-26.119617 Y16.648012
G1 X-26.119658 Y-43.254506 E47.026679
G1 X33.782902 Y-43.254549 E52.365959
G1 X33.782904 Y16.647969 E57.705234
G1 X-26.119617 Y16.648012 E63.044510
G0 X32.139390 Y15.447972
G1 X32.582903 Y14.708784 E63.121346
G0 X32.582903 Y13.577414
G1 X31.460567 Y15.447973 E63.315782
G0 X30.781744 Y15.447973
G1 X32.582903 Y12.446042 E63.627820
G0 X32.582903 Y11.314672
G1 X30.102921 Y15.447974 E64.057459
G0 X29.424099 Y15.447974
G1 X32.582903 Y10.183301 E64.604700
G0 X32.582903 Y9.051929
G1 X28.745275 Y15.447975 E65.269542
G0 X28.066453 Y15.447975
G1 X32.582903 Y7.920559 E66.051984
G0 X32.582903 Y6.789188
G1 X27.387630 Y15.447976 E66.952029
G0 X26.708808 Y15.447976
G1 X32.582903 Y5.657817 E67.969674
G0 X32.582903 Y4.526446
G1 X26.029984 Y15.447977 E69.104921
G0 X25.351162 Y15.447977
G1 X32.582903 Y3.395076 E70.357768
G0 X32.582903 Y2.263704
G1 X24.672339 Y15.447978 E71.728218
G0 X23.993516 Y15.447978
G1 X32.582903 Y1.132334 E73.216268
G0 X32.582903 Y0.000963
G1 X23.314693 Y15.447978 E74.821919
G0 X22.635871 Y15.447979
G1 X32.582903 Y-1.130408 E76.545172
G0 X32.582903 Y-2.261779
G1 X21.957048 Y15.447979 E78.386026
G0 X21.278225 Y15.447980
G1 X32.582903 Y-3.393149 E80.344481
G0 X32.582903 Y-4.524521
G1 X20.599402 Y15.447980 E82.420538
G0 X19.920580 Y15.447981
G1 X32.582903 Y-5.655891 E84.614196
G0 X32.582903 Y-6.787262
G1 X19.241756 Y15.447981 E86.925455
G0 X18.562934 Y15.447982
G1 X32.582903 Y-7.918633 E89.354315
G0 X32.582903 Y-9.050004
G1 X17.884111 Y15.447982 E91.900776
G0 X17.205289 Y15.447983
G1 X32.582903 Y-10.181375 E94.564839
G0 X32.582903 Y-11.312746
G1 X16.526465 Y15.447983 E97.346503
G0 X15.847643 Y15.447984
G1 X32.582903 Y-12.444117 E100.245768
G0 X32.582903 Y-13.575488
G1 X15.168820 Y15.447984 E103.262634
G0 X14.489997 Y15.447985
G1 X32.582903 Y-14.706859 E106.397102
G0 X32.582903 Y-15.838229
G1 X13.811174 Y15.447985 E109.649171
G0 X13.132352 Y15.447986
G1 X32.582903 Y-16.969601 E113.018841
G0 X32.582903 Y-18.100971
G1 X12.453529 Y15.447986 E116.506112
G0 X11.774706 Y15.447986
G1 X32.582903 Y-19.232342 E120.110985
G0 X32.582903 Y-20.363713
G1 X11.095883 Y15.447987 E123.833458
G0 X10.417061 Y15.447987
G1 X32.582903 Y-21.495084 E127.673533
G0 X32.582903 Y-22.626454
G1 X9.738237 Y15.447988 E131.631210
G0 X9.059415 Y15.447988
G1 X32.582903 Y-23.757826 E135.706487
G0 X32.582903 Y-24.889196
G1 X8.380592 Y15.447989 E139.899366
G0 X7.701770 Y15.447989
G1 X32.582903 Y-26.020567 E144.209846
G0 X32.582903 Y-27.151938
G1 X7.022946 Y15.447989 E148.637927
G0 X6.344124 Y15.447989
G1 X32.582903 Y-28.283309 E153.183609
G0 X32.582903 Y-29.414680
G1 X5.665301 Y15.447990 E157.846893
G0 X4.986478 Y15.447990
G1 X32.582903 Y-30.546051 E162.627778
G0 X32.582903 Y-31.677422
G1 X4.307655 Y15.447991 E167.526264
G0 X3.628833 Y15.447991
G1 X32.582903 Y-32.808792 E172.542352
G0 X32.582903 Y-33.940164
G1 X2.950010 Y15.447992 E177.676040
G0 X2.271187 Y15.447992
G1 X32.582903 Y-35.071534 E182.927330
G0 X32.582903 Y-36.202905
G1 X1.592364 Y15.447993 E188.296221
G0 X0.913542 Y15.447993
G1 X32.582903 Y-37.334276 E193.782713
G0 X32.582903 Y-38.465647
G1 X0.234718 Y15.447994 E199.386807
G0 X-0.444104 Y15.447994
G1 X32.582903 Y-39.597017 E205.108502
G0 X32.582903 Y-40.728389
G1 X-1.122927 Y15.447994 E210.947798
G0 X-1.801749 Y15.447995
G1 X32.582903 Y-41.859759 E216.904695
G0 X32.020953 Y-42.054547
G1 X-2.480573 Y15.447995 E222.881840
G0 X-3.159395 Y15.447996
G1 X31.342130 Y-42.054546 E228.858984
G0 X30.663307 Y-42.054546
G1 X-3.838218 Y15.447996 E234.836129
G0 X-4.517040 Y15.447997
G1 X29.984485 Y-42.054545 E240.813273
G0 X29.305662 Y-42.054545
G1 X-5.195864 Y15.447997 E246.790418
G0 X-5.874686 Y15.447998
G1 X28.626839 Y-42.054544 E252.767563
G0 X27.948016 Y-42.054544
G1 X-6.553509 Y15.447998 E258.744707
G0 X-7.232332 Y15.447999
G1 X27.269194 Y-42.054543 E264.721852
G0 X26.590370 Y-42.054543
G1 X-7.911155 Y15.447999 E270.698997
G0 X-8.589977 Y15.448000
G1 X25.911548 Y-42.054543 E276.676141
G0 X25.232725 Y-42.054543
G1 X-9.268800 Y15.448000 E282.653286
G0 X-9.947623 Y15.448001
G1 X24.553903 Y-42.054542 E288.630430
G0 X23.875079 Y-42.054542
G1 X-10.626446 Y15.448001 E294.607575
G0 X-11.305268 Y15.448002
G1 X23.196257 Y-42.054541 E300.584720
G0 X22.517434 Y-42.054541
G1 X-11.984092 Y15.448002 E306.561864
G0 X-12.662914 Y15.448002
G1 X21.838612 Y-42.054541 E312.539009
G0 X21.159788 Y-42.054540
G1 X-13.341737 Y15.448003 E318.516154
G0 X-14.020559 Y15.448003
G1 X20.480966 Y-42.054540 E324.493298
G0 X19.802143 Y-42.054539
G1 X-14.699383 Y15.448004 E330.470443
G0 X-15.378205 Y15.448004
G1 X19.123320 Y-42.054539 E336.447587
G0 X18.444497 Y-42.054538
G1 X-16.057028 Y15.448005 E342.424732
G0 X-16.735851 Y15.448005
G1 X17.765675 Y-42.054538 E348.401877
G0 X17.086852 Y-42.054537
G1 X-17.414674 Y15.448006 E354.379021
G0 X-18.093496 Y15.448006
G1 X16.408030 Y-42.054537 E360.356166
G0 X15.729207 Y-42.054536
G1 X-18.772319 Y15.448007 E366.333311
G0 X-19.451142 Y15.448007
G1 X15.050385 Y-42.054536 E372.310455
G0 X14.371561 Y-42.054535
G1 X-20.129965 Y15.448008 E378.287600
G0 X-20.808787 Y15.448008
G1 X13.692739 Y-42.054535 E384.264745
G0 X13.013916 Y-42.054534
G1 X-21.487611 Y15.448009 E390.241889
G0 X-22.166433 Y15.448009
G1 X12.335093 Y-42.054534 E396.219034
G0 X11.656270 Y-42.054533
G1 X-22.845256 Y15.448009 E402.196179
G0 X-23.524078 Y15.448009
G1 X10.977448 Y-42.054533 E408.173323
G0 X10.298625 Y-42.054532
G1 X-24.202902 Y15.448010 E414.150468
G0 X-24.881724 Y15.448010
G1 X9.619802 Y-42.054532 E420.127613
G0 X8.940979 Y-42.054532
G1 X-24.919619 Y14.379796 E425.993721
G0 X-24.919620 Y13.248426
G1 X8.262156 Y-42.054531 E431.742228
G0 X7.583334 Y-42.054531
G1 X-24.919620 Y12.117057 E437.373134
G0 X-24.919621 Y10.985687
G1 X6.904510 Y-42.054530 E442.886439
G0 X6.225688 Y-42.054530
G1 X-24.919621 Y9.854318 E448.282143
G0 X-24.919622 Y8.722948
G1 X5.546865 Y-42.054529 E453.560246
G0 X4.868042 Y-42.054529
G1 X-24.919622 Y7.591578 E458.720748
G0 X-24.919623 Y6.460209
G1 X4.189219 Y-42.054528 E463.763648
G0 X3.510397 Y-42.054528
G1 X-24.919624 Y5.328839 E468.688948
G0 X-24.919625 Y4.197470
G1 X2.831574 Y-42.054527 E473.496646
G0 X2.152751 Y-42.054527
G1 X-24.919626 Y3.066100 E478.186743
G0 X-24.919626 Y1.934731
G1 X1.473928 Y-42.054526 E482.759239
G0 X0.795106 Y-42.054526
G1 X-24.919627 Y0.803361 E487.214135
G0 X-24.919628 Y-0.328009
G1 X0.116282 Y-42.054525 E491.551428
G0 X-0.562540 Y-42.054525
G1 X-24.919629 Y-1.459378 E495.771121
G0 X-24.919630 Y-2.590747
G1 X-1.241363 Y-42.054524 E499.873213
G0 X-1.920185 Y-42.054524
G1 X-24.919630 Y-3.722116 E503.857704
G0 X-24.919631 Y-4.853486
G1 X-2.599009 Y-42.054524 E507.724593
G0 X-3.277831 Y-42.054523
G1 X-24.919632 Y-5.984856 E511.473882
G0 X-24.919633 Y-7.116225
G1 X-3.956654 Y-42.054523 E515.105569
G0 X-4.635477 Y-42.054523
G1 X-24.919633 Y-8.247595 E518.619656
G0 X-24.919634 Y-9.378964
G1 X-5.314300 Y-42.054523 E522.016141
G0 X-5.993122 Y-42.054522
G1 X-24.919635 Y-10.510334 E525.295025
G0 X-24.919636 Y-11.641704
G1 X-6.671945 Y-42.054522 E528.456308
G0 X-7.350768 Y-42.054521
G1 X-24.919637 Y-12.773073 E531.499990
G0 X-24.919637 Y-13.904443
G1 X-8.029591 Y-42.054521 E534.426071
G0 X-8.708413 Y-42.054520
G1 X-24.919638 Y-15.035812 E537.234550
G0 X-24.919639 Y-16.167182
G1 X-9.387237 Y-42.054520 E539.925429
G0 X-10.066059 Y-42.054519
G1 X-24.919640 Y-17.298552 E542.498706
G0 X-24.919641 Y-18.429921
G1 X-10.744882 Y-42.054519 E544.954383
G0 X-11.423704 Y-42.054518
G1 X-24.919641 Y-19.561291 E547.292458
G0 X-24.919641 Y-20.692660
G1 X-12.102528 Y-42.054518 E549.512932
G0 X-12.781350 Y-42.054517
G1 X-24.919642 Y-21.824030 E551.615805
G0 X-24.919643 Y-22.955400
G1 X-13.460173 Y-42.054517 E553.601077
G0 X-14.138996 Y-42.054516
G1 X-24.919644 Y-24.086769 E555.468748
G0 X-24.919644 Y-25.218139
G1 X-14.817819 Y-42.054516 E557.218818
G0 X-15.496641 Y-42.054516
G1 X-24.919645 Y-26.349508 E558.851287
G0 X-24.919646 Y-27.480878
G1 X-16.175464 Y-42.054515 E560.366154
G0 X-16.854287 Y-42.054515
G1 X-24.919647 Y-28.612247 E561.763421
G0 X-24.919647 Y-29.743617
G1 X-17.533110 Y-42.054514 E563.043086
G0 X-18.211932 Y-42.054514
G1 X-24.919648 Y-30.874987 E564.205150
G0 X-24.919649 Y-32.006356
G1 X-18.890755 Y-42.054513 E565.249613
G0 X-19.569578 Y-42.054513
G1 X-24.919650 Y-33.137726 E566.176475
G0 X-24.919651 Y-34.269095
G1 X-20.248401 Y-42.054512 E566.985736
G0 X-20.927223 Y-42.054512
G1 X-24.919651 Y-35.400465 E567.677396
G0 X-24.919652 Y-36.531835
G1 X-21.606047 Y-42.054511 E568.251455
G0 X-22.284869 Y-42.054511
G1 X-24.919653 Y-37.663204 E568.707913
G0 X-24.919654 Y-38.794574
G1 X-22.963692 Y-42.054510 E569.046769
G0 X-23.642514 Y-42.054510
G1 X-24.919655 Y-39.925943 E569.268025
G0 X-24.919655 Y-41.057313
G1 X-24.321338 Y-42.054509 E569.371679
G0 X-25.159617 Y15.688011 Z0.400000
G1 X-25.159657 Y-42.294507 E574.539820
G1 X32.822901 Y-42.294548 E579.707964
G1 X32.822903 Y15.687970 E584.876105
G1 X-25.159617 Y15.688011 E590.044246
G0 X-25.639617 Y16.168012
G1 X-25.639657 Y-42.774507 E595.297954
G1 X33.302901 Y-42.774549 E600.551666
G1 X33.302903 Y16.167970 E605.805374
G1 X-25.639617 Y16.168012 E611.059082
G0 X-26.119617 Y16.648012
G1 X-26.119658 Y-43.254506 E616.398358
G1 X33.782902 Y-43.254549 E621.737637
G1 X33.782904 Y16.647969 E627.076913
G1 X-26.119617 Y16.648012 E632.416189
G0 X32.534845 Y15.447972
G1 X-24.919641 Y-19.024719 E638.388338
G0 X-24.919641 Y-18.345897
G1 X31.403476 Y15.447973 E644.242887
G0 X30.272106 Y15.447974
G1 X-24.919640 Y-17.667074 E649.979834
G0 X-24.919640 Y-16.988252
G1 X29.140737 Y15.447974 E655.599180
G0 X28.009367 Y15.447975
G1 X-24.919639 Y-16.309428 E661.100925
G0 X-24.919639 Y-15.630606
G1 X26.877997 Y15.447976 E666.485069
G0 X25.746628 Y15.447977
G1 X-24.919638 Y-14.951783 E671.751612
G0 X-24.919638 Y-14.272960
G1 X24.615258 Y15.447978 E676.900553
G0 X23.483889 Y15.447978
G1 X-24.919637 Y-13.594137 E681.931894
G0 X-24.919637 Y-12.915315
G1 X22.352519 Y15.447979 E686.845633
G0 X21.221149 Y15.447980
G1 X-24.919636 Y-12.236492 E691.641772
G0 X-24.919636 Y-11.557669
G1 X20.089780 Y15.447981 E696.320309
G0 X18.958410 Y15.447981
G1 X-24.919635 Y-10.878846 E700.881245
G0 X-24.919635 Y-10.200024
G1 X17.827041 Y15.447982 E705.324580
G0 X16.695671 Y15.447983
G1 X-24.919634 Y-9.521200 E709.650314
G0 X-24.919634 Y-8.842378
G1 X15.564301 Y15.447984 E713.858447
G0 X14.432932 Y15.447985
G1 X-24.919633 Y-8.163555 E717.948978
G0 X-24.919633 Y-7.484733
G1 X13.301562 Y15.447985 E721.921909
G0 X12.170193 Y15.447986
G1 X-24.919632 Y-6.805909 E725.777238
G0 X-24.919632 Y-6.127087
G1 X11.038823 Y15.447987 E729.514967
G0 X9.907454 Y15.447988
G1 X-24.919632 Y-5.448264 E733.135094
G0 X-24.919631 Y-4.769441
G1 X8.776084 Y15.447989 E736.637621
G0 X7.644714 Y15.447989
G1 X-24.919631 Y-4.090618 E740.022546
G0 X-24.919630 Y-3.411796
G1 X6.513345 Y15.447989 E743.289870
G0 X5.381975 Y15.447990
G1 X-24.919630 Y-2.732973 E746.439593
G0 X-24.919629 Y-2.054150
G1 X4.250606 Y15.447991 E749.471714
G0 X3.119236 Y15.447991
G1 X-24.919629 Y-1.375327 E752.386235
G0 X-24.919628 Y-0.696505
G1 X1.987866 Y15.447992 E755.183155
G0 X0.856497 Y15.447993
G1 X-24.919628 Y-0.017681 E757.862473
G0 X-24.919627 Y0.661141
G1 X-0.274873 Y15.447994 E760.424191
G0 X-1.406242 Y15.447995
G1 X-24.919627 Y1.339964 E762.868307
G0 X-24.919626 Y2.018786
G1 X-2.537612 Y15.447995 E765.194822
G0 X-3.668982 Y15.447996
G1 X-24.919626 Y2.697610 E767.403736
G0 X-24.919625 Y3.376432
G1 X-4.800351 Y15.447997 E769.495049
G0 X-5.931721 Y15.447998
G1 X-24.919625 Y4.055255 E771.468761
G0 X-24.919624 Y4.734078
G1 X-7.063090 Y15.447999 E773.324872
G0 X-8.194460 Y15.447999
G1 X-24.919624 Y5.412901 E775.063381
G0 X-24.919624 Y6.091723
G1 X-9.325830 Y15.448000 E776.684290
G0 X-10.457199 Y15.448001
G1 X-24.919623 Y6.770546 E778.187597
G0 X-24.919623 Y7.449369
G1 X-11.588569 Y15.448002 E779.573304
G0 X-12.719938 Y15.448003
G1 X-24.919622 Y8.128192 E780.841409
G0 X-24.919622 Y8.807014
G1 X-13.851308 Y15.448003 E781.991913
G0 X-14.982677 Y15.448004
G1 X-24.919621 Y9.485838 E783.024816
G0 X-24.919621 Y10.164660
G1 X-16.114047 Y15.448005 E783.940118
G0 X-17.245417 Y15.448006
G1 X-24.919621 Y10.843483 E784.737819
G0 X-24.919621 Y11.522305
G1 X-18.376786 Y15.448006 E785.417919
G0 X-19.508156 Y15.448007
G1 X-24.919620 Y12.201129 E785.980418
G0 X-24.919620 Y12.879951
G1 X-20.639525 Y15.448008 E786.425315
G0 X-21.770895 Y15.448009
G1 X-24.919619 Y13.558774 E786.752612
G0 X-24.919619 Y14.237597
G1 X-22.902265 Y15.448009 E786.962307
G0 X-24.033634 Y15.448009
G1 X-24.919618 Y14.916420 E787.054401
G0 X-24.919641 Y-19.703543
G1 X32.582903 Y14.797984 E793.031546
G0 X32.582903 Y14.119162
G1 X-24.919641 Y-20.382365 E799.008691
G0 X-24.919641 Y-21.061188
G1 X32.582903 Y13.440339 E804.985836
G0 X32.582903 Y12.761517
G1 X-24.919642 Y-21.740011 E810.962981
G0 X-24.919642 Y-22.418834
G1 X32.582903 Y12.082694 E816.940125
G0 X32.582903 Y11.403872
G1 X-24.919643 Y-23.097656 E822.917271
G0 X-24.919643 Y-23.776479
G1 X32.582903 Y10.725049 E828.894416
G0 X32.582903 Y10.046227
G1 X-24.919644 Y-24.455302 E834.871561
G0 X-24.919644 Y-25.134125
G1 X32.582903 Y9.367404 E840.848706
G0 X32.582903 Y8.688581
G1 X-24.919645 Y-25.812947 E846.825851
G0 X-24.919645 Y-26.491771
G1 X32.582903 Y8.009759 E852.802996
G0 X32.582903 Y7.330936
G1 X-24.919646 Y-27.170593 E858.780142
G0 X-24.919646 Y-27.849416
G1 X32.582903 Y6.652114 E864.757287
G0 X32.582903 Y5.973291
G1 X-24.919647 Y-28.528238 E870.734432
G0 X-24.919647 Y-29.207062
G1 X32.582903 Y5.294469 E876.711578
G0 X32.582903 Y4.615646
G1 X-24.919648 Y-29.885884 E882.688723
G0 X-24.919648 Y-30.564707
G1 X32.582903 Y3.936824 E888.665869
G0 X32.582903 Y3.258001
G1 X-24.919648 Y-31.243529 E894.643014
G0 X-24.919649 Y-31.922353
G1 X32.582903 Y2.579179 E900.620160
G0 X32.582903 Y1.900356
G1 X-24.919649 Y-32.601175 E906.597306
G0 X-24.919650 Y-33.279998
G1 X32.582903 Y1.221534 E912.574451
G0 X32.582903 Y0.542711
G1 X-24.919650 Y-33.958821 E918.551597
G0 X-24.919651 Y-34.637644
G1 X32.582903 Y-0.136111 E924.528743
G0 X32.582903 Y-0.814934
G1 X-24.919651 Y-35.316466 E930.505889
G0 X-24.919652 Y-35.995289
G1 X32.582903 Y-1.493756 E936.483035
G0 X32.582903 Y-2.172579
G1 X-24.919652 Y-36.674112 E942.460181
G0 X-24.919653 Y-37.352935
G1 X32.582903 Y-2.851401 E948.437327
G0 X32.582903 Y-3.530224
G1 X-24.919653 Y-38.031757 E954.414473
G0 X-24.919654 Y-38.710581
G1 X32.582903 Y-4.209046 E960.391619
G0 X32.582903 Y-4.887869
G1 X-24.919654 Y-39.389403 E966.368765
G0 X-24.919655 Y-40.068226
G1 X32.582903 Y-5.566691 E972.345911
G0 X32.582903 Y-6.245514
G1 X-24.919655 Y-40.747048 E978.323057
G0 X-24.919656 Y-41.425871
G1 X32.582903 Y-6.924336 E984.300204
G0 X32.582903 Y-7.603159
G1 X-24.836016 Y-42.054509 E990.268656
G0 X-23.704646 Y-42.054510
G1 X32.582903 Y-8.281981 E996.119507
G0 X32.582903 Y-8.960804
G1 X-22.573277 Y-42.054511 E1001.852757
G0 X-21.441907 Y-42.054511
G1 X32.582903 Y-9.639627 E1007.468406
G0 X32.582903 Y-10.318449
G1 X-20.310537 Y-42.054512 E1012.966454
G0 X-19.179168 Y-42.054513
G1 X32.582903 Y-10.997272 E1018.346901
G0 X32.582903 Y-11.676094
G1 X-18.047797 Y-42.054514 E1023.609747
G0 X-16.916428 Y-42.054515
G1 X32.582903 Y-12.354917 E1028.754992
G0 X32.582903 Y-13.033739
G1 X-15.785058 Y-42.054515 E1033.782636
G0 X-14.653688 Y-42.054516
G1 X32.582903 Y-13.712562 E1038.692678
G0 X32.582903 Y-14.391384
G1 X-13.522319 Y-42.054517 E1043.485120
G0 X-12.390949 Y-42.054518
G1 X32.582903 Y-15.070207 E1048.159961
G0 X32.582903 Y-15.749029
G1 X-11.259580 Y-42.054519 E1052.717200
G0 X-10.128210 Y-42.054519
G1 X32.582903 Y-16.427852 E1057.156839
G0 X32.582903 Y-17.106674
G1 X-8.996840 Y-42.054520 E1061.478876
G0 X-7.865471 Y-42.054521
