;FLAVOR:UltiGCode
;MATERIAL:36474
;TIME:0
G0 X0.000000 Y0.000000 Z0.300000
;TOWERS LAYER:0 Z:0.300000 HEIGHT:0.300000 OVERLAP:0.000000 WIDTH:0.480000
G10
G0 X111.542307 Y124.328019 F2400.000000
G11
G1 X107.522331 Y124.328019 F900.000000 E0.501234
G1 X107.522306 Y120.308044 E1.002468
G1 X111.542282 Y120.308019 E1.503702
G1 X111.542307 Y124.328019 E2.004939
;WALL LAYER:0 Z:0.300000 HEIGHT:0.300000 OVERLAP:0.200000 WIDTH:0.480000
;PERIMETER:1 LAYER:0 Z:0.300000 HEIGHT:0.300000 OVERLAP:0.200000 WIDTH:0.300000
G10
G0 X160.750006 Y124.328008 F2400.000000
G11
G1 X160.750000 Y100.250009 F600.000000 E3.799922
G1 X179.249989 Y100.250000 E5.179071
G1 X179.250000 Y124.749996 E7.005513
G1 X160.750011 Y124.750000 E8.384663
G1 X160.750006 Y124.378008 E8.412394
;PERIMETER:0 LAYER:0 Z:0.300000 HEIGHT:0.300000 OVERLAP:0.200000 WIDTH:0.600000
G0 X160.300006 Y124.328008 F2400.000000
G1 X160.300000 Y99.800009 F600.000000 E12.448444
G1 X179.699989 Y99.800000 E15.640686
G1 X179.700000 Y125.199996 E19.820222
G1 X160.300011 Y125.200000 E23.012464
G1 X160.300006 Y124.378008 E23.147722
;INFILL LAYER:0 Z:0.300000 HEIGHT:0.300000 OVERLAP:0.200000 WIDTH:0.480000
G0 X160.900006 Y123.603296 F2400.000000
G1 X179.099997 Y111.090802 F900.000000 E25.986879
G0 X179.099996 Y108.516934 F2400.000000
G1 X160.900005 Y121.029428 F900.000000 E28.826036
G0 X160.900004 Y118.455560 F2400.000000
G1 X179.099995 Y105.943066 F900.000000 E31.665193
G0 X179.099995 Y103.369199 F2400.000000
G1 X160.900004 Y115.881691 F900.000000 E34.504350
G0 X160.900003 Y113.307823 F2400.000000
G1 X179.099994 Y100.795330 F900.000000 E37.343507
G0 X175.931209 Y100.400002 F2400.000000
G1 X160.900003 Y110.733954 F900.000000 E39.688341
G0 X160.900002 Y108.160087 F2400.000000
G1 X172.187398 Y100.400002 F900.000000 E41.449149
G0 X168.443587 Y100.400003 F2400.000000
G1 X160.900002 Y105.586218 F900.000000 E42.625931
G0 X160.900002 Y103.012350 F2400.000000
G1 X164.699777 Y100.400004 F900.000000 E43.218688
G0 X160.955966 Y100.400005 F2400.000000
G1 X160.900001 Y100.438481 F900.000000 E43.227418
G10
G0 X179.099997 Y113.664671 F2400.000000
G11
G1 X163.194065 Y124.599999 F900.000000 E45.708707
G0 X166.937874 Y124.599999 F2400.000000
G1 X179.099998 Y116.238539 F900.000000 E47.605971
G0 X179.099998 Y118.812407 F2400.000000
G1 X170.681683 Y124.599999 F900.000000 E48.919209
G0 X174.425491 Y124.599999 F2400.000000
G1 X179.099998 Y121.386276 F900.000000 E49.648422
G0 X179.099999 Y123.960144 F2400.000000
G1 X178.169301 Y124.599999 F900.000000 E49.793609
G0 X178.169301 Y124.599999 Z0.550000 F2400.000000
;TOWERS LAYER:1 Z:0.550000 HEIGHT:0.250000 OVERLAP:0.200000 WIDTH:0.480000
G10
G0 X111.542307 Y124.328019
G11
G1 X107.522331 Y124.328019 F900.000000 E50.232871
G1 X107.522306 Y120.308044 E50.672133
G1 X111.542282 Y120.308019 E51.111396
G1 X111.542307 Y124.328019 E51.550661
;WALL LAYER:1 Z:0.550000 HEIGHT:0.250000 OVERLAP:0.200000 WIDTH:0.480000
;PERIMETER:1 LAYER:1 Z:0.550000 HEIGHT:0.250000 OVERLAP:0.200000 WIDTH:0.300000
G10
G0 X160.750006 Y124.328008 F2400.000000
G11
G1 X160.750000 Y100.250009 F600.000000 E53.098151
G1 X179.249989 Y100.250000 E54.287144
G1 X179.250000 Y124.749996 E55.861757
G1 X160.750011 Y124.750000 E57.050749
G1 X160.750006 Y124.378008 E57.074657
;PERIMETER:0 LAYER:1 Z:0.550000 HEIGHT:0.250000 OVERLAP:0.200000 WIDTH:0.600000
G0 X160.300006 Y124.328008 F2400.000000
G1 X160.300000 Y99.800009 F600.000000 E60.490669
G1 X179.699989 Y99.800000 E63.192504
G1 X179.700000 Y125.199996 E66.729959
G1 X160.300011 Y125.200000 E69.431794
G1 X160.300006 Y124.378008 E69.546272
;INFILL LAYER:1 Z:0.550000 HEIGHT:0.250000 OVERLAP:0.200000 WIDTH:0.480000
G0 X162.878560 Y124.599999 F2400.000000
G1 X160.900005 Y121.722102 F900.000000 E69.927888
G0 X160.900004 Y117.978292 F2400.000000
G1 X165.452429 Y124.599999 F900.000000 E70.805942
G0 X168.026298 Y124.599999 F2400.000000
G1 X160.900003 Y114.234481 F900.000000 E72.180435
G0 X160.900003 Y110.490671 F2400.000000
G1 X170.600166 Y124.599999 F900.000000 E74.051365
G0 X173.174035 Y124.599999 F2400.000000
G1 X160.900002 Y106.746861 F900.000000 E76.418733
G0 X160.900002 Y103.003051 F2400.000000
G1 X175.747904 Y124.599999 F900.000000 E79.282540
G0 X178.321773 Y124.599999 F2400.000000
G1 X161.684276 Y100.400005 F900.000000 E82.491516
G0 X164.258144 Y100.400004 F2400.000000
G1 X179.099998 Y121.988156 F900.000000 E85.354156
G0 X179.099998 Y118.244347 F2400.000000
G1 X166.832012 Y100.400003 F900.000000 E87.720358
G0 X169.405881 Y100.400003 F2400.000000
G1 X179.099997 Y114.500536 F900.000000 E89.590122
G0 X179.099997 Y110.756725 F2400.000000
G1 X171.979749 Y100.400002 F900.000000 E90.963448
G0 X174.553617 Y100.400002 F2400.000000
G1 X179.099996 Y107.012916 F900.000000 E91.840336
G0 X179.099995 Y103.269105 F2400.000000
G1 X177.127485 Y100.400002 F900.000000 E92.220786
M106 S214.200000
G0 X177.127485 Y100.400002 Z0.800000 F2400.000000
;TOWERS LAYER:2 Z:0.800000 HEIGHT:0.250000 OVERLAP:0.200000 WIDTH:0.480000
G10
G0 X111.542307 Y124.328019
G11
G1 X107.522331 Y124.328019 F900.000000 E92.660049
G1 X107.522306 Y120.308044 E93.099311
G1 X111.542282 Y120.308019 E93.538573
G1 X111.542307 Y124.328019 E93.977838
;WALL LAYER:2 Z:0.800000 HEIGHT:0.250000 OVERLAP:0.200000 WIDTH:0.480000
;PERIMETER:1 LAYER:2 Z:0.800000 HEIGHT:0.250000 OVERLAP:0.200000 WIDTH:0.300000
G10
G0 X160.750006 Y124.328008 F2400.000000
G11
G1 X160.750000 Y100.250009 F600.000000 E95.525329
G1 X179.249989 Y100.250000 E96.714322
G1 X179.250000 Y124.749996 E98.288934
G1 X160.750011 Y124.750000 E99.477927
G1 X160.750006 Y124.378008 E99.501835
;PERIMETER:0 LAYER:2 Z:0.800000 HEIGHT:0.250000 OVERLAP:0.200000 WIDTH:0.600000
G0 X160.300006 Y124.328008 F2400.000000
G1 X160.300000 Y99.800009 F600.000000 E102.917847
G1 X179.699989 Y99.800000 E105.619682
G1 X179.700000 Y125.199996 E109.157137
G1 X160.300011 Y125.200000 E111.858971
G1 X160.300006 Y124.378008 E111.973450
;INFILL LAYER:2 Z:0.800000 HEIGHT:0.250000 OVERLAP:0.200000 WIDTH:0.480000
G0 X160.900006 Y123.603296 F2400.000000
G1 X179.099997 Y111.090802 F900.000000 E114.386812
G0 X179.099996 Y108.516934 F2400.000000
G1 X160.900005 Y121.029428 F900.000000 E116.800174
G0 X160.900004 Y118.455560 F2400.000000
G1 X179.099995 Y105.943066 F900.000000 E119.213535
G0 X179.099995 Y103.369199 F2400.000000
G1 X160.900004 Y115.881691 F900.000000 E121.626897
G0 X160.900003 Y113.307823 F2400.000000
G1 X179.099994 Y100.795330 F900.000000 E124.040259
G0 X175.931209 Y100.400002 F2400.000000
G1 X160.900003 Y110.733954 F900.000000 E126.033432
G0 X160.900002 Y108.160087 F2400.000000
G1 X172.187398 Y100.400002 F900.000000 E127.530167
G0 X168.443587 Y100.400003 F2400.000000
G1 X160.900002 Y105.586218 F900.000000 E128.530465
G0 X160.900002 Y103.012350 F2400.000000
G1 X164.699777 Y100.400004 F900.000000 E129.034324
G0 X160.955966 Y100.400005 F2400.000000
G1 X160.900001 Y100.438481 F900.000000 E129.041745
G10
G0 X179.099997 Y113.664671 F2400.000000
G11
G1 X163.194065 Y124.599999 F900.000000 E131.150909
G0 X166.937874 Y124.599999 F2400.000000
G1 X179.099998 Y116.238539 F900.000000 E132.763636
G0 X179.099998 Y118.812407 F2400.000000
G1 X170.681683 Y124.599999 F900.000000 E133.879924
G0 X174.425491 Y124.599999 F2400.000000
G1 X179.099998 Y121.386276 F900.000000 E134.499775
G0 X179.099999 Y123.960144 F2400.000000
G1 X178.169301 Y124.599999 F900.000000 E134.623188
M106 S428.400000
G0 X178.169301 Y124.599999 Z1.050000 F2400.000000
;TOWERS LAYER:3 Z:1.050000 HEIGHT:0.250000 OVERLAP:0.200000 WIDTH:0.480000
G10
G0 X111.542307 Y124.328019
G11
G1 X107.522331 Y124.328019 F900.000000 E135.062450
G1 X107.522306 Y120.308044 E135.501712
G1 X111.542282 Y120.308019 E135.940975
G1 X111.542307 Y124.328019 E136.380240
;WALL LAYER:3 Z:1.050000 HEIGHT:0.250000 OVERLAP:0.200000 WIDTH:0.480000
;PERIMETER:1 LAYER:3 Z:1.050000 HEIGHT:0.250000 OVERLAP:0.200000 WIDTH:0.300000
G10
G0 X160.750006 Y124.328008 F2400.000000
G11
G1 X160.750000 Y100.250009 F600.000000 E137.927731
G1 X179.249989 Y100.250000 E139.116723
G1 X179.250000 Y124.749996 E140.691336
G1 X160.750011 Y124.750000 E141.880328
G1 X160.750006 Y124.378008 E141.904236
;PERIMETER:0 LAYER:3 Z:1.050000 HEIGHT:0.250000 OVERLAP:0.200000 WIDTH:0.600000
G0 X160.300006 Y124.328008 F2400.000000
G1 X160.300000 Y99.800009 F600.000000 E145.320248
G1 X179.699989 Y99.800000 E148.022083
G1 X179.700000 Y125.199996 E151.559538
G1 X160.300011 Y125.200000 E154.261373
G1 X160.300006 Y124.378008 E154.375851
;INFILL LAYER:3 Z:1.050000 HEIGHT:0.250000 OVERLAP:0.200000 WIDTH:0.480000
G0 X162.878560 Y124.599999 F2400.000000
G1 X160.900005 Y121.722102 F900.000000 E154.757467
G0 X160.900004 Y117.978292 F2400.000000
G1 X165.452429 Y124.599999 F900.000000 E155.635522
G0 X168.026298 Y124.599999 F2400.000000
G1 X160.900003 Y114.234481 F900.000000 E157.010014
G0 X160.900003 Y110.490671 F2400.000000
G1 X170.600166 Y124.599999 F900.000000 E158.880944
G0 X173.174035 Y124.599999 F2400.000000
G1 X160.900002 Y106.746861 F900.000000 E161.248312
G0 X160.900002 Y103.003051 F2400.000000
G1 X175.747904 Y124.599999 F900.000000 E164.112119
G0 X178.321773 Y124.599999 F2400.000000
G1 X161.684276 Y100.400005 F900.000000 E167.321095
G0 X164.258144 Y100.400004 F2400.000000
G1 X179.099998 Y121.988156 F900.000000 E170.183735
G0 X179.099998 Y118.244347 F2400.000000
G1 X166.832012 Y100.400003 F900.000000 E172.549937
G0 X169.405881 Y100.400003 F2400.000000
G1 X179.099997 Y114.500536 F900.000000 E174.419701
G0 X179.099997 Y110.756725 F2400.000000
G1 X171.979749 Y100.400002 F900.000000 E175.793027
G0 X174.553617 Y100.400002 F2400.000000
G1 X179.099996 Y107.012916 F900.000000 E176.669915
G0 X179.099995 Y103.269105 F2400.000000
G1 X177.127485 Y100.400002 F900.000000 E177.050365
M106 S642.600000
G0 X177.127485 Y100.400002 Z1.300000 F2400.000000
;TOWERS LAYER:4 Z:1.300000 HEIGHT:0.250000 OVERLAP:0.200000 WIDTH:0.480000
G10
G0 X111.542307 Y124.328019
G11
G1 X107.522331 Y124.328019 F900.000000 E177.489628
G1 X107.522306 Y120.308044 E177.928890
G1 X111.542282 Y120.308019 E178.368152
G1 X111.542307 Y124.328019 E178.807418
;WALL LAYER:4 Z:1.300000 HEIGHT:0.250000 OVERLAP:0.200000 WIDTH:0.480000
;PERIMETER:1 LAYER:4 Z:1.300000 HEIGHT:0.250000 OVERLAP:0.200000 WIDTH:0.300000
G10
G0 X160.750006 Y124.328008 F2400.000000
G11
G1 X160.750000 Y100.250009 F600.000000 E180.354908
G1 X179.249989 Y100.250000 E181.543901
G1 X179.250000 Y124.749996 E183.118513
G1 X160.750011 Y124.750000 E184.307506
G1 X160.750006 Y124.378008 E184.331414
;PERIMETER:0 LAYER:4 Z:1.300000 HEIGHT:0.250000 OVERLAP:0.200000 WIDTH:0.600000
G0 X160.300006 Y124.328008 F2400.000000
G1 X160.300000 Y99.800009 F600.000000 E187.747426
G1 X179.699989 Y99.800000 E190.449261
G1 X179.700000 Y125.199996 E193.986716
G1 X160.300011 Y125.200000 E196.688550
G1 X160.300006 Y124.378008 E196.803029
;INFILL LAYER:4 Z:1.300000 HEIGHT:0.250000 OVERLAP:0.200000 WIDTH:0.480000
G0 X160.900006 Y123.603296 F2400.000000
G1 X179.099997 Y111.090802 F900.000000 E199.216391
G0 X179.099996 Y108.516934 F2400.000000
G1 X160.900005 Y121.029428 F900.000000 E201.629753
G0 X160.900004 Y118.455560 F2400.000000
G1 X179.099995 Y105.943066 F900.000000 E204.043114
G0 X179.099995 Y103.369199 F2400.000000
G1 X160.900004 Y115.881691 F900.000000 E206.456476
G0 X160.900003 Y113.307823 F2400.000000
G1 X179.099994 Y100.795330 F900.000000 E208.869838
G0 X175.931209 Y100.400002 F2400.000000
G1 X160.900003 Y110.733954 F900.000000 E210.863011
G0 X160.900002 Y108.160087 F2400.000000
G1 X172.187398 Y100.400002 F900.000000 E212.359747
G0 X168.443587 Y100.400003 F2400.000000
G1 X160.900002 Y105.586218 F900.000000 E213.360044
G0 X160.900002 Y103.012350 F2400.000000
G1 X164.699777 Y100.400004 F900.000000 E213.863903
G0 X160.955966 Y100.400005 F2400.000000
G1 X160.900001 Y100.438481 F900.000000 E213.871324
G10
G0 X179.099997 Y113.664671 F2400.000000
G11
G1 X163.194065 Y124.599999 F900.000000 E215.980488
G0 X166.937874 Y124.599999 F2400.000000
G1 X179.099998 Y116.238539 F900.000000 E217.593215
G0 X179.099998 Y118.812407 F2400.000000
G1 X170.681683 Y124.599999 F900.000000 E218.709503
G0 X174.425491 Y124.599999 F2400.000000
G1 X179.099998 Y121.386276 F900.000000 E219.329354
G0 X179.099999 Y123.960144 F2400.000000
G1 X178.169301 Y124.599999 F900.000000 E219.452767
M106 S647.700000
G0 X178.169301 Y124.599999 Z1.550000 F2400.000000
;TOWERS LAYER:5 Z:1.550000 HEIGHT:0.250000 OVERLAP:0.200000 WIDTH:0.480000
G10
G0 X111.542307 Y124.328019
G11
G1 X107.522331 Y124.328019 F900.000000 E219.892029
G1 X107.522306 Y120.308044 E220.331292
G1 X111.542282 Y120.308019 E220.770554
G1 X111.542307 Y124.328019 E221.209819
;WALL LAYER:5 Z:1.550000 HEIGHT:0.250000 OVERLAP:0.200000 WIDTH:0.480000
;PERIMETER:1 LAYER:5 Z:1.550000 HEIGHT:0.250000 OVERLAP:0.200000 WIDTH:0.300000
G10
G0 X160.750006 Y124.328008 F2400.000000
G11
G1 X160.750000 Y100.250009 F600.000000 E222.757310
G1 X179.249989 Y100.250000 E223.946302
G1 X179.250000 Y124.749996 E225.520915
G1 X160.750011 Y124.750000 E226.709907
G1 X160.750006 Y124.378008 E226.733815
;PERIMETER:0 LAYER:5 Z:1.550000 HEIGHT:0.250000 OVERLAP:0.200000 WIDTH:0.600000
G0 X160.300006 Y124.328008 F2400.000000
G1 X160.300000 Y99.800009 F600.000000 E230.149827
G1 X179.699989 Y99.800000 E232.851662
G1 X179.700000 Y125.199996 E236.389117
G1 X160.300011 Y125.200000 E239.090952
G1 X160.300006 Y124.378008 E239.205431
;INFILL LAYER:5 Z:1.550000 HEIGHT:0.250000 OVERLAP:0.200000 WIDTH:0.480000
G0 X162.878560 Y124.599999 F2400.000000
G1 X160.900005 Y121.722102 F900.000000 E239.587047
G0 X160.900004 Y117.978292 F2400.000000
G1 X165.452429 Y124.599999 F900.000000 E240.465101
G0 X168.026298 Y124.599999 F2400.000000
G1 X160.900003 Y114.234481 F900.000000 E241.839593
G0 X160.900003 Y110.490671 F2400.000000
G1 X170.600166 Y124.599999 F900.000000 E243.710523
G0 X173.174035 Y124.599999 F2400.000000
G1 X160.900002 Y106.746861 F900.000000 E246.077892
G0 X160.900002 Y103.003051 F2400.000000
G1 X175.747904 Y124.599999 F900.000000 E248.941698
G0 X178.321773 Y124.599999 F2400.000000
G1 X161.684276 Y100.400005 F900.000000 E252.150675
G0 X164.258144 Y100.400004 F2400.000000
G1 X179.099998 Y121.988156 F900.000000 E255.013315
G0 X179.099998 Y118.244347 F2400.000000
G1 X166.832012 Y100.400003 F900.000000 E257.379517
G0 X169.405881 Y100.400003 F2400.000000
G1 X179.099997 Y114.500536 F900.000000 E259.249281
G0 X179.099997 Y110.756725 F2400.000000
G1 X171.979749 Y100.400002 F900.000000 E260.622607
G0 X174.553617 Y100.400002 F2400.000000
G1 X179.099996 Y107.012916 F900.000000 E261.499495
G0 X179.099995 Y103.269105 F2400.000000
G1 X177.127485 Y100.400002 F900.000000 E261.879945
G0 X177.127485 Y100.400002 Z1.800000 F2400.000000
;TOWERS LAYER:6 Z:1.800000 HEIGHT:0.250000 OVERLAP:0.200000 WIDTH:0.480000
G10
G0 X111.542307 Y124.328019
G11
G1 X107.522331 Y124.328019 F900.000000 E262.319207
G1 X107.522306 Y120.308044 E262.758469
G1 X111.542282 Y120.308019 E263.197732
G1 X111.542307 Y124.328019 E263.636997
;WALL LAYER:6 Z:1.800000 HEIGHT:0.250000 OVERLAP:0.200000 WIDTH:0.480000
;PERIMETER:1 LAYER:6 Z:1.800000 HEIGHT:0.250000 OVERLAP:0.200000 WIDTH:0.300000
G10
G0 X160.750006 Y124.328008 F2400.000000
G11
G1 X160.750000 Y100.250009 F600.000000 E265.184487
G1 X179.249989 Y100.250000 E266.373480
G1 X179.250000 Y124.749996 E267.948093
G1 X160.750011 Y124.750000 E269.137085
G1 X160.750006 Y124.378008 E269.160993
;PERIMETER:0 LAYER:6 Z:1.800000 HEIGHT:0.250000 OVERLAP:0.200000 WIDTH:0.600000
G0 X160.300006 Y124.328008 F2400.000000
G1 X160.300000 Y99.800009 F600.000000 E272.577005
G1 X179.699989 Y99.800000 E275.278840
G1 X179.700000 Y125.199996 E278.816295
G1 X160.300011 Y125.200000 E281.518130
G1 X160.300006 Y124.378008 E281.632608
;INFILL LAYER:6 Z:1.800000 HEIGHT:0.250000 OVERLAP:0.200000 WIDTH:0.480000
G0 X160.900006 Y123.603296 F2400.000000
G1 X179.099997 Y111.090802 F900.000000 E284.045970
G0 X179.099996 Y108.516934 F2400.000000
G1 X160.900005 Y121.029428 F900.000000 E286.459332
G0 X160.900004 Y118.455560 F2400.000000
G1 X179.099995 Y105.943066 F900.000000 E288.872694
G0 X179.099995 Y103.369199 F2400.000000
