;FLAVOR:UltiGCode
;MATERIAL:1894
;TIME:1741
M140 S230
G0 X119.862182 Y116.162385 Z0.350000 F600.000000
G1 X120.937726 Y116.162385 E0.152699
G1 X120.937819 Y117.237929 E0.305399
G1 X119.862275 Y117.238022 E0.458098
G1 X119.862182 Y116.162385 E0.610811
G0 X116.562181 Y116.162385
G1 X117.637725 Y116.162385 E0.763510
G1 X117.637818 Y117.237929 E0.916210
G1 X116.562274 Y117.238022 E1.068909
G1 X116.562181 Y116.162385 E1.221622
G0 X113.262181 Y116.162385
G1 X114.337725 Y116.162385 E1.374321
G1 X114.337818 Y117.237929 E1.527021
G1 X113.262274 Y117.238022 E1.679720
G1 X113.262181 Y116.162385 E1.832433
G0 X109.962182 Y116.162385
G1 X111.037725 Y116.162385 E1.985132
G1 X111.037818 Y117.237929 E2.137832
G1 X109.962275 Y117.238022 E2.290531
G1 X109.962182 Y116.162385 E2.443244
G0 X106.662182 Y116.162385
G1 X107.737726 Y116.162385 E2.595943
G1 X107.737819 Y117.237929 E2.748643
G1 X106.662275 Y117.238022 E2.901342
G1 X106.662182 Y116.162385 E3.054055
G0 X103.362182 Y116.162385
G1 X104.437726 Y116.162385 E3.206754
G1 X104.437819 Y117.237929 E3.359453
G1 X103.362275 Y117.238022 E3.512153
G1 X103.362182 Y116.162385 E3.664866
G0 X100.062181 Y116.162385
G1 X101.137725 Y116.162385 E3.817565
G1 X101.137818 Y117.237929 E3.970264
G1 X100.062274 Y117.238022 E4.122964
G1 X100.062181 Y116.162385 E4.275677
G0 X116.562181 Y113.938022
G1 X116.562181 Y112.862478 E4.428376
G1 X117.637725 Y112.862385 E4.581075
G1 X117.637818 Y113.937929 E4.733775
G1 X116.562181 Y113.938022 E4.886488
G0 X113.262181 Y113.938022
G1 X113.262181 Y112.862478 E5.039187
G1 X114.337725 Y112.862385 E5.191886
G1 X114.337818 Y113.937929 E5.344586
G1 X113.262181 Y113.938022 E5.497298
G0 X109.962182 Y113.938022
G1 X109.962182 Y112.862478 E5.649998
G1 X111.037725 Y112.862385 E5.802697
G1 X111.037818 Y113.937929 E5.955397
G1 X109.962182 Y113.938022 E6.108109
G0 X106.662182 Y113.938022
G1 X106.662182 Y112.862478 E6.260809
G1 X107.737726 Y112.862385 E6.413508
G1 X107.737819 Y113.937929 E6.566208
G1 X106.662182 Y113.938022 E6.718920
G0 X103.362182 Y113.938022
G1 X103.362182 Y112.862478 E6.871620
G1 X104.437726 Y112.862385 E7.024319
G1 X104.437819 Y113.937929 E7.177018
G1 X103.362182 Y113.938022 E7.329731
G0 X100.062181 Y113.938022
G1 X100.062181 Y112.862478 E7.482431
G1 X101.137725 Y112.862385 E7.635130
G1 X101.137818 Y113.937929 E7.787829
G1 X100.062181 Y113.938022 E7.940542
G0 X119.862182 Y113.938022
G1 X119.862182 Y112.862478 E8.093242
G1 X120.937726 Y112.862385 E8.245941
G1 X120.937819 Y113.937929 E8.398640
G1 X119.862182 Y113.938022 E8.551353
G0 X124.950407 Y117.049999 F900.000000
G1 X124.950091 Y112.950316 E9.153880
G1 X127.549555 Y112.950091 E9.535920
G1 X127.549909 Y117.049975 E10.138476
G1 X124.950407 Y117.049999 E10.520522
G0 X124.470444 Y117.530000
G1 X124.470055 Y112.470348 E11.264134
G1 X128.029528 Y112.470055 E11.787267
G1 X128.029945 Y117.529980 E12.530919
G1 X124.470444 Y117.530000 E13.054055
G0 X123.990480 Y118.010000
G1 X123.990018 Y111.990382 E13.938753
G1 X128.509497 Y111.990018 E14.602976
G1 X128.509982 Y118.009984 E15.487725
G1 X123.990480 Y118.010000 E16.151951
G0 X127.309857 Y116.387424
G1 X126.887281 Y116.809999 E16.239782
G0 X126.208459 Y116.809999
G1 X127.309805 Y115.708653 E16.468692
G0 X127.309752 Y115.029883
G1 X125.529636 Y116.809999 E16.838681
G0 X125.190363 Y116.470450
G1 X127.309701 Y114.351112 E17.279176
G0 X127.309649 Y113.672342
G1 X125.190310 Y115.791680 E17.719671
G0 X125.190258 Y115.112910
G1 X127.113043 Y113.190125 E18.119314
G0 X126.434168 Y113.190178
G1 X125.190206 Y114.434140 E18.377866
G0 X125.190154 Y113.755369
G1 X125.755294 Y113.190229 E18.495327
G0 X119.862182 Y116.162385 Z0.700000 F600.000000
G1 X120.937726 Y116.162385 E18.648027
G1 X120.937819 Y117.237929 E18.800726
G1 X119.862275 Y117.238022 E18.953426
G1 X119.862182 Y116.162385 E19.106138
G0 X116.562181 Y116.162385
G1 X117.637725 Y116.162385 E19.258838
G1 X117.637818 Y117.237929 E19.411537
G1 X116.562274 Y117.238022 E19.564237
G1 X116.562181 Y116.162385 E19.716949
G0 X113.262181 Y116.162385
G1 X114.337725 Y116.162385 E19.869649
G1 X114.337818 Y117.237929 E20.022348
G1 X113.262274 Y117.238022 E20.175048
G1 X113.262181 Y116.162385 E20.327760
G0 X109.962182 Y116.162385
G1 X111.037725 Y116.162385 E20.480460
G1 X111.037818 Y117.237929 E20.633159
G1 X109.962275 Y117.238022 E20.785858
G1 X109.962182 Y116.162385 E20.938571
G0 X106.662182 Y116.162385
G1 X107.737726 Y116.162385 E21.091270
G1 X107.737819 Y117.237929 E21.243970
G1 X106.662275 Y117.238022 E21.396669
G1 X106.662182 Y116.162385 E21.549382
G0 X103.362182 Y116.162385
G1 X104.437726 Y116.162385 E21.702081
G1 X104.437819 Y117.237929 E21.854781
G1 X103.362275 Y117.238022 E22.007480
G1 X103.362182 Y116.162385 E22.160193
G0 X100.062181 Y116.162385
G1 X101.137725 Y116.162385 E22.312892
G1 X101.137818 Y117.237929 E22.465592
G1 X100.062274 Y117.238022 E22.618291
G1 X100.062181 Y116.162385 E22.771004
G0 X116.562181 Y113.938022
G1 X116.562181 Y112.862478 E22.923703
G1 X117.637725 Y112.862385 E23.076403
G1 X117.637818 Y113.937929 E23.229102
G1 X116.562181 Y113.938022 E23.381815
G0 X113.262181 Y113.938022
G1 X113.262181 Y112.862478 E23.534514
G1 X114.337725 Y112.862385 E23.687214
G1 X114.337818 Y113.937929 E23.839913
G1 X113.262181 Y113.938022 E23.992626
G0 X109.962182 Y113.938022
G1 X109.962182 Y112.862478 E24.145325
G1 X111.037725 Y112.862385 E24.298025
G1 X111.037818 Y113.937929 E24.450724
G1 X109.962182 Y113.938022 E24.603437
G0 X106.662182 Y113.938022
G1 X106.662182 Y112.862478 E24.756136
G1 X107.737726 Y112.862385 E24.908835
G1 X107.737819 Y113.937929 E25.061535
G1 X106.662182 Y113.938022 E25.214248
G0 X103.362182 Y113.938022
G1 X103.362182 Y112.862478 E25.366947
G1 X104.437726 Y112.862385 E25.519646
G1 X104.437819 Y113.937929 E25.672346
G1 X103.362182 Y113.938022 E25.825059
G0 X100.062181 Y113.938022
G1 X100.062181 Y112.862478 E25.977758
G1 X101.137725 Y112.862385 E26.130457
G1 X101.137818 Y113.937929 E26.283157
G1 X100.062181 Y113.938022 E26.435869
G0 X119.862182 Y113.938022
G1 X119.862182 Y112.862478 E26.588569
G1 X120.937726 Y112.862385 E26.741268
G1 X120.937819 Y113.937929 E26.893968
G1 X119.862182 Y113.938022 E27.046680
G0 X124.950407 Y117.049999 F900.000000
G1 X124.950091 Y112.950316 E27.649207
G1 X127.549555 Y112.950091 E28.031247
G1 X127.549909 Y117.049975 E28.633803
G1 X124.950407 Y117.049999 E29.015849
G0 X124.470444 Y117.530000
G1 X124.470055 Y112.470348 E29.759462
G1 X128.029528 Y112.470055 E30.282594
G1 X128.029945 Y117.529980 E31.026246
G1 X124.470444 Y117.530000 E31.549383
G0 X123.990480 Y118.010000
G1 X123.990018 Y111.990382 E32.434080
G1 X128.509497 Y111.990018 E33.098304
G1 X128.509982 Y118.009984 E33.983052
G1 X123.990480 Y118.010000 E34.647279
G0 X126.992337 Y116.809999
G1 X125.190250 Y115.007913 E35.021835
G0 X125.190302 Y115.686787
G1 X126.313515 Y116.809999 E35.255289
G0 X125.634692 Y116.809999
G1 X125.190354 Y116.365662 E35.347643
G0 X125.190198 Y114.329038
G1 X127.309862 Y116.448702 E35.788206
G0 X127.309810 Y115.769827
G1 X125.190145 Y113.650163 E36.228769
G0 X125.409061 Y113.190256
G1 X127.309757 Y115.090952 E36.623820
G0 X127.309706 Y114.412078
G1 X126.087832 Y113.190205 E36.877781
G0 X126.766603 Y113.190152
G1 X127.309653 Y113.733203 E36.990652
G0 X119.862182 Y116.162385 Z1.050000 F600.000000
G1 X120.937726 Y116.162385 E37.143351
G1 X120.937819 Y117.237929 E37.296050
G1 X119.862275 Y117.238022 E37.448750
G1 X119.862182 Y116.162385 E37.601463
G0 X116.562181 Y116.162385
G1 X117.637725 Y116.162385 E37.754162
G1 X117.637818 Y117.237929 E37.906861
G1 X116.562274 Y117.238022 E38.059561
G1 X116.562181 Y116.162385 E38.212274
G0 X113.262181 Y116.162385
G1 X114.337725 Y116.162385 E38.364973
G1 X114.337818 Y117.237929 E38.517672
G1 X113.262274 Y117.238022 E38.670372
G1 X113.262181 Y116.162385 E38.823084
G0 X109.962182 Y116.162385
G1 X111.037725 Y116.162385 E38.975784
G1 X111.037818 Y117.237929 E39.128483
G1 X109.962275 Y117.238022 E39.281183
G1 X109.962182 Y116.162385 E39.433895
G0 X106.662182 Y116.162385
G1 X107.737726 Y116.162385 E39.586595
G1 X107.737819 Y117.237929 E39.739294
G1 X106.662275 Y117.238022 E39.891994
G1 X106.662182 Y116.162385 E40.044706
G0 X103.362182 Y116.162385
G1 X104.437726 Y116.162385 E40.197406
G1 X104.437819 Y117.237929 E40.350105
G1 X103.362275 Y117.238022 E40.502804
G1 X103.362182 Y116.162385 E40.655517
G0 X100.062181 Y116.162385
G1 X101.137725 Y116.162385 E40.808217
G1 X101.137818 Y117.237929 E40.960916
G1 X100.062274 Y117.238022 E41.113615
G1 X100.062181 Y116.162385 E41.266328
G0 X116.562181 Y113.938022
G1 X116.562181 Y112.862478 E41.419028
G1 X117.637725 Y112.862385 E41.571727
G1 X117.637818 Y113.937929 E41.724426
G1 X116.562181 Y113.938022 E41.877139
G0 X113.262181 Y113.938022
G1 X113.262181 Y112.862478 E42.029839
G1 X114.337725 Y112.862385 E42.182538
G1 X114.337818 Y113.937929 E42.335237
G1 X113.262181 Y113.938022 E42.487950
G0 X109.962182 Y113.938022
G1 X109.962182 Y112.862478 E42.640649
G1 X111.037725 Y112.862385 E42.793349
G1 X111.037818 Y113.937929 E42.946048
G1 X109.962182 Y113.938022 E43.098761
G0 X106.662182 Y113.938022
G1 X106.662182 Y112.862478 E43.251460
G1 X107.737726 Y112.862385 E43.404160
G1 X107.737819 Y113.937929 E43.556859
G1 X106.662182 Y113.938022 E43.709572
G0 X103.362182 Y113.938022
G1 X103.362182 Y112.862478 E43.862271
G1 X104.437726 Y112.862385 E44.014971
G1 X104.437819 Y113.937929 E44.167670
G1 X103.362182 Y113.938022 E44.320383
G0 X100.062181 Y113.938022
G1 X100.062181 Y112.862478 E44.473082
G1 X101.137725 Y112.862385 E44.625782
G1 X101.137818 Y113.937929 E44.778481
G1 X100.062181 Y113.938022 E44.931194
G0 X119.862182 Y113.938022
G1 X119.862182 Y112.862478 E45.083893
G1 X120.937726 Y112.862385 E45.236593
G1 X120.937819 Y113.937929 E45.389292
G1 X119.862182 Y113.938022 E45.542005
G0 X124.950407 Y117.049999 F900.000000
G1 X124.950091 Y112.950316 E46.144531
G1 X127.549555 Y112.950091 E46.526572
G1 X127.549909 Y117.049975 E47.129127
G1 X124.950407 Y117.049999 E47.511174
G0 X124.470444 Y117.530000
G1 X124.470055 Y112.470348 E48.254786
G1 X128.029528 Y112.470055 E48.777918
G1 X128.029945 Y117.529980 E49.521570
G1 X124.470444 Y117.530000 E50.044707
G0 X123.990480 Y118.010000
G1 X123.990018 Y111.990382 E50.929404
G1 X128.509497 Y111.990018 E51.593628
G1 X128.509982 Y118.009984 E52.478376
G1 X123.990480 Y118.010000 E53.142603
G0 X127.309857 Y116.387424
G1 X126.887281 Y116.809999 E53.230433
G0 X126.208459 Y116.809999
G1 X127.309805 Y115.708653 E53.459343
G0 X127.309752 Y115.029883
G1 X125.529636 Y116.809999 E53.829333
G0 X125.190363 Y116.470450
G1 X127.309701 Y114.351112 E54.269828
G0 X127.309649 Y113.672342
G1 X125.190310 Y115.791680 E54.710323
G0 X125.190258 Y115.112910
G1 X127.113043 Y113.190125 E55.109965
G0 X126.434168 Y113.190178
G1 X125.190206 Y114.434140 E55.368517
G0 X125.190154 Y113.755369
G1 X125.755294 Y113.190229 E55.485979
G0 X119.862182 Y116.162385 Z1.400000 F600.000000
G1 X120.937726 Y116.162385 E55.638678
G1 X120.937819 Y117.237929 E55.791378
G1 X119.862275 Y117.238022 E55.944077
G1 X119.862182 Y116.162385 E56.096790
G0 X116.562181 Y116.162385
G1 X117.637725 Y116.162385 E56.249489
G1 X117.637818 Y117.237929 E56.402189
G1 X116.562274 Y117.238022 E56.554888
G1 X116.562181 Y116.162385 E56.707601
G0 X113.262181 Y116.162385
G1 X114.337725 Y116.162385 E56.860300
G1 X114.337818 Y117.237929 E57.013000
G1 X113.262274 Y117.238022 E57.165699
G1 X113.262181 Y116.162385 E57.318412
G0 X109.962182 Y116.162385
G1 X111.037725 Y116.162385 E57.471111
G1 X111.037818 Y117.237929 E57.623811
G1 X109.962275 Y117.238022 E57.776510
G1 X109.962182 Y116.162385 E57.929223
G0 X106.662182 Y116.162385
G1 X107.737726 Y116.162385 E58.081922
G1 X107.737819 Y117.237929 E58.234621
G1 X106.662275 Y117.238022 E58.387321
G1 X106.662182 Y116.162385 E58.540034
G0 X103.362182 Y116.162385
G1 X104.437726 Y116.162385 E58.692733
G1 X104.437819 Y117.237929 E58.845432
G1 X103.362275 Y117.238022 E58.998132
G1 X103.362182 Y116.162385 E59.150845
G0 X100.062181 Y116.162385
G1 X101.137725 Y116.162385 E59.303544
G1 X101.137818 Y117.237929 E59.456243
G1 X100.062274 Y117.238022 E59.608943
G1 X100.062181 Y116.162385 E59.761655
G0 X116.562181 Y113.938022
G1 X116.562181 Y112.862478 E59.914355
G1 X117.637725 Y112.862385 E60.067054
G1 X117.637818 Y113.937929 E60.219754
G1 X116.562181 Y113.938022 E60.372466
G0 X113.262181 Y113.938022
G1 X113.262181 Y112.862478 E60.525166
G1 X114.337725 Y112.862385 E60.677865
G1 X114.337818 Y113.937929 E60.830565
G1 X113.262181 Y113.938022 E60.983277
G0 X109.962182 Y113.938022
G1 X109.962182 Y112.862478 E61.135977
G1 X111.037725 Y112.862385 E61.288676
G1 X111.037818 Y113.937929 E61.441376
G1 X109.962182 Y113.938022 E61.594088
G0 X106.662182 Y113.938022
G1 X106.662182 Y112.862478 E61.746788
G1 X107.737726 Y112.862385 E61.899487
G1 X107.737819 Y113.937929 E62.052186
G1 X106.662182 Y113.938022 E62.204899
G0 X103.362182 Y113.938022
G1 X103.362182 Y112.862478 E62.357599
G1 X104.437726 Y112.862385 E62.510298
G1 X104.437819 Y113.937929 E62.662997
G1 X103.362182 Y113.938022 E62.815710
G0 X100.062181 Y113.938022
G1 X100.062181 Y112.862478 E62.968410
G1 X101.137725 Y112.862385 E63.121109
G1 X101.137818 Y113.937929 E63.273808
G1 X100.062181 Y113.938022 E63.426521
G0 X119.862182 Y113.938022
G1 X119.862182 Y112.862478 E63.579220
G1 X120.937726 Y112.862385 E63.731920
G1 X120.937819 Y113.937929 E63.884619
G1 X119.862182 Y113.938022 E64.037332
G0 X124.950407 Y117.049999 F900.000000
G1 X124.950091 Y112.950316 E64.639858
G1 X127.549555 Y112.950091 E65.021899
G1 X127.549909 Y117.049975 E65.624455
G1 X124.950407 Y117.049999 E66.006501
G0 X124.470444 Y117.530000
G1 X124.470055 Y112.470348 E66.750113
G1 X128.029528 Y112.470055 E67.273245
G1 X128.029945 Y117.529980 E68.016898
G1 X124.470444 Y117.530000 E68.540034
G0 X123.990480 Y118.010000
G1 X123.990018 Y111.990382 E69.424732
G1 X128.509497 Y111.990018 E70.088955
G1 X128.509982 Y118.009984 E70.973704
G1 X123.990480 Y118.010000 E71.637930
G0 X119.862182 Y117.238022 Z1.750000 F600.000000
G1 X119.862182 Y116.162478 E71.790630
G1 X120.937726 Y116.162385 E71.943329
G1 X120.937819 Y117.237929 E72.096029
G1 X119.862182 Y117.238022 E72.248741
G0 X116.562181 Y117.238022
G1 X116.562181 Y116.162478 E72.401441
G1 X117.637725 Y116.162385 E72.554140
G1 X117.637818 Y117.237929 E72.706840
G1 X116.562181 Y117.238022 E72.859552
G0 X113.262181 Y117.238022
G1 X113.262181 Y116.162478 E73.012252
G1 X114.337725 Y116.162385 E73.164951
G1 X114.337818 Y117.237929 E73.317651
G1 X113.262181 Y117.238022 E73.470363
G0 X109.962182 Y117.238022
G1 X109.962182 Y116.162478 E73.623063
G1 X111.037725 Y116.162385 E73.775762
G1 X111.037818 Y117.237929 E73.928461
G1 X109.962182 Y117.238022 E74.081174
G0 X106.662182 Y117.238022
G1 X106.662182 Y116.162478 E74.233873
G1 X107.737726 Y116.162385 E74.386573
G1 X107.737819 Y117.237929 E74.539272
G1 X106.662182 Y117.238022 E74.691985
G0 X103.362182 Y117.238022
G1 X103.362182 Y116.162478 E74.844684
G1 X104.437726 Y116.162385 E74.997384
G1 X104.437819 Y117.237929 E75.150083
G1 X103.362182 Y117.238022 E75.302796
G0 X100.062181 Y117.238022
G1 X100.062181 Y116.162478 E75.455495
G1 X101.137725 Y116.162385 E75.608195
G1 X101.137818 Y117.237929 E75.760894
G1 X100.062181 Y117.238022 E75.913607
G0 X116.562181 Y113.938022
G1 X116.562181 Y112.862478 E76.066306
G1 X117.637725 Y112.862385 E76.219006
G1 X117.637818 Y113.937929 E76.371705
G1 X116.562181 Y113.938022 E76.524418
G0 X113.262181 Y113.938022
G1 X113.262181 Y112.862478 E76.677117
G1 X114.337725 Y112.862385 E76.829817
G1 X114.337818 Y113.937929 E76.982516
G1 X113.262181 Y113.938022 E77.135229
G0 X109.962182 Y113.938022
G1 X109.962182 Y112.862478 E77.287928
G1 X111.037725 Y112.862385 E77.440628
G1 X111.037818 Y113.937929 E77.593327
G1 X109.962182 Y113.938022 E77.746039
G0 X106.662182 Y113.938022
G1 X106.662182 Y112.862478 E77.898739
G1 X107.737726 Y112.862385 E78.051438
G1 X107.737819 Y113.937929 E78.204138
G1 X106.662182 Y113.938022 E78.356850
G0 X103.362182 Y113.938022
G1 X103.362182 Y112.862478 E78.509550
G1 X104.437726 Y112.862385 E78.662249
G1 X104.437819 Y113.937929 E78.814949
