;FLAVOR:UltiGCode
;MATERIAL:32577
;TIME:0
G0 X0.000000 Y0.000000 Z0.300000
;BRIM LAYER:0 Z:0.300000 HEIGHT:0.300000 OVERLAP:0.000000 WIDTH:0.000000
;PERIMETER:0 LAYER:0 Z:0.300000 HEIGHT:0.300000 OVERLAP:0.000000 WIDTH:0.480000
G10
G0 X69.568716 Y67.068718 F2400.000000
G11
G1 X160.431283 Y67.068716 F1500.000000 E11.329275
G1 X160.431284 Y157.931281 E22.658550
G1 X69.568719 Y157.931284 E33.987824
G1 X69.568716 Y67.168718 E45.304631
;PERIMETER:1 LAYER:0 Z:0.300000 HEIGHT:0.300000 OVERLAP:0.000000 WIDTH:0.480000
G0 X69.088716 Y67.068718 F2400.000000
G1 X69.088716 Y66.588926 F1500.000000 E45.364454
G1 X160.911283 Y66.588716 E56.813428
G1 X160.911284 Y158.411281 E68.262401
G1 X69.088719 Y158.411284 E79.711374
G1 X69.088716 Y67.168718 E91.088030
;PERIMETER:2 LAYER:0 Z:0.300000 HEIGHT:0.300000 OVERLAP:0.000000 WIDTH:0.480000
G0 X68.608715 Y67.068718 F2400.000000
G1 X68.608715 Y66.108821 F1500.000000 E91.207715
G1 X161.391284 Y66.108715 E102.776387
G1 X161.391285 Y158.891282 E114.345059
G1 X68.608718 Y158.891285 E125.913731
G1 X68.608715 Y67.168718 E137.350236
;WALL LAYER:0 Z:0.300000 HEIGHT:0.300000 OVERLAP:0.200000 WIDTH:0.480000
;PERIMETER:1 LAYER:0 Z:0.300000 HEIGHT:0.300000 OVERLAP:0.200000 WIDTH:0.300000
G10
G0 X85.558716 Y83.058718 F1800.000000
G11
G1 X144.441282 Y83.058716 F600.000000 E141.739852
G1 X144.441284 Y141.941281 E146.129469
G1 X85.558719 Y141.941284 E150.519086
G1 X85.558716 Y83.108718 E154.904975
;PERIMETER:0 LAYER:0 Z:0.300000 HEIGHT:0.300000 OVERLAP:0.200000 WIDTH:0.600000
G0 X85.108716 Y83.058718 F1800.000000
G1 X85.108716 Y82.608940 F600.000000 E154.978986
G1 X144.891282 Y82.608716 E164.816127
G1 X144.891284 Y142.391280 E174.653269
G1 X85.108720 Y142.391284 E184.490410
G1 X85.108716 Y83.108718 E194.245277
;INFILL LAYER:0 Z:0.300000 HEIGHT:0.300000 OVERLAP:0.200000 WIDTH:0.480000
G0 X85.708716 Y83.318089 F2400.000000
G1 X85.818087 Y83.208718 F900.000000 E194.265160
G0 X86.496909 Y83.208718 F2400.000000
G1 X85.708716 Y83.996911 F900.000000 E194.408450
G0 X85.708716 Y84.675734 F2400.000000
G1 X87.175732 Y83.208718 F900.000000 E194.675146
G0 X87.854554 Y83.208718 F2400.000000
G1 X85.708716 Y85.354556 F900.000000 E195.065250
G0 X85.708716 Y86.033379 F2400.000000
G1 X88.533377 Y83.208718 F900.000000 E195.578759
G0 X89.212199 Y83.208718 F2400.000000
G1 X85.708716 Y86.712201 F900.000000 E196.215676
G0 X85.708716 Y87.391024 F2400.000000
G1 X89.891022 Y83.208718 F900.000000 E196.975999
G0 X90.569844 Y83.208718 F2400.000000
G1 X85.708716 Y88.069846 F900.000000 E197.859729
G0 X85.708716 Y88.748669 F2400.000000
G1 X91.248667 Y83.208718 F900.000000 E198.866866
G0 X91.927489 Y83.208718 F2400.000000
G1 X85.708716 Y89.427491 F900.000000 E199.997410
G0 X85.708716 Y90.106314 F2400.000000
G1 X92.606312 Y83.208718 F900.000000 E201.251360
G0 X93.285134 Y83.208718 F2400.000000
G1 X85.708716 Y90.785136 F900.000000 E202.628717
G0 X85.708716 Y91.463959 F2400.000000
G1 X93.963957 Y83.208718 F900.000000 E204.129480
G0 X94.642779 Y83.208718 F2400.000000
G1 X85.708716 Y92.142781 F900.000000 E205.753651
G0 X85.708716 Y92.821604 F2400.000000
G1 X95.321602 Y83.208718 F900.000000 E207.501228
G0 X96.000424 Y83.208718 F2400.000000
G1 X85.708716 Y93.500426 F900.000000 E209.372212
G0 X85.708716 Y94.179249 F2400.000000
G1 X96.679247 Y83.208718 F900.000000 E211.366602
G0 X97.358069 Y83.208718 F2400.000000
G1 X85.708716 Y94.858071 F900.000000 E213.484400
G0 X85.708716 Y95.536894 F2400.000000
G1 X98.036892 Y83.208718 F900.000000 E215.725604
G0 X98.715714 Y83.208718 F2400.000000
G1 X85.708716 Y96.215716 F900.000000 E218.090214
G0 X85.708716 Y96.894539 F2400.000000
G1 X99.394537 Y83.208718 F900.000000 E220.578232
G0 X100.073359 Y83.208718 F2400.000000
G1 X85.708716 Y97.573361 F900.000000 E223.189656
G0 X85.708717 Y98.252183 F2400.000000
G1 X100.752183 Y83.208717 F900.000000 E225.924487
G0 X101.431005 Y83.208717 F2400.000000
G1 X85.708717 Y98.931005 F900.000000 E228.782724
G0 X85.708717 Y99.609828 F2400.000000
G1 X102.109828 Y83.208717 F900.000000 E231.764369
G0 X102.788651 Y83.208717 F2400.000000
G1 X85.708717 Y100.288651 F900.000000 E234.869420
G0 X85.708717 Y100.967473 F2400.000000
G1 X103.467473 Y83.208717 F900.000000 E238.097878
G0 X104.146296 Y83.208717 F2400.000000
G1 X85.708717 Y101.646296 F900.000000 E241.449742
G0 X85.708717 Y102.325118 F2400.000000
G1 X104.825118 Y83.208717 F900.000000 E244.925013
G0 X105.503941 Y83.208717 F2400.000000
G1 X85.708717 Y103.003941 F900.000000 E248.523691
G0 X85.708717 Y103.682763 F2400.000000
G1 X106.182763 Y83.208717 F900.000000 E252.245776
G0 X106.861586 Y83.208717 F2400.000000
G1 X85.708717 Y104.361586 F900.000000 E256.091267
G0 X85.708717 Y105.040408 F2400.000000
G1 X107.540408 Y83.208717 F900.000000 E260.060165
G0 X108.219231 Y83.208717 F2400.000000
G1 X85.708717 Y105.719231 F900.000000 E264.152470
G0 X85.708717 Y106.398053 F2400.000000
G1 X108.898053 Y83.208717 F900.000000 E268.368182
G0 X109.576876 Y83.208717 F2400.000000
G1 X85.708717 Y107.076876 F900.000000 E272.707300
G0 X85.708717 Y107.755698 F2400.000000
G1 X110.255698 Y83.208717 F900.000000 E277.169825
G0 X110.934521 Y83.208717 F2400.000000
G1 X85.708717 Y108.434521 F900.000000 E281.755757
G0 X85.708717 Y109.113343 F2400.000000
G1 X111.613343 Y83.208717 F900.000000 E286.465095
G0 X112.292166 Y83.208717 F2400.000000
G1 X85.708717 Y109.792166 F900.000000 E291.297840
G0 X85.708717 Y110.470988 F2400.000000
G1 X112.970988 Y83.208717 F900.000000 E296.253992
G0 X113.649811 Y83.208717 F2400.000000
G1 X85.708717 Y111.149811 F900.000000 E301.333551
G0 X85.708717 Y111.828633 F2400.000000
G1 X114.328633 Y83.208717 F900.000000 E306.536516
G0 X115.007456 Y83.208717 F2400.000000
G1 X85.708717 Y112.507456 F900.000000 E311.862888
G0 X85.708717 Y113.186278 F2400.000000
G1 X115.686278 Y83.208717 F900.000000 E317.312667
G0 X116.365101 Y83.208717 F2400.000000
G1 X85.708717 Y113.865101 F900.000000 E322.885853
G0 X85.708717 Y114.543923 F2400.000000
G1 X117.043923 Y83.208717 F900.000000 E328.582445
G0 X117.722746 Y83.208717 F2400.000000
G1 X85.708717 Y115.222746 F900.000000 E334.402444
G0 X85.708717 Y115.901568 F2400.000000
G1 X118.401568 Y83.208717 F900.000000 E340.345849
G0 X119.080391 Y83.208717 F2400.000000
G1 X85.708717 Y116.580391 F900.000000 E346.412662
G0 X85.708717 Y117.259213 F2400.000000
G1 X119.759213 Y83.208717 F900.000000 E352.602881
G0 X120.438036 Y83.208717 F2400.000000
G1 X85.708717 Y117.938036 F900.000000 E358.916507
G0 X85.708717 Y118.616858 F2400.000000
G1 X121.116858 Y83.208717 F900.000000 E365.353539
G0 X121.795681 Y83.208717 F2400.000000
G1 X85.708717 Y119.295681 F900.000000 E371.913979
G0 X85.708717 Y119.974504 F2400.000000
G1 X122.474504 Y83.208717 F900.000000 E378.597825
G0 X123.153326 Y83.208717 F2400.000000
G1 X85.708717 Y120.653326 F900.000000 E385.405077
G0 X85.708717 Y121.332149 F2400.000000
G1 X123.832149 Y83.208717 F900.000000 E392.335737
G0 X124.510971 Y83.208717 F2400.000000
G1 X85.708717 Y122.010971 F900.000000 E399.389803
G0 X85.708717 Y122.689794 F2400.000000
G1 X125.189794 Y83.208717 F900.000000 E406.567276
G0 X125.868616 Y83.208717 F2400.000000
G1 X85.708717 Y123.368616 F900.000000 E413.868155
G0 X85.708717 Y124.047439 F2400.000000
G1 X126.547439 Y83.208717 F900.000000 E421.292442
G0 X127.226261 Y83.208717 F2400.000000
G1 X85.708717 Y124.726261 F900.000000 E428.840135
G0 X85.708717 Y125.405084 F2400.000000
G1 X127.905084 Y83.208717 F900.000000 E436.511235
G0 X128.583906 Y83.208717 F2400.000000
G1 X85.708717 Y126.083906 F900.000000 E444.305741
G0 X85.708717 Y126.762729 F2400.000000
G1 X129.262729 Y83.208717 F900.000000 E452.223654
G0 X129.941552 Y83.208716 F2400.000000
G1 X85.708718 Y127.441550 F900.000000 E460.264974
G0 X85.708718 Y128.120373 F2400.000000
G1 X130.620375 Y83.208716 F900.000000 E468.429701
G0 X131.299197 Y83.208716 F2400.000000
G1 X85.708718 Y128.799195 F900.000000 E476.717834
G0 X85.708718 Y129.478018 F2400.000000
G1 X131.978020 Y83.208716 F900.000000 E485.129374
G0 X132.656842 Y83.208716 F2400.000000
G1 X85.708718 Y130.156840 F900.000000 E493.664321
G0 X85.708718 Y130.835663 F2400.000000
G1 X133.335665 Y83.208716 F900.000000 E502.322675
G0 X134.014486 Y83.208716 F2400.000000
G1 X85.708718 Y131.514484 F900.000000 E511.104435
G0 X85.708718 Y132.193307 F2400.000000
G1 X134.693309 Y83.208716 F900.000000 E520.009602
G0 X135.372131 Y83.208716 F2400.000000
G1 X85.708718 Y132.872129 F900.000000 E529.038175
G0 X85.708718 Y133.550952 F2400.000000
G1 X136.050954 Y83.208716 F900.000000 E538.190156
G0 X136.729776 Y83.208716 F2400.000000
G1 X85.708718 Y134.229774 F900.000000 E547.465543
G0 X85.708718 Y134.908597 F2400.000000
G1 X137.408599 Y83.208716 F900.000000 E556.864336
G0 X138.087421 Y83.208716 F2400.000000
G1 X85.708718 Y135.587420 F900.000000 E566.386537
G0 X85.708718 Y136.266242 F2400.000000
G1 X138.766244 Y83.208716 F900.000000 E576.032144
G0 X139.445066 Y83.208716 F2400.000000
G1 X85.708718 Y136.945065 F900.000000 E585.801158
G0 X85.708718 Y137.623887 F2400.000000
G1 X140.123889 Y83.208716 F900.000000 E595.693578
G0 X140.802711 Y83.208716 F2400.000000
G1 X85.708718 Y138.302710 F900.000000 E605.709406
G0 X85.708718 Y138.981532 F2400.000000
G1 X141.481534 Y83.208716 F900.000000 E615.848640
G0 X142.160357 Y83.208716 F2400.000000
G1 X85.708718 Y139.660355 F900.000000 E626.111281
G0 X85.708718 Y140.339177 F2400.000000
G1 X142.839179 Y83.208716 F900.000000 E636.497328
G0 X143.518002 Y83.208716 F2400.000000
G1 X85.708718 Y141.018000 F900.000000 E647.006782
G0 X85.708718 Y141.696822 F2400.000000
G1 X144.196824 Y83.208716 F900.000000 E657.639643
G0 X144.291284 Y83.793079 F2400.000000
G1 X86.293079 Y141.791284 F900.000000 E668.183442
G0 X86.971902 Y141.791284 F2400.000000
G1 X144.291284 Y84.471902 F900.000000 E678.603835
G0 X144.291284 Y85.150724 F2400.000000
G1 X87.650724 Y141.791284 F900.000000 E688.900821
G0 X88.329547 Y141.791284 F2400.000000
G1 X144.291284 Y85.829547 F900.000000 E699.074400
G0 X144.291284 Y86.508369 F2400.000000
G1 X89.008369 Y141.791284 F900.000000 E709.124572
G0 X89.687192 Y141.791284 F2400.000000
G1 X144.291284 Y87.187192 F900.000000 E719.051337
G0 X144.291284 Y87.866014 F2400.000000
G1 X90.366014 Y141.791284 F900.000000 E728.854696
G0 X91.044837 Y141.791284 F2400.000000
G1 X144.291284 Y88.544837 F900.000000 E738.534648
G0 X144.291284 Y89.223660 F2400.000000
G1 X91.723660 Y141.791284 F900.000000 E748.091194
G0 X92.402482 Y141.791284 F2400.000000
G1 X144.291284 Y89.902482 F900.000000 E757.524332
G0 X144.291284 Y90.581305 F2400.000000
G1 X93.081305 Y141.791284 F900.000000 E766.834064
G0 X93.760127 Y141.791284 F2400.000000
G1 X144.291284 Y91.260127 F900.000000 E776.020389
G0 X144.291284 Y91.938950 F2400.000000
G1 X94.438950 Y141.791284 F900.000000 E785.083308
G0 X95.117772 Y141.791284 F2400.000000
G1 X144.291284 Y92.617772 F900.000000 E794.022820
G0 X144.291284 Y93.296595 F2400.000000
G1 X95.796595 Y141.791284 F900.000000 E802.838925
G0 X96.475417 Y141.791284 F2400.000000
G1 X144.291284 Y93.975417 F900.000000 E811.531623
G0 X144.291284 Y94.654240 F2400.000000
G1 X97.154240 Y141.791284 F900.000000 E820.100915
G0 X97.833062 Y141.791284 F2400.000000
G1 X144.291284 Y95.333062 F900.000000 E828.546800
G0 X144.291284 Y96.011885 F2400.000000
G1 X98.511885 Y141.791284 F900.000000 E836.869278
G0 X99.190707 Y141.791284 F2400.000000
G1 X144.291284 Y96.690707 F900.000000 E845.068349
G0 X144.291284 Y97.369530 F2400.000000
G1 X99.869530 Y141.791284 F900.000000 E853.144014
G0 X100.548353 Y141.791283 F2400.000000
G1 X144.291284 Y98.048352 F900.000000 E861.096272
G0 X144.291284 Y98.727175 F2400.000000
G1 X101.227176 Y141.791283 F900.000000 E868.925123
G0 X101.905998 Y141.791283 F2400.000000
G1 X144.291284 Y99.405997 F900.000000 E876.630567
G0 X144.291284 Y100.084820 F2400.000000
G1 X102.584821 Y141.791283 F900.000000 E884.212605
G0 X103.263643 Y141.791283 F2400.000000
G1 X144.291284 Y100.763642 F900.000000 E891.671236
G0 X144.291284 Y101.442465 F2400.000000
G1 X103.942466 Y141.791283 F900.000000 E899.006460
G0 X104.621288 Y141.791283 F2400.000000
G1 X144.291284 Y102.121287 F900.000000 E906.218277
G0 X144.291284 Y102.800110 F2400.000000
G1 X105.300111 Y141.791283 F900.000000 E913.306688
G0 X105.978933 Y141.791283 F2400.000000
G1 X144.291284 Y103.478932 F900.000000 E920.271692
G0 X144.291284 Y104.157755 F2400.000000
G1 X106.657756 Y141.791283 F900.000000 E927.113290
G0 X107.336578 Y141.791283 F2400.000000
G1 X144.291284 Y104.836577 F900.000000 E933.831480
G0 X144.291284 Y105.515400 F2400.000000
G1 X108.015401 Y141.791283 F900.000000 E940.426264
G0 X108.694223 Y141.791283 F2400.000000
G1 X144.291284 Y106.194222 F900.000000 E946.897641
G0 X144.291284 Y106.873045 F2400.000000
G1 X109.373046 Y141.791283 F900.000000 E953.245612
G0 X110.051868 Y141.791283 F2400.000000
G1 X144.291284 Y107.551867 F900.000000 E959.470175
G0 X144.291284 Y108.230690 F2400.000000
G1 X110.730691 Y141.791283 F900.000000 E965.571332
G0 X111.409513 Y141.791283 F2400.000000
G1 X144.291284 Y108.909513 F900.000000 E971.549083
G0 X144.291284 Y109.588335 F2400.000000
G1 X112.088336 Y141.791283 F900.000000 E977.403426
G0 X112.767159 Y141.791283 F2400.000000
G1 X144.291284 Y110.267158 F900.000000 E983.134363
G0 X144.291284 Y110.945980 F2400.000000
G1 X113.445981 Y141.791283 F900.000000 E988.741893
G0 X114.124804 Y141.791283 F2400.000000
G1 X144.291284 Y111.624803 F900.000000 E994.226016
G0 X144.291284 Y112.303625 F2400.000000
G1 X114.803626 Y141.791283 F900.000000 E999.586733
G0 X115.482449 Y141.791283 F2400.000000
G1 X144.291284 Y112.982448 F900.000000 E1004.824043
G0 X144.291284 Y113.661270 F2400.000000
G1 X116.161271 Y141.791283 F900.000000 E1009.937946
G0 X116.840094 Y141.791283 F2400.000000
G1 X144.291284 Y114.340093 F900.000000 E1014.928443
G0 X144.291284 Y115.018915 F2400.000000
G1 X117.518916 Y141.791283 F900.000000 E1019.795532
G0 X118.197739 Y141.791283 F2400.000000
G1 X144.291284 Y115.697738 F900.000000 E1024.539215
G0 X144.291284 Y116.376560 F2400.000000
G1 X118.876561 Y141.791283 F900.000000 E1029.159492
G0 X119.555384 Y141.791283 F2400.000000
G1 X144.291284 Y117.055383 F900.000000 E1033.656361
G0 X144.291284 Y117.734205 F2400.000000
G1 X120.234206 Y141.791283 F900.000000 E1038.029824
G0 X120.913029 Y141.791283 F2400.000000
G1 X144.291284 Y118.413028 F900.000000 E1042.279880
G0 X144.291284 Y119.091850 F2400.000000
G1 X121.591851 Y141.791283 F900.000000 E1046.406530
G0 X122.270674 Y141.791283 F2400.000000
G1 X144.291284 Y119.770673 F900.000000 E1050.409772
G0 X144.291284 Y120.449495 F2400.000000
G1 X122.949496 Y141.791283 F900.000000 E1054.289608
G0 X123.628319 Y141.791283 F2400.000000
G1 X144.291284 Y121.128318 F900.000000 E1058.046038
G0 X144.291284 Y121.807140 F2400.000000
G1 X124.307141 Y141.791283 F900.000000 E1061.679060
G0 X124.985964 Y141.791283 F2400.000000
G1 X144.291284 Y122.485963 F900.000000 E1065.188676
G0 X144.291284 Y123.164785 F2400.000000
G1 X125.664786 Y141.791283 F900.000000 E1068.574885
G0 X126.343609 Y141.791283 F2400.000000
G1 X144.291284 Y123.843608 F900.000000 E1071.837687
G0 X144.291284 Y124.522430 F2400.000000
G1 X127.022431 Y141.791283 F900.000000 E1074.977083
G0 X127.701254 Y141.791283 F2400.000000
G1 X144.291284 Y125.201253 F900.000000 E1077.993072
G0 X144.291284 Y125.880075 F2400.000000
G1 X128.380076 Y141.791283 F900.000000 E1080.885654
G0 X129.058899 Y141.791283 F2400.000000
G1 X144.291284 Y126.558898 F900.000000 E1083.654830
G0 X144.291284 Y127.237720 F2400.000000
G1 X129.737722 Y141.791282 F900.000000 E1086.300598
G0 X130.416545 Y141.791282 F2400.000000
G1 X144.291284 Y127.916543 F900.000000 E1088.822960
G0 X144.291284 Y128.595366 F2400.000000
G1 X131.095367 Y141.791282 F900.000000 E1091.221915
G0 X131.774190 Y141.791282 F2400.000000
G1 X144.291284 Y129.274188 F900.000000 E1093.497464
G0 X144.291284 Y129.953011 F2400.000000
G1 X132.453012 Y141.791282 F900.000000 E1095.649605
G0 X133.131835 Y141.791282 F2400.000000
G1 X144.291284 Y130.631833 F900.000000 E1097.678340
G0 X144.291284 Y131.310656 F2400.000000
G1 X133.810658 Y141.791282 F900.000000 E1099.583669
