;FLAVOR:UltiGCode
;MATERIAL:111
;TIME:219
M140 S230
G0 X129.279549 Y127.965498 Z0.200000 F900.000000
G1 X129.074466 Y127.296301 E0.062386
G1 X129.756019 Y127.040720 E0.127265
G1 X129.968727 Y127.348885 E0.160641
G1 X129.778549 Y127.565329 E0.186322
G1 X129.701091 Y127.942320 E0.220626
G1 X129.279549 Y127.965498 E0.258256
G0 X94.726411 Y128.128909
G1 X94.556828 Y128.410098 E0.287524
G1 X94.094750 Y128.329779 E0.329328
G1 X93.974923 Y127.767221 E0.380596
G1 X94.322012 Y127.606242 E0.414698
G1 X94.726411 Y128.128909 E0.473601
G0 X89.512072 Y116.518332 Z0.400000
G1 X89.240174 Y116.976909 E0.521120
G1 X88.458680 Y116.339193 E0.611025
G1 X88.566943 Y116.023234 E0.640795
G1 X88.891620 Y116.015213 E0.669743
G1 X89.512072 Y116.518332 E0.740943
G0 X90.956038 Y112.608132
G1 X90.761106 Y111.974522 E0.800031
G1 X91.213223 Y111.953964 E0.840371
G1 X91.414041 Y112.063606 E0.860764
G1 X91.416891 Y112.345264 E0.885870
G1 X90.956038 Y112.608132 E0.933160
G0 X92.251698 Y110.464355
G1 X92.275109 Y109.727655 E0.998857
G1 X92.638304 Y109.646525 E1.032028
G1 X92.709243 Y109.785400 E1.045927
G1 X92.939220 Y109.696723 E1.067897
G1 X93.159552 Y109.900075 E1.094622
G1 X93.031034 Y110.327252 E1.134383
G1 X92.251698 Y110.464355 E1.204914
G0 X91.153410 Y112.196908
G1 X91.167803 Y112.211301 E1.206728
G0 X92.523541 Y110.172927
G1 X92.501772 Y110.151157 E1.209472
G0 X93.942883 Y128.509885
G1 X93.880467 Y127.419723 E1.306801
G1 X94.244655 Y127.061920 E1.352307
G1 X94.892672 Y128.601832 E1.501221
G1 X93.942883 Y128.509885 E1.586275
G0 X99.449101 Y131.721828
G1 X99.310315 Y131.146237 E1.639049
G1 X100.078279 Y131.348060 E1.709824
G1 X99.745912 Y131.784126 E1.758694
G1 X99.449101 Y131.721828 E1.785727
G0 X99.774930 Y130.830729
G1 X99.822911 Y130.301683 E1.833075
G1 X100.170081 Y130.217079 E1.864925
G1 X100.361822 Y130.428447 E1.890362
G1 X100.189393 Y130.920613 E1.936844
G1 X99.774930 Y130.830729 E1.974645
G0 X94.368901 Y128.310027
G1 X94.159865 Y128.100991 E2.000995
G0 X100.038183 Y130.585196
G1 X100.048981 Y130.595994 E2.002356
G0 X105.671091 Y131.601944
G1 X105.474449 Y131.385214 E2.028440
G1 X105.662559 Y131.078249 E2.060529
G1 X105.857869 Y131.131487 E2.078573
G1 X106.061908 Y131.082626 E2.097274
G1 X106.253166 Y131.287335 E2.122244
G1 X106.077895 Y131.841154 E2.174021
G1 X105.675348 Y131.783584 E2.210266
G1 X105.671091 Y131.601944 E2.226460
G0 X105.690650 Y132.487558
G1 X105.680139 Y132.008963 E2.269129
G1 X106.137031 Y132.138519 E2.311459
G1 X106.195581 Y132.424166 E2.337449
G1 X105.962157 Y132.613238 E2.364224
G1 X105.690650 Y132.487558 E2.390891
G0 X112.283466 Y130.668684
G1 X112.193261 Y130.324946 E2.422566
G1 X112.530562 Y130.116873 E2.457891
G1 X113.113698 Y130.286128 E2.512013
G1 X113.179717 Y130.555236 E2.536710
G1 X112.745026 Y130.971240 E2.590339
G1 X112.885425 Y131.506186 E2.639636
G1 X112.571435 Y131.690213 E2.672075
G1 X112.087857 Y131.223145 E2.732000
G1 X112.415401 Y131.007743 E2.766942
G1 X112.310333 Y130.667046 E2.798720
G1 X112.283466 Y130.668684 E2.801120
G0 X112.793676 Y130.443062
G1 X112.870177 Y130.519563 E2.810763
G0 X129.160081 Y128.265862
G1 X128.926813 Y127.093245 E2.917329
G1 X130.060684 Y126.825343 E3.021177
G1 X130.237120 Y127.142333 E3.053513
G1 X129.803151 Y127.574938 E3.108130
G1 X129.957198 Y128.227236 E3.167870
G1 X129.436850 Y128.112299 E3.215368
G1 X129.160081 Y128.265862 E3.243580
G0 X129.539366 Y127.502898
G1 X129.290361 Y127.253894 E3.274968
G0 X129.839483 Y127.124193
G1 X129.877472 Y127.162182 E3.279757
G0 X132.937391 Y125.491551
G1 X133.616751 Y124.559133 E3.382585
G1 X133.889729 Y124.492526 E3.407631
G1 X134.079566 Y124.748748 E3.436054
G1 X133.912775 Y125.029682 E3.465175
G1 X134.142748 Y125.732563 E3.531093
G1 X132.937391 Y125.491551 E3.640656
G0 X134.961596 Y122.678328
G1 X134.765128 Y122.284433 E3.679890
G1 X135.230743 Y121.999549 E3.728543
G1 X135.642026 Y122.409003 E3.780271
G1 X134.961596 Y122.678328 E3.845498
G0 X135.598294 Y117.875092
G1 X135.479131 Y118.209914 E3.877175
G1 X134.697805 Y118.173787 E3.946892
G1 X134.407259 Y117.373200 E4.022804
G1 X134.435304 Y116.862671 E4.068378
G1 X134.757869 Y116.765715 E4.098399
G1 X135.075880 Y117.194294 E4.145967
G1 X135.343248 Y117.269101 E4.170714
G1 X135.348276 Y117.689756 E4.208211
G1 X135.598294 Y117.875092 E4.235951
G0 X131.543557 Y109.725705
G1 X131.346681 Y110.419362 E4.300220
G1 X130.554199 Y110.372354 E4.370981
G1 X130.711597 Y109.859531 E4.418794
G1 X130.667587 Y109.398149 E4.460105
G1 X131.317605 Y109.016739 E4.527281
G1 X131.543557 Y109.725705 E4.593605
G0 X133.690359 Y124.865666
G1 X133.715898 Y124.891205 E4.596824
G0 X133.404237 Y125.258367
G1 X133.506521 Y125.360651 E4.609717
G0 X134.914168 Y117.943605
G1 X134.844044 Y117.873481 E4.618556
G0 X135.105662 Y117.456277
G1 X135.099618 Y117.450233 E4.619318
G0 X131.178041 Y110.134542
G1 X130.948651 Y109.905153 E4.648233
G0 X131.218601 Y109.496281
G1 X131.128296 Y109.405975 E4.659617
G0 X124.730190 Y102.172189
G1 X124.578023 Y102.608816 E4.700830
G1 X124.255082 Y102.624913 E4.729650
G1 X124.075141 Y102.237057 E4.767760
G1 X124.298551 Y102.000707 E4.796749
G1 X124.730190 Y102.172189 E4.838147
G0 X116.573825 Y98.474401
G1 X116.698888 Y99.014770 E4.887585
G1 X116.407970 Y99.579843 E4.944234
G1 X115.545519 Y99.253365 E5.026430
G1 X116.289017 Y98.403097 E5.127105
G1 X116.573825 Y98.474401 E5.153274
G0 X115.637069 Y98.860919
G1 X115.432117 Y99.210153 E5.189367
G1 X114.880644 Y99.001548 E5.241920
G1 X115.161724 Y98.461275 E5.296203
G1 X115.637069 Y98.860919 E5.351557
G0 X109.802676 Y99.399720
G1 X109.792613 Y98.741257 E5.410254
G1 X110.170747 Y98.654220 E5.444840
G1 X110.516267 Y99.394416 E5.517649
G1 X109.802676 Y99.399720 E5.581255
G0 X107.872622 Y99.298998
G1 X107.932181 Y99.728887 E5.619939
G1 X107.647670 Y99.889331 E5.649052
G1 X107.011844 Y99.372547 E5.722084
G1 X107.303274 Y98.979803 E5.765675
G1 X107.714273 Y99.248322 E5.809434
G1 X107.872622 Y99.298998 E5.824253
G0 X104.322100 Y100.374356
G1 X104.334388 Y100.712037 E5.854371
G1 X103.899130 Y100.885972 E5.896150
G1 X103.779938 Y100.467828 E5.934905
G1 X103.985465 Y100.268020 E5.960454
G1 X104.322100 Y100.374356 E5.991921
G0 X103.746576 Y101.652955
G1 X103.989027 Y101.081112 E6.047283
G1 X104.289375 Y101.066048 E6.074087
G1 X104.577635 Y101.592739 E6.127604
G1 X103.746576 Y101.652955 E6.201872
G0 X116.032043 Y99.061481
G1 X116.224418 Y99.253855 E6.226122
G0 X116.388821 Y98.739435
G1 X116.348747 Y98.699362 E6.231173
G0 X107.660157 Y99.514287
G1 X107.614234 Y99.468364 E6.236962
G0 X104.570571 Y101.347368 Z0.600000
G1 X104.414233 Y101.703805 E6.271654
G1 X103.950214 Y101.607167 E6.313900
G1 X103.956463 Y101.224273 E6.348033
G1 X104.215291 Y101.093659 E6.373875
G1 X104.570571 Y101.347368 E6.412787
G0 X109.848784 Y99.410384
G1 X109.904504 Y98.812409 E6.466317
G1 X110.746694 Y99.088012 E6.545301
G1 X110.505378 Y99.569346 E6.593294
G1 X110.009604 Y99.464411 E6.638462
G1 X109.848784 Y99.410384 E6.653584
G0 X112.730414 Y97.615825
G1 X113.214692 Y97.118813 E6.715436
G1 X113.455503 Y97.630955 E6.765879
G1 X113.204240 Y97.869520 E6.796762
G1 X112.730414 Y97.615825 E6.844668
G0 X114.566791 Y97.757392
G1 X114.359127 Y97.449416 E6.877776
G1 X114.509067 Y97.187713 E6.904659
G1 X114.809215 Y97.208664 E6.931478
G1 X114.947956 Y97.555496 E6.964773
G1 X114.566791 Y97.757392 E7.003219
G0 X115.895681 Y99.338941
G1 X116.183281 Y98.816739 E7.056357
G1 X116.534887 Y98.895628 E7.088476
G1 X116.592815 Y99.838240 E7.172652
G1 X116.194411 Y99.776160 E7.208591
G1 X115.895681 Y99.338941 E7.255789
G0 X128.486426 Y108.739383
G1 X128.446532 Y108.045838 E7.317709
G1 X129.202522 Y108.011194 E7.385163
G1 X129.465323 Y108.413398 E7.427987
G1 X128.486426 Y108.739383 E7.519950
G0 X129.715600 Y107.650228
G1 X129.428136 Y107.450260 E7.551162
G1 X129.565908 Y107.001269 E7.593023
G1 X129.990422 Y107.082096 E7.631541
G1 X130.062209 Y107.384427 E7.659238
G1 X129.715600 Y107.650228 E7.698170
G0 X132.502971 Y111.791511
G1 X132.412263 Y111.337367 E7.739449
G1 X132.673388 Y111.158169 E7.767677
G1 X132.793839 Y111.234407 E7.780383
G1 X133.128275 Y111.239719 E7.810196
G1 X132.847106 Y111.833792 E7.868779
G1 X132.502971 Y111.791511 E7.899683
G0 X104.261692 Y101.421529
G1 X104.257139 Y101.426082 E7.900257
G0 X116.324369 Y99.541189
G1 X116.333629 Y99.531930 E7.901424
G0 X93.144571 Y109.700521
G1 X93.251369 Y110.448661 E7.968784
G1 X92.960839 Y110.596294 E7.997831
G1 X92.269781 Y110.233421 E8.067402
G1 X92.620915 Y109.661514 E8.127219
G1 X92.858956 Y109.897532 E8.157098
G1 X93.144571 Y109.700521 E8.188024
G0 X91.457400 Y112.022654
G1 X91.481169 Y112.365940 E8.218696
G1 X90.921679 Y112.599614 E8.272739
G1 X90.767384 Y112.172646 E8.313205
G1 X90.891853 Y111.874386 E8.342011
G1 X91.457400 Y112.022654 E8.394124
G0 X89.609914 Y116.400441
G1 X89.618541 Y116.744729 E8.424821
G1 X89.048561 Y116.953283 E8.478919
G1 X89.030597 Y116.683092 E8.503055
G1 X88.917668 Y116.581333 E8.516604
G1 X89.107591 Y116.245204 E8.551016
G1 X89.609914 Y116.400441 E8.597879
G0 X89.633817 Y121.806303
G1 X89.770566 Y121.451529 E8.631768
G1 X90.216560 Y121.513036 E8.671897
G1 X90.216139 Y121.893926 E8.705847
G1 X89.960907 Y122.028841 E8.731579
G1 X89.633817 Y121.806303 E8.766842
G0 X91.211525 Y126.753557
G1 X91.138096 Y126.205061 E8.816167
G1 X91.623215 Y125.859510 E8.869255
G1 X91.831037 Y126.754293 E8.951132
G1 X91.211525 Y126.753557 E9.006351
G0 X92.752146 Y110.215785
G1 X92.795377 Y110.172554 E9.011800
G0 X91.502357 Y126.399669
G1 X91.417632 Y126.484393 E9.022480
G0 X133.929599 Y116.409839
G1 X133.639300 Y116.004332 E9.066931
G1 X133.755713 Y115.751123 E9.091771
G1 X134.064489 Y115.724078 E9.119399
G1 X134.217971 Y115.985571 E9.146425
G1 X133.929599 Y116.409839 E9.192149
G0 X134.304477 Y117.466394
G1 X134.452220 Y117.017209 E9.234296
G1 X134.766246 Y116.988702 E9.262401
G1 X134.884932 Y117.206595 E9.284517
G1 X135.429664 Y117.335932 E9.334420
G1 X134.807292 Y118.200754 E9.429390
G1 X134.513633 Y118.152191 E9.455920
G1 X134.304477 Y117.466394 E9.519827
G0 X135.775252 Y118.671904
G1 X135.819149 Y118.205892 E9.561548
G1 X136.125349 Y118.111347 E9.590111
G1 X136.391324 Y118.432070 E9.627250
G1 X136.196596 Y118.897224 E9.672196
G1 X135.885189 Y118.904246 E9.699960
G1 X135.775252 Y118.671904 E9.722871
G0 X136.018725 Y120.208484
G1 X136.056335 Y119.665195 E9.771411
G1 X136.376177 Y119.570755 E9.801136
G1 X136.768346 Y120.094480 E9.859454
G1 X136.018725 Y120.208484 E9.927038
G0 X135.172034 Y122.188892
G1 X135.173400 Y122.546794 E9.958939
G1 X134.714856 Y122.685139 E10.001630
G1 X134.512115 Y122.485015 E10.027022
G1 X134.641887 Y122.033891 E10.068862
G1 X135.172034 Y122.188892 E10.118094
G0 X133.298294 Y124.848553
G1 X133.331236 Y124.338869 E10.163619
G1 X134.038515 Y124.626599 E10.231677
G1 X133.773304 Y125.008062 E10.273088
G1 X133.952064 Y125.376288 E10.309572
G1 X133.262546 Y125.403856 E10.371080
G1 X133.298294 Y124.848553 E10.420678
G0 X130.015051 Y127.243083
G1 X129.721793 Y127.590176 E10.461179
G1 X129.898586 Y127.889181 E10.492141
G1 X129.648375 Y128.152260 E10.524502
G1 X129.178464 Y127.904341 E10.571858
G1 X129.134390 Y127.063694 E10.646890
G1 X129.852043 Y126.952768 E10.711616
G1 X130.015051 Y127.243083 E10.741292
G0 X134.672129 Y117.849845
G1 X135.000776 Y117.521197 E10.782719
G0 X136.029811 Y118.528630
G1 X136.100848 Y118.457593 E10.791674
G0 X134.911148 Y122.362583
G1 X134.892819 Y122.380912 E10.793984
G0 X133.544538 Y125.086839
G1 X133.521932 Y125.109445 E10.796834
G0 X129.532233 Y127.741498
G1 X129.481006 Y127.792726 E10.803291
G0 X112.808089 Y130.195288
G1 X112.770504 Y130.862394 E10.862846
G1 X112.014736 Y130.567053 E10.935171
G1 X112.468361 Y129.951353 E11.003336
G1 X112.747990 Y130.136695 E11.033238
G1 X112.808089 Y130.195288 E11.040719
G0 X106.262288 Y131.180881
G1 X106.052999 Y131.637502 E11.085491
G1 X105.628833 Y131.422306 E11.127885
G1 X105.636684 Y131.119231 E11.154908
G1 X106.029209 Y130.945085 E11.193184
G1 X106.262288 Y131.180881 E11.222736
G0 X112.513923 Y130.504536
G1 X112.552456 Y130.466002 E11.227593
G0 X116.224864 Y99.959209 Z0.800000
G1 X116.083621 Y99.613715 E11.260862
G1 X116.410930 Y99.396092 E11.295896
G1 X116.685236 Y99.670744 E11.330494
G1 X116.555491 Y99.969909 E11.359560
G1 X116.224864 Y99.959209 E11.389045
G0 X131.160019 Y109.100779
G1 X131.215270 Y108.555856 E11.437864
G1 X131.759830 Y108.730602 E11.488840
G1 X132.021924 Y109.216089 E11.538016
G1 X131.742145 Y109.739447 E11.590912
G1 X131.317739 Y109.183455 E11.653257
G1 X131.160019 Y109.100779 E11.669129
G0 X121.103957 Y130.337105
G1 X120.967676 Y130.729439 E11.706149
G1 X120.638270 Y130.712344 E11.735549
G1 X120.371611 Y130.607231 E11.761097
G1 X120.392768 Y130.259303 E11.792166
G1 X120.909088 Y130.125835 E11.839700
G1 X121.103957 Y130.337105 E11.865318
G0 X130.524945 Y107.354561 Z1.000000
G1 X130.129015 Y107.148083 E11.905119
G1 X130.370382 Y106.732900 E11.947924
G1 X130.702732 Y106.794546 E11.978053
G1 X130.765054 Y107.181191 E12.012961
G1 X130.524945 Y107.354561 E12.039358
G0 X113.385474 Y99.994509 Z3.400000
G1 X113.357844 Y100.442267 E12.079344
G1 X112.554952 Y100.446868 E12.150909
G1 X112.520176 Y100.001933 E12.190688
G1 X112.944799 Y99.937537 E12.228969
G1 X113.385474 Y99.994509 E12.268574
G0 X114.696728 Y100.630470
G1 X114.772875 Y100.174292 E12.309797
G1 X116.384137 Y100.382615 E12.454609
G1 X119.651717 Y101.704093 E12.768773
G1 X123.118741 Y104.028623 E13.140829
G1 X124.733925 Y105.589941 E13.341061
G1 X124.421576 Y105.934238 E13.382496
G1 X122.870565 Y104.613972 E13.564045
G1 X119.522998 Y102.345563 E13.924476
G1 X116.498909 Y100.999710 E14.219510
G1 X114.696728 Y100.630470 E14.383480
G0 X112.967816 Y100.182452
G1 X112.945534 Y100.204735 E14.386289
G0 X115.346871 Y100.518687
G1 X115.371946 Y100.493612 E14.389449
G0 X115.910265 Y100.634116
G1 X115.972980 Y100.571402 E14.397355
G0 X116.473658 Y100.749545
G1 X116.524823 Y100.698380 E14.403804
G0 X116.959865 Y100.942161
G1 X117.008168 Y100.893857 E14.409893
G0 X117.429625 Y101.151223
G1 X117.491513 Y101.089334 E14.417694
G0 X117.899384 Y101.360287
G1 X117.974858 Y101.284812 E14.427208
G0 X118.369143 Y101.569349
G1 X118.458203 Y101.480289 E14.438434
G0 X118.838903 Y101.778412
G1 X118.941549 Y101.675766 E14.451373
G0 X119.308662 Y101.987475
G1 X119.424894 Y101.871243 E14.466024
G0 X119.759231 Y102.215730
G1 X119.849389 Y102.125571 E14.477389
G0 X120.163863 Y102.489920
G1 X120.255755 Y102.398027 E14.488972
G0 X120.568496 Y102.764110
G1 X120.662122 Y102.670484 E14.500774
G0 X120.973128 Y103.038300
G1 X121.068487 Y102.942941 E14.512794
G0 X121.377761 Y103.312490
G1 X121.474854 Y103.215397 E14.525033
G0 X121.782393 Y103.586679
G1 X121.881220 Y103.487853 E14.537491
G0 X122.187026 Y103.860869
G1 X122.287586 Y103.760309 E14.550166
G0 X122.591659 Y104.135059
G1 X122.693952 Y104.032766 E14.563061
G0 X122.996291 Y104.409249
G1 X123.080291 Y104.325250 E14.573649
G0 X123.425457 Y104.658906
G1 X123.364799 Y104.719563 E14.581295
G0 X123.731451 Y105.031734
G1 X123.770623 Y104.992562 E14.586233
G0 X124.115790 Y105.326218
G1 X124.098103 Y105.343905 E14.588463
G0 X133.797948 Y120.756497 Z3.600000
G1 X133.743266 Y118.490528 E14.790493
G1 X134.147144 Y118.417241 E14.827080
G1 X134.243346 Y118.693149 E14.853125
G1 X134.356731 Y120.691669 E15.031545
G1 X133.841310 Y122.449833 E15.194850
G1 X132.695320 Y123.961860 E15.363956
G1 X130.905406 Y125.211666 E15.558539
G1 X127.206041 Y126.531374 E15.908627
G1 X120.104730 Y127.872937 E16.552782
G1 X120.003596 Y127.419814 E16.594164
G1 X121.172253 Y127.118181 E16.701743
G1 X124.383609 Y126.577682 E16.992006
G1 X129.658649 Y125.117076 E17.479876
G1 X131.960164 Y123.820319 E17.715338
G1 X133.233260 Y122.328884 E17.890119
G1 X133.797948 Y120.756497 E18.039034
G0 X133.679339 Y118.495801
G1 X132.528601 Y115.657001 E18.312062
G1 X130.040589 Y111.943427 E18.710485
G1 X126.703928 Y108.205577 E19.157082
G1 X122.971273 Y104.835800 E19.605306
G1 X119.580862 Y102.491048 E19.972731
G1 X116.427586 Y101.099162 E20.279955
G1 X113.560388 Y100.562292 E20.539958
G1 X110.454455 Y100.678240 E20.816991
G1 X107.178427 Y101.622583 E21.120882
