;FLAVOR:UltiGCode
;MATERIAL:1175
;TIME:0
G0 X0.000000 Y0.000000 Z0.300000
;BRIM LAYER:0 Z:0.300000 HEIGHT:0.300000 OVERLAP:0.000000 WIDTH:0.000000
;PERIMETER:0 LAYER:0 Z:0.300000 HEIGHT:0.300000 OVERLAP:0.000000 WIDTH:0.480000
G10
G0 X114.763341 Y104.376004 F2400.000000
G11
G1 X129.443207 Y125.193044 F1500.000000 E3.176058
G1 X130.642744 Y129.335626 E3.713798
G1 X130.986265 Y132.082149 E4.058919
G1 X130.828154 Y135.736938 E4.515045
G1 X129.754091 Y139.748786 E5.032883
G1 X117.621040 Y160.946053 E8.078218
G1 X101.313268 Y142.380549 E11.159299
G1 X99.345954 Y137.814747 E11.779188
G1 X98.780317 Y133.654539 E12.302679
G1 X98.993659 Y129.860628 E12.776474
G1 X100.307772 Y125.280655 E13.370573
G1 X114.706465 Y104.458255 E16.527107
;PERIMETER:1 LAYER:0 Z:0.300000 HEIGHT:0.300000 OVERLAP:0.000000 WIDTH:0.480000
G0 X115.155615 Y104.099379 F2400.000000
G1 X129.881877 Y124.982210 F1500.000000 E19.713203
G1 X131.114335 Y129.238488 E20.265701
G1 X131.467560 Y132.062601 E20.620572
G1 X131.305432 Y135.810247 E21.088288
G1 X130.201640 Y139.933137 E21.620458
G1 X117.703837 Y161.767647 E24.757343
G1 X100.902508 Y142.640252 E27.931674
G1 X98.879171 Y137.944428 E28.569216
G1 X98.298488 Y133.673572 E29.106631
G1 X98.517437 Y129.779960 E29.592876
G1 X99.868132 Y125.072491 E30.203514
G1 X114.759482 Y103.537643 E33.468050
G1 X115.097984 Y104.017655 E33.541286
;PERIMETER:2 LAYER:0 Z:0.300000 HEIGHT:0.300000 OVERLAP:0.000000 WIDTH:0.480000
G0 X115.547888 Y103.822754 F2400.000000
G1 X130.320546 Y124.771375 F1500.000000 E36.737420
G1 X131.585925 Y129.141349 E37.304676
G1 X131.948855 Y132.043052 E37.669297
G1 X131.782709 Y135.883557 E38.148601
G1 X130.649188 Y140.117489 E38.695104
G1 X117.786635 Y162.589241 E41.923540
G1 X100.491747 Y142.899956 E45.191121
G1 X98.412387 Y138.074109 E45.846315
G1 X97.816659 Y133.692605 E46.397654
G1 X98.041215 Y129.699291 E46.896350
G1 X99.428492 Y124.864327 E47.523526
G1 X114.755626 Y102.699279 E50.883596
G1 X115.490257 Y103.741031 E51.042536
;WALL LAYER:0 Z:0.300000 HEIGHT:0.300000 OVERLAP:0.200000 WIDTH:0.480000
;PERIMETER:0 LAYER:0 Z:0.300000 HEIGHT:0.300000 OVERLAP:0.200000 WIDTH:0.600000
G10
G0 X114.888176 Y131.518020 F1800.000000
G11
G1 X115.241220 Y132.018660 F600.000000 E51.143339
G1 X115.398479 Y132.599517 E51.242359
G1 X115.378575 Y133.367774 E51.368818
G1 X115.264720 Y133.780278 E51.439233
G1 X114.940504 Y134.346821 E51.546642
G1 X114.611793 Y133.972820 E51.628575
G1 X114.458191 Y133.616494 E51.692424
G1 X114.379538 Y133.038520 E51.788405
G1 X114.411341 Y132.472385 E51.881709
G1 X114.541076 Y132.020090 E51.959134
G1 X114.859738 Y131.559145 E52.051343
;INFILL LAYER:0 Z:0.300000 HEIGHT:0.300000 OVERLAP:0.200000 WIDTH:0.480000
G0 X114.956263 Y132.135131 F2400.000000
G1 X114.765414 Y132.325979 F900.000000 E52.086038
G0 X115.096802 Y132.673414 F2400.000000
G1 X114.688210 Y133.082006 F900.000000 E52.160318
G0 X115.058494 Y133.390545 F2400.000000
G1 X114.799215 Y133.649823 F900.000000 E52.207454
G0 X114.799215 Y133.649823 Z0.500000 F2400.000000
;WALL LAYER:1 Z:0.500000 HEIGHT:0.200000 OVERLAP:0.200000 WIDTH:0.480000
;PERIMETER:1 LAYER:1 Z:0.500000 HEIGHT:0.200000 OVERLAP:0.200000 WIDTH:0.300000
G0 X114.715222 Y133.661697 F1800.000000
G1 X114.641453 Y133.139920 F600.000000 E52.235453
G1 X114.670964 Y132.420565 E52.273706
G1 X114.772175 Y132.004941 E52.296435
G1 X114.998500 Y131.996355 E52.308469
G1 X115.080303 Y132.247914 E52.322524
G1 X115.155173 Y132.992970 E52.362310
G1 X115.032656 Y133.821571 E52.406815
G1 X114.993971 Y133.895276 E52.411237
G1 X114.790339 Y133.895970 E52.422057
G1 X114.722221 Y133.711205 E52.432520
;PERIMETER:0 LAYER:1 Z:0.500000 HEIGHT:0.200000 OVERLAP:0.200000 WIDTH:0.600000
G0 X114.269652 Y133.724691 F1800.000000
G1 X114.190150 Y133.162356 F600.000000 E52.496771
G1 X114.223177 Y132.357455 E52.587908
G1 X114.361538 Y131.789321 E52.654061
G1 X114.548892 Y131.457572 E52.697165
G1 X114.713016 Y131.306138 E52.722429
G1 X114.890530 Y131.256135 E52.743293
G1 X115.060767 Y131.301226 E52.763217
G1 X115.220489 Y131.438275 E52.787026
G1 X115.377545 Y131.704845 E52.822029
G1 X115.522927 Y132.154150 E52.875455
G1 X115.603031 Y133.003220 E52.971939
G1 X115.495919 Y133.862046 E53.069853
G1 X115.323129 Y134.283962 E53.121434
G1 X115.131535 Y134.519663 E53.155798
G1 X114.948740 Y134.606925 E53.178713
G1 X114.787588 Y134.594539 E53.196999
G1 X114.654930 Y134.520408 E53.214191
G1 X114.454603 Y134.271602 E53.250329
G1 X114.283794 Y133.810665 E53.305941
G1 X114.276651 Y133.774199 E53.310145
;INFILL LAYER:1 Z:0.500000 HEIGHT:0.200000 OVERLAP:0.200000 WIDTH:0.480000
G0 X114.792341 Y133.120549 F2400.000000
G1 X114.967541 Y133.295749 F900.000000 E53.332229
G0 X114.968717 Y132.618102 F2400.000000
G1 X114.819121 Y132.468507 F900.000000 E53.351086
M106 S214.200000
G0 X114.819121 Y132.468507 Z0.700000 F2400.000000
;WALL LAYER:2 Z:0.700000 HEIGHT:0.200000 OVERLAP:0.200000 WIDTH:0.480000
;PERIMETER:1 LAYER:2 Z:0.700000 HEIGHT:0.200000 OVERLAP:0.200000 WIDTH:0.300000
G0 X114.549861 Y132.448428 F1800.000000
G1 X114.573891 Y132.126188 F600.000000 E53.368255
G1 X114.699505 Y131.661512 E53.393831
G1 X114.878655 Y131.351552 E53.412853
G1 X115.040659 Y131.566586 E53.427158
G1 X115.188080 Y131.962394 E53.449600
G1 X115.275135 Y132.893018 E53.499262
G1 X115.233077 Y133.494189 E53.531282
G1 X115.186970 Y133.861575 E53.550955
G1 X115.053317 Y134.273437 E53.573962
G1 X114.883659 Y134.523219 E53.590006
G1 X114.698551 Y134.205547 E53.609541
G1 X114.573912 Y133.740594 E53.635117
G1 X114.513613 Y132.934750 E53.678054
G1 X114.546143 Y132.498290 E53.701308
;PERIMETER:0 LAYER:2 Z:0.700000 HEIGHT:0.200000 OVERLAP:0.200000 WIDTH:0.600000
G0 X114.101107 Y132.414964 F1800.000000
G1 X114.128322 Y132.049998 F600.000000 E53.742713
G1 X114.280486 Y131.487180 E53.808672
G1 X114.467089 Y131.164352 E53.850857
G1 X114.660189 Y130.986728 E53.880539
G1 X114.828288 Y130.921371 E53.900944
G1 X115.022872 Y130.939228 E53.923050
G1 X115.220290 Y131.056979 E53.949056
G1 X115.442939 Y131.352814 E53.990944
G1 X115.619567 Y131.863885 E54.052118
G1 X115.713230 Y132.631872 E54.139646
G1 X115.719156 Y133.148021 E54.198044
G1 X115.629115 Y133.957068 E54.290139
G1 X115.461525 Y134.473386 E54.351551
G1 X115.260127 Y134.769860 E54.392099
G1 X115.066285 Y134.908261 E54.419045
G1 X114.891300 Y134.949562 E54.439385
G1 X114.702194 Y134.903049 E54.461417
G1 X114.482402 Y134.728707 E54.493156
G1 X114.279390 Y134.379919 E54.538812
G1 X114.128305 Y133.816226 E54.604835
G1 X114.062360 Y132.934780 E54.704834
G1 X114.097388 Y132.464826 E54.758149
;INFILL LAYER:2 Z:0.700000 HEIGHT:0.200000 OVERLAP:0.200000 WIDTH:0.480000
G0 X114.704896 Y132.386497 F2400.000000
G1 X115.038238 Y132.053156 F900.000000 E54.800168
G0 X115.112000 Y132.658216 F2400.000000
G1 X114.675961 Y133.094255 F900.000000 E54.855132
G0 X115.092232 Y133.356807 F2400.000000
G1 X114.724815 Y133.724223 F900.000000 E54.901446
G0 X114.909391 Y134.218470 F2400.000000
G1 X114.890551 Y134.237310 F900.000000 E54.903820
M106 S428.400000
G0 X114.890551 Y134.237310 Z0.900000 F2400.000000
;WALL LAYER:3 Z:0.900000 HEIGHT:0.200000 OVERLAP:0.200000 WIDTH:0.480000
;PERIMETER:1 LAYER:3 Z:0.900000 HEIGHT:0.200000 OVERLAP:0.200000 WIDTH:0.300000
G0 X115.185739 Y134.315975 F1800.000000
G1 X115.150207 Y134.449305 F600.000000 E54.911152
G1 X115.024420 Y134.667032 E54.924512
G1 X114.881710 Y134.791655 E54.934579
G1 X114.718523 Y134.611992 E54.947475
G1 X114.582452 Y134.305497 E54.965293
G1 X114.471822 Y133.731263 E54.996364
G1 X114.440119 Y132.623853 E55.055228
G1 X114.516430 Y131.833696 E55.097407
G1 X114.638366 Y131.407024 E55.120984
G1 X114.865560 Y131.031603 E55.144300
G1 X115.063803 Y131.255531 E55.160190
G1 X115.202027 Y131.560869 E55.177999
G1 X115.306702 Y132.135148 E55.209014
G1 X115.347216 Y133.133041 E55.262079
G1 X115.274979 Y133.981020 E55.307298
G1 X115.198614 Y134.267661 E55.323059
;PERIMETER:0 LAYER:3 Z:0.900000 HEIGHT:0.200000 OVERLAP:0.200000 WIDTH:0.600000
G0 X115.620563 Y134.431851 F1800.000000
G1 X115.569578 Y134.623170 F600.000000 E55.345459
G1 X115.376419 Y134.957195 E55.389111
G1 X115.154678 Y135.150697 E55.422406
G1 X114.960416 Y135.220212 E55.445748
G1 X114.755283 Y135.207395 E55.469001
G1 X114.549646 Y135.095938 E55.495463
G1 X114.336330 Y134.860272 E55.531424
G1 X114.150242 Y134.440924 E55.583328
G1 X114.023044 Y133.780541 E55.659412
G1 X113.989499 Y132.608584 E55.792053
G1 X114.072466 Y131.749522 E55.889693
G1 X114.222248 Y131.225439 E55.951358
G1 X114.430129 Y130.881941 E55.996781
G1 X114.655753 Y130.699969 E56.029574
G1 X114.851772 Y130.644788 E56.052612
G1 X115.026612 Y130.661010 E56.072477
G1 X115.235121 Y130.770126 E56.099101
G1 X115.445876 Y131.008305 E56.135082
G1 X115.634864 Y131.425877 E56.186936
G1 X115.755060 Y132.085490 E56.262788
G1 X115.797993 Y133.143068 E56.382534
G1 X115.719994 Y134.058662 E56.486492
G1 X115.633438 Y134.383537 E56.524529
;INFILL LAYER:3 Z:0.900000 HEIGHT:0.200000 OVERLAP:0.200000 WIDTH:0.480000
G0 X115.190348 Y133.207429 F2400.000000
G1 X114.592212 Y132.609293 F900.000000 E56.599925
M106 S642.600000
G0 X114.592212 Y132.609293 Z1.100000 F2400.000000
;WALL LAYER:4 Z:1.100000 HEIGHT:0.200000 OVERLAP:0.200000 WIDTH:0.480000
;PERIMETER:1 LAYER:4 Z:1.100000 HEIGHT:0.200000 OVERLAP:0.200000 WIDTH:0.300000
G0 X114.408759 Y132.601897 F1800.000000
G1 X114.441018 Y131.801637 F600.000000 E56.642480
G1 X114.551793 Y131.292080 E56.670186
G1 X114.667748 Y131.026391 E56.685589
G1 X114.852980 Y130.867239 E56.698565
G1 X114.914704 Y130.847618 E56.702006
G1 X115.068382 Y130.980374 E56.712796
G1 X115.201365 Y131.212236 E56.726998
G1 X115.316281 Y131.632907 E56.750168
G1 X115.395866 Y132.791835 E56.811890
G1 X115.331228 Y134.158557 E56.884589
G1 X115.206998 Y134.645132 E56.911272
G1 X115.073228 Y134.879977 E56.925632
G1 X114.917589 Y135.025771 E56.936963
G1 X114.796042 Y134.966073 E56.944158
G1 X114.672404 Y134.830906 E56.953891
G1 X114.548642 Y134.561237 E56.969656
G1 X114.446187 Y134.113720 E56.994049
G1 X114.397765 Y132.813086 E57.063203
G1 X114.406745 Y132.651856 E57.071783
;PERIMETER:0 LAYER:4 Z:1.100000 HEIGHT:0.200000 OVERLAP:0.200000 WIDTH:0.600000
G0 X113.959125 Y132.583772 F1800.000000
G1 X113.992963 Y131.744332 F600.000000 E57.166828
G1 X114.123218 Y131.145190 E57.236194
G1 X114.301093 Y130.773217 E57.282841
G1 X114.533663 Y130.526017 E57.321239
G1 X114.749104 Y130.428887 E57.347974
G1 X114.962689 Y130.411610 E57.372217
G1 X115.186464 Y130.485966 E57.398894
G1 X115.421550 Y130.691446 E57.434218
G1 X115.620437 Y131.038494 E57.479470
G1 X115.771107 Y131.552303 E57.540047
G1 X115.845328 Y132.790937 E57.680428
G1 X115.782596 Y134.227527 E57.843109
G1 X115.628294 Y134.814741 E57.911797
G1 X115.430404 Y135.162085 E57.957023
G1 X115.211619 Y135.366925 E57.990930
G1 X114.986085 Y135.453657 E58.018267
G1 X114.748032 Y135.444270 E58.045219
G1 X114.520233 Y135.331640 E58.073969
G1 X114.292412 Y135.082054 E58.112200
G1 X114.120248 Y134.706583 E58.158930
G1 X113.998509 Y134.174691 E58.220661
G1 X113.946916 Y132.804690 E58.375763
G1 X113.957110 Y132.633731 E58.395138
;INFILL LAYER:4 Z:1.100000 HEIGHT:0.200000 OVERLAP:0.200000 WIDTH:0.480000
G0 X114.561795 Y132.529598 F2400.000000
G1 X115.187677 Y131.903716 F900.000000 E58.474032
G0 X115.053332 Y134.611930 F2400.000000
G1 X114.855832 Y134.809430 F900.000000 E58.498928
M106 S647.700000
G0 X114.855832 Y134.809430 Z1.300000 F2400.000000
;WALL LAYER:5 Z:1.300000 HEIGHT:0.200000 OVERLAP:0.200000 WIDTH:0.480000
;PERIMETER:1 LAYER:5 Z:1.300000 HEIGHT:0.200000 OVERLAP:0.200000 WIDTH:0.300000
G0 X114.606859 Y134.954869 F1800.000000
G1 X114.550385 Y134.858193 F600.000000 E58.504877
G1 X114.442640 Y134.473883 E58.526083
G1 X114.382005 Y133.469183 E58.579563
G1 X114.411353 Y131.622470 E58.677696
G1 X114.508953 Y131.115458 E58.705130
G1 X114.645325 Y130.831543 E58.721865
G1 X114.805442 Y130.678136 E58.733647
G1 X114.956553 Y130.672304 E58.741682
G1 X115.112277 Y130.796051 E58.752250
G1 X115.233190 Y131.010359 E58.765324
G1 X115.340818 Y131.394444 E58.786518
G1 X115.398728 Y132.184278 E58.828597
G1 X115.372545 Y134.243842 E58.938036
G1 X115.274219 Y134.752809 E58.965578
G1 X115.138269 Y135.036630 E58.982299
G1 X114.977926 Y135.189955 E58.994087
G1 X114.826820 Y135.195823 E59.002122
G1 X114.647918 Y135.042336 E59.014646
G1 X114.632079 Y134.998043 E59.017146
;PERIMETER:0 LAYER:5 Z:1.300000 HEIGHT:0.200000 OVERLAP:0.200000 WIDTH:0.600000
G0 X114.218297 Y135.181849 F1800.000000
G1 X114.132468 Y135.034921 F600.000000 E59.036396
G1 X113.997097 Y134.551575 E59.093183
G1 X113.930829 Y133.468596 E59.215932
G1 X113.962040 Y131.575978 E59.430078
G1 X114.078098 Y130.973088 E59.499537
G1 X114.270941 Y130.571669 E59.549920
G1 X114.498881 Y130.334241 E59.587155
G1 X114.735138 Y130.221916 E59.616751
G1 X114.989888 Y130.209998 E59.645603
G1 X115.231794 Y130.299060 E59.674766
G1 X115.461633 Y130.509357 E59.710010
G1 X115.651011 Y130.833502 E59.752482
G1 X115.786332 Y131.316619 E59.809242
G1 X115.848939 Y132.170695 E59.906125
G1 X115.821997 Y134.289751 E60.145879
G1 X115.705055 Y134.895065 E60.215626
G1 X115.512711 Y135.296561 E60.265992
G1 X115.284357 Y135.533881 E60.303251
G1 X115.048349 Y135.646220 E60.332822
G1 X114.793482 Y135.658107 E60.361687
G1 X114.548116 Y135.578444 E60.390872
G1 X114.276487 Y135.297594 E60.435075
G1 X114.243517 Y135.225023 E60.444093
;INFILL LAYER:5 Z:1.300000 HEIGHT:0.200000 OVERLAP:0.200000 WIDTH:0.480000
G0 X115.235145 Y133.252226 F2400.000000
G1 X114.546297 Y132.563378 F900.000000 E60.530924
G0 X114.546297 Y132.563378 Z1.500000 F2400.000000
;WALL LAYER:6 Z:1.500000 HEIGHT:0.200000 OVERLAP:0.200000 WIDTH:0.480000
;PERIMETER:1 LAYER:6 Z:1.500000 HEIGHT:0.200000 OVERLAP:0.200000 WIDTH:0.300000
G0 X114.394464 Y132.562132 F1800.000000
G1 X114.404558 Y131.332115 F600.000000 E60.596280
G1 X114.496976 Y130.896281 E60.619952
G1 X114.632444 Y130.638880 E60.635407
G1 X114.803622 Y130.493323 E60.647346
G1 X114.977154 Y130.496264 E60.656567
G1 X115.148476 Y130.631711 E60.668171
G1 X115.278023 Y130.868793 E60.682526
G1 X115.368002 Y131.237573 E60.702695
G1 X115.400144 Y132.241414 E60.756059
G1 X115.378543 Y134.536375 E60.878002
G1 X115.286575 Y134.971537 E60.901634
G1 X115.150887 Y135.229287 E60.917111
G1 X114.979718 Y135.374786 E60.929048
G1 X114.806208 Y135.371851 E60.938268
G1 X114.634873 Y135.236407 E60.949872
G1 X114.507670 Y135.003481 E60.963974
G1 X114.419025 Y134.619443 E60.984915
G1 X114.381914 Y134.093306 E61.012940
G1 X114.394054 Y132.612130 E61.091641
;PERIMETER:0 LAYER:6 Z:1.500000 HEIGHT:0.200000 OVERLAP:0.200000 WIDTH:0.600000
G0 X113.944480 Y132.558439 F1800.000000
G1 X113.954946 Y131.283090 F600.000000 E61.235930
G1 X114.069729 Y130.741809 E61.298528
G1 X114.269884 Y130.361583 E61.347140
G1 X114.519427 Y130.128966 E61.385735
G1 X114.766814 Y130.035283 E61.415663
G1 X115.017846 Y130.035665 E61.444062
G1 X115.263093 Y130.133301 E61.473926
G1 X115.499943 Y130.345226 E61.509882
G1 X115.700661 Y130.702359 E61.556229
G1 X115.816291 Y131.176506 E61.611443
G1 X115.850212 Y132.236354 E61.731408
G1 X115.828101 Y134.585510 E61.997186
G1 X115.713892 Y135.125891 E62.059671
G1 X115.513406 Y135.506643 E62.108353
G1 X115.263912 Y135.739127 E62.146934
G1 X115.016554 Y135.832842 E62.176859
G1 X114.765519 Y135.832445 E62.205260
G1 X114.520268 Y135.734823 E62.235123
G1 X114.283424 Y135.522885 E62.271079
G1 X114.083629 Y135.167423 E62.317211
G1 X113.972603 Y134.686160 E62.373088
G1 X113.931783 Y134.107284 E62.438740
G1 X113.944070 Y132.608438 E62.608314
;INFILL LAYER:6 Z:1.500000 HEIGHT:0.200000 OVERLAP:0.200000 WIDTH:0.480000
G0 X114.544596 Y132.546798 F2400.000000
G1 X115.237675 Y131.853719 F900.000000 E62.695679
G0 X115.229484 Y134.435779 F2400.000000
G1 X114.673268 Y134.991994 F900.000000 E62.765791
G0 X114.673268 Y134.991994 Z1.700000 F2400.000000
;WALL LAYER:7 Z:1.700000 HEIGHT:0.200000 OVERLAP:0.200000 WIDTH:0.480000
;PERIMETER:1 LAYER:7 Z:1.700000 HEIGHT:0.200000 OVERLAP:0.200000 WIDTH:0.300000
G0 X114.462419 Y135.045482 F1800.000000
G1 X114.395040 Y134.820503 F600.000000 E62.778270
G1 X114.401546 Y131.079903 E62.977018
