;FLAVOR:UltiGCode
;MATERIAL:12268
;TIME:10578
M140 S230
G0 X103.585002 Y102.741489 Z0.300000 F1500.000000
G1 X109.844678 Y100.085458 E0.874112
G1 X116.611980 Y100.415491 E1.745074
G1 X122.565583 Y103.673421 E2.617497
G1 X126.383098 Y109.042148 E3.464326
G1 X127.622911 Y115.159282 E4.266664
G1 X126.110847 Y121.671108 E5.126021
G1 X121.802155 Y126.965322 E6.003488
G1 X115.627568 Y129.825959 E6.878268
G1 X108.863095 Y129.703660 E7.747974
G1 X102.810909 Y126.653542 E8.619191
G1 X98.675928 Y121.218126 E9.497112
G1 X97.351415 Y114.516086 E10.375313
G1 X99.102687 Y107.908515 E11.254035
G1 X103.585002 Y102.741489 E12.133343
G0 X103.874776 Y103.139957
G1 X109.931029 Y100.570239 E12.979049
G1 X116.478370 Y100.889546 E13.821701
G1 X122.238349 Y104.041519 E14.665751
G1 X125.932893 Y109.237307 E15.485302
G1 X127.131749 Y115.152359 E16.261134
G1 X125.668420 Y121.454301 E17.092793
G1 X121.499822 Y126.576379 E17.941729
G1 X115.525917 Y129.344042 E18.788079
G1 X108.981296 Y129.225719 E19.629518
G1 X103.125858 Y126.274756 E20.472413
G1 X99.125266 Y121.015994 E21.321801
G1 X97.843812 Y114.531841 E22.171452
G1 X99.538168 Y108.139019 E23.021614
G1 X103.874776 Y103.139957 E23.872338
G0 X104.164550 Y103.538425
G1 X110.017380 Y101.055021 E24.689638
G1 X116.344758 Y101.363600 E25.503981
G1 X121.911115 Y104.409619 E26.319658
G1 X125.482688 Y109.432467 E27.111930
G1 X126.640586 Y115.145436 E27.861257
G1 X125.225994 Y121.237494 E28.665218
G1 X121.197488 Y126.187435 E29.485624
G1 X115.424265 Y128.862125 E30.303542
G1 X109.099496 Y128.747777 E31.116716
G1 X103.440806 Y125.895970 E31.931288
G1 X99.574603 Y120.813862 E32.752143
G1 X98.336209 Y114.547596 E33.573243
G1 X99.973649 Y108.369525 E34.394847
G1 X104.164550 Y103.538425 E35.216987
G0 X104.454324 Y103.936893
G1 X110.103730 Y101.539802 E36.005881
G1 X116.211147 Y101.837654 E36.791914
G1 X121.583881 Y104.777719 E37.579219
G1 X125.032483 Y109.627626 E38.344212
G1 X126.149424 Y115.138512 E39.067033
G1 X124.783567 Y121.020687 E39.843296
G1 X120.895154 Y125.798492 E40.635173
G1 X115.322614 Y128.380209 E41.424659
G1 X109.217697 Y128.269836 E42.209566
G1 X103.755755 Y125.517184 E42.995816
G1 X100.023940 Y120.611730 E43.788139
G1 X98.828607 Y114.563351 E44.580688
G1 X100.409129 Y108.600030 E45.373732
G1 X104.454324 Y103.936893 E46.167290
G0 X104.744098 Y104.335361
G1 X110.190081 Y102.024584 E46.927777
G1 X116.077536 Y102.311709 E47.685501
G1 X121.256648 Y105.145819 E48.444432
G1 X124.582278 Y109.822785 E49.182147
G1 X125.658261 Y115.131589 E49.878463
G1 X124.341141 Y120.803880 E50.627028
G1 X120.592820 Y125.409549 E51.390374
G1 X115.220964 Y127.898292 E52.151429
G1 X109.335898 Y127.791894 E52.908070
G1 X104.070703 Y125.138398 E53.665998
G1 X100.473278 Y120.409598 E54.429787
G1 X99.321004 Y114.579107 E55.193786
G1 X100.844609 Y108.830535 E55.958271
G1 X104.744098 Y104.335361 E56.723245
G0 X105.033872 Y104.733829
G1 X110.276432 Y102.509365 E57.455326
G1 X115.943924 Y102.785763 E58.184740
G1 X120.929414 Y105.513919 E58.915299
G1 X124.132072 Y110.017945 E59.625735
G1 X125.167099 Y115.124666 E60.295545
G1 X123.898714 Y120.587073 E61.016412
G1 X120.290487 Y125.020606 E61.751229
G1 X115.119313 Y127.416375 E62.483852
G1 X109.454099 Y127.313953 E63.212226
G1 X104.385652 Y124.759612 E63.941833
G1 X100.922615 Y120.207467 E64.677089
G1 X99.813402 Y114.594862 E65.412537
G1 X101.280089 Y109.061040 E66.148464
G1 X105.033872 Y104.733829 E66.884854
G0 X105.323646 Y105.132298
G1 X110.362784 Y102.994147 E67.588528
G1 X115.810313 Y103.259817 E68.289633
G1 X120.602180 Y105.882019 E68.991819
G1 X123.681867 Y110.213104 E69.674977
G1 X124.675937 Y115.117742 E70.318281
G1 X123.456288 Y120.370266 E71.011450
G1 X119.988153 Y124.631663 E71.717736
G1 X115.017662 Y126.934459 E72.421928
G1 X109.572301 Y126.836011 E73.122036
G1 X104.700601 Y124.380827 E73.823321
G1 X101.371953 Y120.005335 E74.530044
G1 X100.305799 Y114.610617 E75.236941
G1 X101.715569 Y109.291544 E75.944309
G1 X105.323646 Y105.132298 E76.652116
G0 X105.613420 Y105.530766
G1 X110.449134 Y103.478928 E77.327384
G1 X115.676702 Y103.733871 E78.000179
G1 X120.274946 Y106.250119 E78.673992
G1 X123.231662 Y110.408263 E79.329872
G1 X124.184774 Y115.110818 E79.946670
G1 X123.013861 Y120.153459 E80.612141
G1 X119.685818 Y124.242719 E81.289898
G1 X114.916012 Y126.452542 E81.965657
G1 X109.690502 Y126.358070 E82.637499
G1 X105.015551 Y124.002041 E83.310462
G1 X101.821290 Y119.803202 E83.988652
G1 X100.798197 Y114.626373 E84.666998
G1 X102.151049 Y109.522049 E85.345808
G1 X105.613420 Y105.530766 E86.025031
G0 X105.903193 Y105.929234
G1 X110.535485 Y103.963710 E86.671893
G1 X115.543090 Y104.207926 E87.316379
G1 X119.947712 Y106.618218 E87.961818
G1 X122.781457 Y110.603422 E88.590419
G1 X123.693612 Y115.103895 E89.180712
G1 X122.571435 Y119.936652 E89.818485
G1 X119.383484 Y123.853776 E90.467712
G1 X114.814361 Y125.970625 E91.115040
G1 X109.808703 Y125.880128 E91.758616
G1 X105.330502 Y123.623255 E92.403256
G1 X102.270628 Y119.601070 E93.052914
G1 X101.290594 Y114.642128 E93.702709
G1 X102.586528 Y109.752554 E94.352959
G1 X105.903193 Y105.929234 E95.003599
G0 X106.192966 Y106.327702
G1 X110.621837 Y104.448492 E95.622054
G1 X115.409478 Y104.681980 E96.238231
G1 X119.620478 Y106.986317 E96.855298
G1 X122.331251 Y110.798580 E97.456620
G1 X123.202449 Y115.096971 E98.020408
G1 X122.129008 Y119.719844 E98.630482
G1 X119.081150 Y123.464832 E99.251179
G1 X114.712711 Y125.488708 E99.870076
G1 X109.926905 Y125.402187 E100.485385
G1 X105.645453 Y123.244469 E101.101703
G1 X102.719965 Y119.398937 E101.722828
G1 X101.782992 Y114.657884 E102.344073
G1 X103.022008 Y109.983059 E102.965764
G1 X106.192966 Y106.327702 E103.587820
G0 X110.080766 Y111.673816 F900.000000
G1 X111.780362 Y110.952662 E103.825155
G1 X113.616838 Y111.042206 E104.061512
G1 X115.230058 Y111.924966 E104.297907
G1 X116.290982 Y113.416948 E104.533244
G1 X116.612674 Y115.004041 E104.741412
G1 X116.193117 Y116.810995 E104.979873
G1 X115.024861 Y118.246494 E105.217791
G1 X113.348899 Y119.022983 E105.455234
G1 X111.512807 Y118.989807 E105.691299
G1 X109.871046 Y118.162433 E105.927631
G1 X108.748585 Y116.687003 E106.165942
G1 X108.389331 Y114.869297 E106.404126
G1 X108.864687 Y113.075697 E106.642651
G1 X110.080766 Y111.673816 E106.881216
G0 X109.790993 Y111.275348
G1 X111.694015 Y110.467878 E107.146958
G1 X113.750455 Y110.568152 E107.411624
G1 X115.557296 Y111.556869 E107.676392
G1 X116.741190 Y113.221793 E107.939008
G1 X117.103838 Y115.010971 E108.173682
G1 X116.635542 Y117.027808 E108.439841
G1 X115.327191 Y118.635442 E108.706289
G1 X113.450547 Y119.504902 E108.972163
G1 X111.394601 Y119.467750 E109.236495
G1 X109.556091 Y118.541217 E109.501149
G1 X108.299244 Y116.889132 E109.767993
G1 X107.896932 Y114.853536 E110.034728
G1 X108.429208 Y112.845187 E110.301812
G1 X109.790993 Y111.275348 E110.568960
G0 X109.501220 Y110.876880
G1 X111.607667 Y109.983095 E110.863108
G1 X113.884070 Y110.094098 E111.156084
G1 X115.884534 Y111.188772 E111.449225
G1 X117.191398 Y113.026638 E111.739120
G1 X117.595001 Y115.017899 E112.000299
G1 X117.077968 Y117.244620 E112.294156
G1 X115.629523 Y119.024388 E112.589134
G1 X113.552194 Y119.986820 E112.883440
G1 X111.276396 Y119.945691 E113.176038
G1 X109.241137 Y118.920001 E113.469014
G1 X107.849905 Y117.091261 E113.764392
G1 X107.404534 Y114.837777 E114.059677
G1 X107.993729 Y112.614678 E114.355320
G1 X109.501220 Y110.876880 E114.651051
G0 X110.171142 Y113.767159
G1 X110.950037 Y112.869280 E114.803849
G1 X112.039390 Y112.407017 E114.955971
G1 X113.215972 Y112.464364 E115.107398
G1 X114.248327 Y113.029248 E115.258674
G1 X114.940354 Y114.002410 E115.412178
G1 X115.139178 Y114.983229 E115.540825
G1 X114.865842 Y116.160550 E115.696193
G1 X114.117883 Y117.079641 E115.848521
G1 X113.043966 Y117.577221 E116.000669
G1 X111.867446 Y117.555984 E116.151934
G1 X110.815917 Y117.026084 E116.303300
G1 X110.096613 Y116.080625 E116.456013
G1 X109.866529 Y114.916594 E116.608543
G1 X110.171142 Y113.767159 E116.761402
G0 X109.735662 Y113.536654
G1 X110.660269 Y112.470803 E116.942785
G1 X111.953050 Y111.922231 E117.123313
G1 X113.349598 Y111.990312 E117.303050
G1 X114.575573 Y112.661156 E117.482699
G1 X115.390565 Y113.807258 E117.663481
G1 X115.630344 Y114.990170 E117.818635
G1 X115.308266 Y116.377367 E118.001701
G1 X114.420206 Y117.468594 E118.182558
G1 X113.145608 Y118.059143 E118.363138
G1 X111.749229 Y118.033924 E118.542670
G1 X110.500958 Y117.404867 E118.722358
G1 X109.647268 Y116.282748 E118.903604
G1 X109.374129 Y114.900825 E119.084685
G1 X109.735662 Y113.536654 E119.266101
G0 X109.300181 Y113.306149
G1 X110.370499 Y112.072330 E119.476069
G1 X111.866706 Y111.437446 E119.685003
G1 X113.483220 Y111.516260 E119.893051
G1 X114.902816 Y112.293060 E120.101072
G1 X115.840774 Y113.612103 E120.309132
G1 X116.121509 Y114.997108 E120.490793
G1 X115.750691 Y116.594182 E120.701556
G1 X114.722532 Y117.857545 E120.910945
G1 X113.247254 Y118.541063 E121.119955
G1 X111.631016 Y118.511865 E121.327755
G1 X110.186003 Y117.783651 E121.535764
G1 X109.197926 Y116.484875 E121.745543
G1 X108.881730 Y114.885058 E121.955175
G1 X109.300181 Y113.306149 E122.165149
G0 X110.167492 Y115.201581
G1 X112.690072 Y112.679001 E122.623742
G0 X113.276737 Y112.771158
G1 X110.279510 Y115.768386 E123.168624
G0 X110.505286 Y116.221432
G1 X113.715473 Y113.011245 E123.752221
G0 X114.129424 Y113.276116
G1 X110.798578 Y116.606962 E124.357753
G0 X111.155762 Y116.928601
G1 X114.411521 Y113.672842 E124.949635
G0 X114.693619 Y114.069567
G1 X111.607115 Y117.156071 E125.510746
G0 X112.121470 Y117.320538
G1 X114.820904 Y114.621104 E126.001491
G0 X114.818811 Y115.302019
G1 X112.788237 Y117.332594 E126.370639
G0 X113.869321 Y116.930332
G1 X114.195078 Y116.604575 E126.429861
G0 X112.010089 Y112.680161
G1 X110.237794 Y114.452456 E126.752055
G0 X108.762347 Y114.795783 Z0.500000
G1 X109.139238 Y113.352926 E126.884976
G1 X110.036812 Y112.182147 E127.016469
G1 X111.320995 Y111.447886 E127.148322
G1 X112.796182 Y111.269230 E127.280770
G1 X114.224252 Y111.677614 E127.413160
G1 X115.378239 Y112.607472 E127.545255
G1 X116.091347 Y113.934065 E127.679498
G1 X116.249682 Y114.970576 E127.772957
G1 X115.946624 Y116.460139 E127.908446
G1 X115.107225 Y117.683882 E128.040716
G1 X113.862781 Y118.485185 E128.172642
G1 X112.403061 Y118.741283 E128.304738
G1 X110.955121 Y118.409015 E128.437151
G1 X109.750591 Y117.539164 E128.569583
G1 X108.979217 Y116.270443 E128.701928
G1 X108.762347 Y114.795783 E128.834782
G0 X108.273244 Y114.768974
G1 X108.699322 Y113.137811 E128.985051
G1 X109.714681 Y111.813405 E129.133798
G1 X111.166982 Y110.983027 E129.282912
G1 X112.834850 Y110.781042 E129.432659
G1 X114.449726 Y111.242852 E129.582368
G1 X115.755048 Y112.294662 E129.731786
G1 X116.553345 Y113.779745 E129.882068
G1 X116.737082 Y114.982574 E129.990523
G1 X116.397558 Y116.651323 E130.142310
G1 X115.448361 Y118.035128 E130.291881
G1 X114.041156 Y118.941226 E130.441061
G1 X112.390336 Y119.230845 E130.590451
G1 X110.752947 Y118.855097 E130.740189
G1 X109.390864 Y117.871461 E130.889943
G1 X108.518485 Y116.436598 E131.039619
G1 X108.273244 Y114.768974 E131.189858
G0 X107.784141 Y114.742166
G1 X108.259407 Y112.922694 E131.357474
G1 X109.392547 Y111.444666 E131.523475
G1 X111.012970 Y110.518167 E131.689850
G1 X112.873517 Y110.292853 E131.856897
G1 X114.675199 Y110.808090 E132.023924
G1 X116.131856 Y111.981852 E132.190665
G1 X117.015343 Y113.625426 E132.356985
G1 X117.224480 Y114.994569 E132.480436
G1 X116.848494 Y116.842506 E132.648523
G1 X115.789499 Y118.386371 E132.815394
G1 X114.219531 Y119.397266 E132.981829
G1 X112.377612 Y119.720407 E133.148511
G1 X110.550771 Y119.301178 E133.315575
G1 X109.031139 Y118.203760 E133.482651
G1 X108.057756 Y116.602756 E133.649658
G1 X107.784141 Y114.742166 E133.817281
G0 X109.176871 Y115.965096
G1 X111.499479 Y118.287704 E134.110052
G0 X112.380487 Y118.489890
G1 X109.059845 Y115.169248 E134.528628
G0 X109.083883 Y114.514463
G1 X112.967943 Y118.398523 E135.018224
G0 X113.545456 Y118.297214
G1 X109.224475 Y113.976233 E135.562896
G0 X109.371480 Y113.444415
G1 X114.023390 Y118.096325 E136.149282
G0 X114.436329 Y117.830441
G1 X109.666065 Y113.060178 E136.750587
G0 X109.960650 Y112.675941
G1 X114.849269 Y117.564559 E137.366810
G0 X115.154384 Y117.190851
G1 X110.281951 Y112.318419 E137.980994
G0 X110.713840 Y112.071486
G1 X115.430572 Y116.788217 E138.575551
G0 X115.706759 Y116.385582
G1 X111.145730 Y111.824553 E139.150481
G0 X111.649798 Y111.649798
G1 X115.829937 Y115.829937 E139.677399
G0 X115.944709 Y115.265886
G1 X112.255301 Y111.576479 E140.142459
G0 X112.908628 Y111.550982
G1 X115.948974 Y114.591329 E140.525703
G0 X115.642597 Y113.606130
G1 X113.859344 Y111.822876 E140.750487
G0 X114.388453 Y110.762922 Z0.700000
G1 X115.778048 Y111.718303 E140.900794
G1 X116.738033 Y113.111306 E141.051585
G1 X117.157828 Y114.909424 E141.216166
G1 X116.834500 Y116.652675 E141.374197
G1 X115.958215 Y118.090901 E141.524310
G1 X114.628275 Y119.123214 E141.674371
G1 X113.000833 Y119.613105 E141.825859
G1 X111.303895 Y119.483499 E141.977552
G1 X109.768333 Y118.750643 E142.129210
G1 X108.603831 Y117.518379 E142.280329
G1 X107.959177 Y115.952029 E142.431304
G1 X107.920375 Y114.256910 E142.582435
G1 X108.488469 Y112.674578 E142.732286
G1 X109.577484 Y111.397993 E142.881850
G1 X111.055899 Y110.590772 E143.031988
G1 X112.739848 Y110.366317 E143.183410
G1 X114.388453 Y110.762922 E143.334547
G0 X114.587151 Y110.317030
G1 X116.123011 Y111.372973 E143.500676
G1 X117.184035 Y112.912597 E143.667338
G1 X117.645090 Y114.872681 E143.846814
G1 X117.290344 Y116.827040 E144.023858
G1 X116.322217 Y118.415995 E144.189703
G1 X114.852084 Y119.557122 E144.355582
G1 X113.053491 Y120.098528 E144.523002
G1 X111.177998 Y119.955281 E144.690656
G1 X109.480875 Y119.145314 E144.858270
G1 X108.193824 Y117.783365 E145.025294
G1 X107.481341 Y116.052196 E145.192155
G1 X107.438461 Y114.178677 E145.359190
G1 X108.066353 Y112.429797 E145.524815
G1 X109.269768 Y111.019116 E145.690089
G1 X110.904126 Y110.126756 E145.856064
G1 X112.765135 Y109.878703 E146.023408
G1 X114.587151 Y110.317030 E146.190442
G0 X114.785846 Y109.871138
G1 X116.467973 Y111.027643 E146.372392
G1 X117.630035 Y112.713886 E146.554925
G1 X118.112565 Y114.729994 E146.739701
G1 X118.120719 Y114.982018 E146.762177
G1 X117.746188 Y117.001401 E146.945240
G1 X116.686220 Y118.741089 E147.126818
G1 X115.075894 Y119.991029 E147.308515
G1 X113.106150 Y120.583950 E147.491866
G1 X111.052101 Y120.427062 E147.675482
G1 X109.193418 Y119.539986 E147.859052
G1 X107.783817 Y118.048350 E148.041980
G1 X107.003505 Y116.152366 E148.224727
G1 X106.956546 Y114.100446 E148.407668
G1 X107.644238 Y112.185017 E148.589065
G1 X108.962052 Y110.640239 E148.770050
G1 X110.752350 Y109.662739 E148.951861
G1 X112.790421 Y109.391088 E149.135126
G1 X114.785846 Y109.871138 E149.318058
G0 X112.721755 Y110.610850
G1 X108.180909 Y115.151696 E149.890444
G0 X108.196092 Y115.815336
G1 X113.270596 Y110.740832 E150.530099
G0 X113.817776 Y110.872475
G1 X108.370176 Y116.320074 E151.216784
G0 X108.568093 Y116.800980
G1 X114.344866 Y111.024207 E151.944962
G0 X114.747126 Y111.300770
G1 X108.766009 Y117.281886 E152.698898
G0 X109.067309 Y117.659409
G1 X115.149384 Y111.577333 E153.465560
G0 X115.551644 Y111.853896
G1 X109.397120 Y118.008420 E154.241355
G0 X109.726932 Y118.357431
G1 X115.845404 Y112.238959 E155.012605
G0 X116.122349 Y112.640837
G1 X110.113661 Y118.649525 E155.770017
G0 X110.573173 Y118.868835
G1 X116.399295 Y113.042713 E156.504415
G0 X116.591357 Y113.529473
G1 X111.032683 Y119.088147 E157.205101
G0 X111.538901 Y119.260752
G1 X116.722445 Y114.077208 E157.858501
G0 X116.853534 Y114.624942
G1 X112.169550 Y119.308926 E158.448930
G0 X112.800198 Y119.357100
G1 X116.837708 Y115.319591 E158.957869
G0 X116.683097 Y116.153024
G1 X113.677261 Y119.158859 E159.336763
G0 X114.928831 Y118.586112
G1 X116.071937 Y117.443007 E159.480855
G0 X111.938547 Y110.715236
G1 X108.165727 Y114.488056 E159.956429
G0 X108.431512 Y113.543448
G1 X111.155339 Y110.819621 E160.299775
G0 X111.313739 Y109.726148 Z0.900000
