;FLAVOR:UltiGCode
;MATERIAL:28823
;TIME:0
G0 X0.000000 Y0.000000 Z0.300000
;BRIM LAYER:0 Z:0.300000 HEIGHT:0.300000 OVERLAP:0.000000 WIDTH:0.000000
;PERIMETER:0 LAYER:0 Z:0.300000 HEIGHT:0.300000 OVERLAP:0.000000 WIDTH:0.480000
G10
G0 X82.347203 Y81.528953 F2400.000000
G11
G1 X84.457798 Y79.439986 F1500.000000 E0.370264
G1 X86.707623 Y77.501034 E0.740588
G1 X89.074915 Y75.708005 E1.110866
G1 X91.560354 Y74.082034 E1.481189
G1 X94.148529 Y72.613113 E1.852250
G1 X96.902069 Y71.292952 E2.232997
G1 X99.737008 Y70.159082 E2.613699
G1 X102.643625 Y69.223671 E2.994418
G1 X105.605878 Y68.483804 E3.375115
G1 X108.611110 Y67.950437 E3.755681
G1 X111.718039 Y67.609797 E4.145392
G1 X115.010424 Y67.489488 E4.556180
G1 X118.068943 Y67.606825 E4.937814
G1 X120.766162 Y67.866008 E5.275668
G1 X123.851134 Y68.370484 E5.665430
G1 X126.739617 Y69.059008 E6.035673
G1 X129.581696 Y69.919538 E6.405928
G1 X132.355192 Y70.982501 E6.776271
G1 X135.059291 Y72.209671 E7.146529
G1 X137.668756 Y73.628387 E7.516871
G1 X140.187782 Y75.200836 E7.887129
G1 X142.587862 Y76.950649 E8.257473
G1 X144.877934 Y78.840979 E8.627725
G1 X147.026911 Y80.891464 E8.998077
G1 X149.048174 Y83.066807 E9.368325
G1 X150.908600 Y85.382221 E9.738672
G1 X152.618506 Y87.794265 E10.107324
G1 X154.179301 Y90.359718 E10.481747
G1 X155.566461 Y93.017817 E10.855591
G1 X156.795809 Y95.812557 E11.236278
G1 X157.829321 Y98.685858 E11.617009
G1 X158.669205 Y101.621254 E11.997699
G1 X159.304490 Y104.607850 E12.378416
G1 X159.739515 Y107.630056 E12.759126
G1 X159.964217 Y110.817818 E13.157581
G1 X159.995240 Y113.517253 E13.494185
G1 X159.808456 Y116.678563 E13.889043
G1 X159.408299 Y119.813764 E14.283129
G1 X158.803857 Y122.803369 E14.663433
G1 X158.033212 Y125.671293 E15.033708
G1 X157.066621 Y128.479652 E15.404030
G1 X155.925184 Y131.221164 E15.774303
G1 X154.597339 Y133.877967 E16.144638
G1 X153.104981 Y136.445302 E16.514901
G1 X151.439097 Y138.904179 E16.885225
G1 X149.621688 Y141.252846 E17.255507
G1 X147.646695 Y143.471038 E17.625825
G1 X145.536020 Y145.559982 E17.996095
G1 X143.286250 Y147.498980 E18.366417
G1 X140.918890 Y149.291980 E18.736700
G1 X138.433509 Y150.917985 E19.107019
G1 X135.845280 Y152.386871 E19.478083
G1 X133.091750 Y153.707084 E19.858833
G1 X130.256874 Y154.840858 E20.239522
G1 X127.350207 Y155.776387 E20.620252
G1 X124.387930 Y156.516154 E21.000949
G1 X121.382792 Y157.049598 E21.381504
G1 X118.275687 Y157.390176 E21.771237
G1 X114.983483 Y157.510547 E22.182002
G1 X111.924759 Y157.393165 E22.563663
G1 X109.227644 Y157.133982 E22.901504
G1 X106.142763 Y156.629520 E23.291254
G1 X103.254185 Y155.940992 E23.661509
G1 X100.412179 Y155.080447 E24.031755
G1 X97.638672 Y154.017535 E24.402098
G1 X94.934566 Y152.790324 E24.772359
G1 X92.325024 Y151.371601 E25.142709
G1 X89.806116 Y149.799171 E25.512953
G1 X87.405949 Y148.049372 E25.883306
G1 X85.115916 Y146.158980 E26.253558
G1 X82.966936 Y144.108577 E26.623904
G1 X80.945671 Y141.933170 E26.994158
G1 X79.085231 Y139.617798 E27.364502
G1 X77.375323 Y137.205688 E27.733160
G1 X75.814549 Y134.640323 E28.107573
G1 X74.427386 Y131.982194 E28.481420
G1 X73.198016 Y129.187431 E28.862111
G1 X72.164539 Y126.314178 E29.242835
G1 X71.324611 Y123.378741 E29.623531
G1 X70.690232 Y120.396245 E30.003725
G1 X70.251686 Y117.361602 E30.386033
G1 X70.021492 Y114.196118 E30.781766
G1 X70.001003 Y111.441951 E31.125181
G1 X70.185386 Y108.321461 E31.514940
G1 X70.585529 Y105.186212 E31.909032
G1 X71.189993 Y102.196645 E32.289332
G1 X71.960612 Y99.328673 E32.659612
G1 X72.927246 Y96.520348 E33.029932
G1 X74.068650 Y93.778804 E33.400206
G1 X75.396497 Y91.122091 E33.770532
G1 X76.888857 Y88.554646 E34.140807
G1 X78.554744 Y86.095886 E34.511119
G1 X80.372113 Y83.747132 E34.881406
G1 X82.280704 Y81.603637 E35.239263
;PERIMETER:1 LAYER:0 Z:0.300000 HEIGHT:0.300000 OVERLAP:0.000000 WIDTH:0.480000
G0 X82.009545 Y81.187799 F2400.000000
G1 X84.131911 Y79.087182 F1500.000000 E35.611592
G1 X86.405733 Y77.127547 E35.985867
G1 X88.798288 Y75.315383 E36.360096
G1 X91.310248 Y73.672063 E36.734370
G1 X93.926056 Y72.187459 E37.109393
G1 X96.708961 Y70.853220 E37.494201
G1 X99.574167 Y69.707244 E37.878967
G1 X102.511798 Y68.761851 E38.263748
G1 X105.505665 Y68.014088 E38.648508
G1 X108.542945 Y67.475033 E39.033132
G1 X111.683064 Y67.130755 E39.427007
G1 X115.010870 Y67.009151 E39.842214
G1 X118.101112 Y67.127705 E40.227807
G1 X120.827923 Y67.389733 E40.569368
G1 X123.945640 Y67.899562 E40.963266
G1 X126.864935 Y68.595432 E41.337459
G1 X129.737330 Y69.465141 E41.711663
G1 X132.540430 Y70.539449 E42.085959
G1 X135.273391 Y71.779719 E42.460169
G1 X137.910694 Y73.213569 E42.834462
G1 X140.456607 Y74.802803 E43.208672
G1 X142.882294 Y76.571285 E43.582968
G1 X145.196811 Y78.481791 E43.957171
G1 X147.368722 Y80.554159 E44.331476
G1 X149.411548 Y82.752709 E44.705674
G1 X151.291833 Y85.092840 E45.079974
G1 X153.019822 Y87.530392 E45.452524
G1 X154.597561 Y90.123696 E45.831013
G1 X155.999394 Y92.809909 E46.208810
G1 X157.241865 Y95.634483 E46.593562
G1 X158.286402 Y98.538437 E46.978354
G1 X159.135253 Y101.505170 E47.363108
G1 X159.777313 Y104.523624 E47.747886
G1 X160.216982 Y107.578089 E48.132660
G1 X160.444366 Y110.802282 E48.535670
G1 X160.475421 Y113.528354 E48.875595
G1 X160.286659 Y116.723157 E49.274636
G1 X159.882231 Y119.891817 E49.672928
G1 X159.271339 Y122.913324 E50.057290
G1 X158.492473 Y125.811843 E50.431515
G1 X157.515564 Y128.650179 E50.805790
G1 X156.361949 Y131.420937 E51.180013
G1 X155.019927 Y134.106110 E51.554302
G1 X153.511652 Y136.700827 E51.928515
G1 X151.827982 Y139.185956 E52.302793
G1 X149.991185 Y141.559678 E52.677024
G1 X147.995116 Y143.801540 E53.051294
G1 X145.861912 Y145.912782 E53.425516
G1 X143.588135 Y147.872471 E53.799790
G1 X141.195513 Y149.684605 E54.174024
G1 X138.683610 Y151.327959 E54.548295
G1 X136.067768 Y152.812517 E54.923318
G1 X133.284848 Y154.146820 E55.308131
G1 X130.419715 Y155.292695 E55.692884
G1 X127.482032 Y156.238207 E56.077676
G1 X124.488139 Y156.985870 E56.462436
G1 X121.450974 Y157.524999 E56.847048
G1 X118.310644 Y157.869218 E57.240948
G1 X114.983049 Y157.990885 E57.656129
G1 X111.892567 Y157.872283 E58.041752
G1 X109.165896 Y157.610260 E58.383295
G1 X106.048261 Y157.100442 E58.777183
G1 X103.128875 Y156.404570 E59.151387
G1 X100.256536 Y155.534841 E59.525585
G1 X97.453426 Y154.460583 E59.899881
G1 X94.720475 Y153.220283 E60.274091
G1 X92.083077 Y151.786415 E60.648395
G1 X89.537296 Y150.197210 E61.022589
G1 X87.111517 Y148.428737 E61.396894
G1 X84.797041 Y146.518168 E61.771098
G1 X82.625126 Y144.445883 E62.145396
G1 X80.582295 Y142.247266 E62.519601
G1 X78.702001 Y139.907184 E62.893897
G1 X76.973996 Y137.469545 E63.266457
G1 X75.396296 Y134.876359 E63.644930
G1 X73.994453 Y132.190100 E64.022734
G1 X72.751961 Y129.365503 E64.407489
G1 X71.707456 Y126.461593 E64.792275
G1 X70.858566 Y123.494832 E65.177033
G1 X70.217437 Y120.480603 E65.561272
G1 X69.774185 Y117.413397 E65.947682
G1 X69.541623 Y114.215336 E66.347488
G1 X69.520896 Y111.429558 E66.694845
G1 X69.707183 Y108.276874 E67.088625
G1 X70.111598 Y105.108153 E67.486925
G1 X70.722510 Y102.086698 E67.871281
G1 X71.501354 Y99.188115 E68.245513
G1 X72.478303 Y96.349824 E68.619785
G1 X73.631890 Y93.579019 E68.994011
G1 X74.973901 Y90.893964 E69.368287
G1 X76.482191 Y88.299113 E69.742514
G1 X78.165854 Y85.814118 E70.116778
G1 X80.002619 Y83.440295 E70.491017
G1 X81.942353 Y81.261827 E70.854713
;PERIMETER:2 LAYER:0 Z:0.300000 HEIGHT:0.300000 OVERLAP:0.000000 WIDTH:0.480000
G0 X81.671887 Y80.846645 F2400.000000
G1 X83.806018 Y78.734383 F1500.000000 E71.229106
G1 X86.103850 Y76.754055 E71.607333
G1 X88.521660 Y74.922761 E71.985512
G1 X91.060143 Y73.262092 E72.363738
G1 X93.703582 Y71.761806 E72.742722
G1 X96.515853 Y70.413487 E73.131591
G1 X99.411325 Y69.255405 E73.520421
G1 X102.379971 Y68.300031 E73.909265
G1 X105.405455 Y67.544372 E74.298088
G1 X108.474779 Y66.999629 E74.686770
G1 X111.648089 Y66.651713 E75.084808
G1 X115.011317 Y66.528813 E75.504435
G1 X118.133283 Y66.648586 E75.893986
G1 X120.889684 Y66.913457 E76.239253
G1 X124.040145 Y67.428639 E76.637289
G1 X126.990253 Y68.131856 E77.015431
G1 X129.892964 Y69.010744 E77.393585
G1 X132.725669 Y70.096397 E77.771834
G1 X135.487492 Y71.349766 E78.149996
G1 X138.152633 Y72.798751 E78.528239
G1 X140.725432 Y74.404769 E78.906401
G1 X143.176727 Y76.191920 E79.284649
G1 X145.515687 Y78.122603 E79.662804
G1 X147.710532 Y80.216854 E80.041061
G1 X149.774922 Y82.438611 E80.419209
G1 X151.675066 Y84.803458 E80.797463
G1 X153.421142 Y87.266525 E81.173912
G1 X155.015818 Y89.887667 E81.556464
G1 X156.432327 Y92.602002 E81.938217
G1 X157.687920 Y95.456410 E82.327032
G1 X158.743483 Y98.391015 E82.715886
G1 X159.601300 Y101.389086 E83.104704
G1 X160.250136 Y104.439398 E83.493543
G1 X160.694449 Y107.526122 E83.882381
G1 X160.924516 Y110.786746 E84.289945
G1 X160.955603 Y113.539455 E84.633191
G1 X160.764862 Y116.767751 E85.036416
G1 X160.356163 Y119.969870 E85.438913
G1 X159.738822 Y123.023279 E85.827334
G1 X158.951734 Y125.952394 E86.205509
G1 X157.964507 Y128.820706 E86.583737
G1 X156.798715 Y131.620710 E86.961909
G1 X155.442514 Y134.334253 E87.340153
G1 X153.918322 Y136.956352 E87.718315
G1 X152.216866 Y139.467733 E88.096546
G1 X150.360682 Y141.866511 E88.474728
G1 X148.343537 Y144.132042 E88.852950
G1 X146.187804 Y146.265582 E89.231124
G1 X143.890021 Y148.245962 E89.609350
G1 X141.472136 Y150.077229 E89.987535
G1 X138.933711 Y151.737933 E90.365757
G1 X136.290257 Y153.238163 E90.744740
G1 X133.477946 Y154.586557 E91.133617
G1 X130.582557 Y155.744533 E91.522432
G1 X127.613857 Y156.700028 E91.911287
G1 X124.588348 Y157.455586 E92.300111
G1 X121.519156 Y158.000400 E92.688778
G1 X118.345602 Y158.348260 E93.086845
G1 X114.982616 Y158.471222 E93.506442
G1 X111.860375 Y158.351402 E93.896028
G1 X109.104146 Y158.086537 E94.241274
G1 X105.953761 Y157.571365 E94.639299
G1 X103.003564 Y156.868148 E95.017453
G1 X100.100893 Y155.989234 E95.395602
G1 X97.268180 Y154.903632 E95.773851
G1 X94.506384 Y153.650242 E96.152011
G1 X91.841131 Y152.201229 E96.530268
G1 X89.268476 Y150.595249 E96.908412
G1 X86.817085 Y148.808102 E97.286668
G1 X84.478165 Y146.877356 E97.664825
G1 X82.283317 Y144.783189 E98.043075
G1 X80.218921 Y142.561364 E98.421230
G1 X78.318771 Y140.196567 E98.799479
G1 X76.572674 Y137.733407 E99.175940
G1 X74.978039 Y135.112389 E99.558475
G1 X73.561518 Y132.398001 E99.940235
G1 X72.305909 Y129.543582 E100.329052
G1 X71.250373 Y126.609009 E100.717901
G1 X70.392520 Y123.610922 E101.106722
G1 X69.744641 Y120.564960 E101.495006
G1 X69.296684 Y117.465192 E101.885518
G1 X69.061753 Y114.234555 E102.289397
G1 X69.040790 Y111.417166 E102.640695
G1 X69.228980 Y108.232286 E103.038497
G1 X69.637667 Y105.030093 E103.441004
G1 X70.255026 Y101.976749 E103.829416
G1 X71.042096 Y99.047555 E104.207600
G1 X72.029360 Y96.179300 E104.585824
G1 X73.195130 Y93.379233 E104.964002
G1 X74.551305 Y90.665837 E105.342228
G1 X76.075524 Y88.043581 E105.720408
G1 X77.776964 Y85.532350 E106.098623
G1 X79.633126 Y83.133458 E106.476815
G1 X81.604002 Y80.920016 E106.846349
;WALL LAYER:0 Z:0.300000 HEIGHT:0.300000 OVERLAP:0.200000 WIDTH:0.480000
;PERIMETER:1 LAYER:0 Z:0.300000 HEIGHT:0.300000 OVERLAP:0.200000 WIDTH:0.300000
G0 X93.953890 Y92.538914 F1800.000000
G1 X95.314184 Y91.192558 F600.000000 E106.989029
G1 X96.764203 Y89.942896 E107.131731
G1 X98.289954 Y88.787263 E107.274418
G1 X99.891810 Y87.739327 E107.417118
G1 X101.560071 Y86.792503 E107.560119
G1 X103.334602 Y85.941716 E107.706826
G1 X105.161747 Y85.210925 E107.853528
G1 X107.035069 Y84.608047 E108.000236
G1 X108.944298 Y84.131187 E108.146938
G1 X110.882032 Y83.787276 E108.293651
G1 X112.882865 Y83.567906 E108.443705
G1 X114.995815 Y83.490692 E108.601327
G1 X116.996827 Y83.567457 E108.750610
G1 X118.708852 Y83.731968 E108.878827
G1 X120.702959 Y84.058056 E109.029460
G1 X122.565143 Y84.501942 E109.172172
G1 X124.396894 Y85.056561 E109.314849
G1 X126.184429 Y85.741644 E109.457559
G1 X127.927240 Y86.532562 E109.600236
G1 X129.609066 Y87.446935 E109.742946
G1 X131.232608 Y88.460396 E109.885625
G1 X132.779453 Y89.588143 E110.028333
G1 X134.255472 Y90.806514 E110.171013
G1 X135.640450 Y92.128012 E110.313721
G1 X136.943212 Y93.530082 E110.456399
G1 X138.142250 Y95.022353 E110.599108
G1 X139.249461 Y96.584216 E110.741832
G1 X140.246174 Y98.222490 E110.884790
G1 X141.144318 Y99.943524 E111.029511
G1 X141.936659 Y101.744787 E111.176210
G1 X142.602751 Y103.596607 E111.322920
G1 X143.144081 Y105.488550 E111.469621
G1 X143.553528 Y107.413434 E111.616329
G1 X143.833901 Y109.361219 E111.763031
G1 X143.975819 Y111.427515 E111.917433
G1 X143.999206 Y113.147399 E112.045660
G1 X143.878342 Y115.193041 E112.198426
G1 X143.620437 Y117.213712 E112.350286
G1 X143.230862 Y119.140588 E112.496839
G1 X142.734177 Y120.988990 E112.639523
G1 X142.111199 Y122.799012 E112.782226
G1 X141.375538 Y124.565936 E112.924909
G1 X140.519763 Y126.278207 E113.067611
G1 X139.557885 Y127.932947 E113.210297
G1 X138.484223 Y129.517696 E113.352998
G1 X137.312905 Y131.031415 E113.495683
G1 X136.040009 Y132.461056 E113.638384
G1 X134.679635 Y133.807430 E113.781069
G1 X133.229647 Y135.057124 E113.923770
G1 X131.703887 Y136.212712 E114.066455
G1 X130.102030 Y137.260695 E114.209157
G1 X128.433757 Y138.207484 E114.352158
G1 X126.659253 Y139.058294 E114.498864
G1 X124.832068 Y139.789055 E114.645568
G1 X122.958783 Y140.391986 E114.792274
G1 X121.049531 Y140.868785 E114.938978
G1 X119.111822 Y141.212750 E115.085689
G1 X117.110926 Y141.432077 E115.235747
G1 X114.997999 Y141.509332 E115.393368
G1 X112.997033 Y141.432545 E115.542647
G1 X111.284965 Y141.268023 E115.670868
G1 X109.290893 Y140.941940 E115.821498
G1 X107.428697 Y140.498065 E115.964211
G1 X105.596943 Y139.943420 E116.106889
G1 X103.809415 Y139.258376 E116.249597
G1 X102.066608 Y138.467435 E116.392275
G1 X100.384756 Y137.553070 E116.534986
G1 X98.761256 Y136.539600 E116.677662
G1 X97.214367 Y135.411873 E116.820372
G1 X95.738395 Y134.193478 E116.963050
G1 X94.353376 Y132.871997 E117.105760
G1 X93.050646 Y131.469921 E117.248437
G1 X91.851565 Y129.977633 E117.391149
G1 X90.744388 Y128.415782 E117.533870
G1 X89.747648 Y126.777493 E117.676830
G1 X88.849535 Y125.056503 E117.821547
G1 X88.057175 Y123.255213 E117.968249
G1 X87.391100 Y121.403406 E118.114957
G1 X86.849743 Y119.511441 E118.261661
G1 X86.440272 Y117.586353 E118.408384
G1 X86.158432 Y115.636095 E118.555284
G1 X86.007174 Y113.556122 E118.710752
G1 X85.994515 Y111.854562 E118.837605
G1 X86.115499 Y109.806951 E118.990518
G1 X86.373390 Y107.786294 E119.142377
G1 X86.762987 Y105.859406 E119.288931
G1 X87.259644 Y104.011020 E119.431613
G1 X87.882656 Y102.200995 E119.574317
G1 X88.618298 Y100.434051 E119.717001
G1 X89.474094 Y98.721796 E119.859703
G1 X90.435934 Y97.067052 E120.002387
G1 X91.509637 Y95.482319 E120.145089
G1 X92.680912 Y93.968571 E120.287774
G1 X93.920640 Y92.576256 E120.426752
;PERIMETER:0 LAYER:0 Z:0.300000 HEIGHT:0.300000 OVERLAP:0.200000 WIDTH:0.600000
G0 X93.617809 Y92.239664 F1800.000000
G1 X95.008661 Y90.861807 F600.000000 E120.748905
G1 X96.481184 Y89.592749 E121.068774
G1 X98.030614 Y88.419181 E121.388609
G1 X99.657341 Y87.354976 E121.708476
G1 X101.351489 Y86.393459 E122.029015
G1 X103.153588 Y85.529456 E122.357868
G1 X105.009069 Y84.787331 E122.686700
G1 X106.911495 Y84.175087 E123.015553
G1 X108.850334 Y83.690831 E123.344387
G1 X110.818134 Y83.341585 E123.673246
G1 X112.850072 Y83.118804 E124.009602
G1 X114.996233 Y83.040377 E124.362986
G1 X117.026999 Y83.118283 E124.697392
G1 X118.766762 Y83.285461 E124.984986
G1 X120.791553 Y83.616566 E125.322588
G1 X122.682610 Y84.067334 E125.642477
G1 X124.542810 Y84.630567 E125.962294
G1 X126.358088 Y85.326283 E126.282181
G1 X128.127963 Y86.129483 E126.601998
G1 X129.835887 Y87.058046 E126.921885
G1 X131.484624 Y88.087234 E127.241701
G1 X133.055500 Y89.232500 E127.561590
G1 X134.554407 Y90.469764 E127.881405
G1 X135.960896 Y91.811787 E128.201292
G1 X137.283876 Y93.235616 E128.521108
G1 X138.501528 Y94.751055 E128.840995
G1 X139.625707 Y96.336852 E129.160852
