;FLAVOR:UltiGCode
;MATERIAL:0
;TIME:0
;FLAVOR:UltiGCode
;MATERIAL:14990
;TIME:0
G0 X0.000000 Y0.000000 Z0.300000
;BRIM LAYER:0 Z:0.300000 HEIGHT:0.300000 OVERLAP:0.000000 WIDTH:0.000000
;BRIM LAYER:0 Z:0.300000 HEIGHT:0.300000 OVERLAP:0.000000 WIDTH:0.000000
;WALL LAYER:0 Z:0.300000 HEIGHT:0.300000 OVERLAP:0.200000 WIDTH:0.000000
;PERIMETER:1 LAYER:0 Z:0.300000 HEIGHT:0.300000 OVERLAP:0.200000 WIDTH:0.300000
G0 X90.750000 Y88.250002 F2400.000000
G1 X139.250000 Y88.250000 F600.000000 E3.615610
G1 X139.250000 Y136.749998 E7.231221
G1 X90.750002 Y136.750000 E10.846831
G1 X90.750000 Y88.300002 E14.458714
;PERIMETER:0 LAYER:0 Z:0.300000 HEIGHT:0.300000 OVERLAP:0.200000 WIDTH:0.600000
G0 X90.300000 Y88.250002 F2400.000000
G1 X90.300000 Y87.800002 F600.000000 E14.532761
G1 X139.700000 Y87.800000 E22.661465
G1 X139.700000 Y137.199998 E30.790168
G1 X90.300002 Y137.200000 E38.918872
G1 X90.300000 Y88.300002 E46.965302
;INFILL LAYER:0 Z:0.300000 HEIGHT:0.300000 OVERLAP:0.200000 WIDTH:0.480000
G0 X91.770805 Y88.400002 F2400.000000
G1 X90.900001 Y89.270807 F900.000000 E47.123610
G0 X94.344674 Y88.400002 F2400.000000
G1 X90.900001 Y91.844676 F900.000000 E47.749835
G0 X96.918543 Y88.400002 F2400.000000
G1 X90.900001 Y94.418545 F900.000000 E48.843978
G0 X99.492412 Y88.400002 F2400.000000
G1 X90.900001 Y96.992414 F900.000000 E50.406038
G0 X102.066280 Y88.400002 F2400.000000
G1 X90.900001 Y99.566282 F900.000000 E52.436014
G0 X104.640150 Y88.400002 F2400.000000
G1 X90.900002 Y102.140150 F900.000000 E54.933908
G0 X107.214019 Y88.400002 F2400.000000
G1 X90.900002 Y104.714019 F900.000000 E57.899720
G0 X109.787888 Y88.400002 F2400.000000
G1 X90.900002 Y107.287888 F900.000000 E61.333448
G0 X112.361755 Y88.400002 F2400.000000
G1 X90.900002 Y109.861755 F900.000000 E65.235093
G0 X114.935624 Y88.400002 F2400.000000
G1 X90.900002 Y112.435624 F900.000000 E69.604656
G0 X117.509493 Y88.400002 F2400.000000
G1 X90.900002 Y115.009493 F900.000000 E74.442135
G0 X120.083362 Y88.400002 F2400.000000
G1 X90.900002 Y117.583362 F900.000000 E79.747532
G0 X122.657230 Y88.400002 F2400.000000
G1 X90.900002 Y120.157230 F900.000000 E85.520846
G0 X125.231099 Y88.400002 F2400.000000
G1 X90.900002 Y122.731099 F900.000000 E91.762077
G0 X127.804969 Y88.400001 F2400.000000
G1 X90.900002 Y125.304967 F900.000000 E98.471226
G0 X130.378838 Y88.400001 F2400.000000
G1 X90.900002 Y127.878836 F900.000000 E105.648291
G0 X132.952706 Y88.400001 F2400.000000
G1 X90.900002 Y130.452704 F900.000000 E113.293274
G0 X135.526575 Y88.400001 F2400.000000
G1 X90.900002 Y133.026573 F900.000000 E121.406173
G0 X138.100444 Y88.400001 F2400.000000
G1 X90.900002 Y135.600442 F900.000000 E129.986990
G0 X139.099999 Y89.974314 F2400.000000
G1 X92.474314 Y136.599999 F900.000000 E138.463319
G0 X139.099999 Y92.548182 F2400.000000
G1 X95.048182 Y136.599999 F900.000000 E146.471731
G0 X139.099999 Y95.122051 F2400.000000
G1 X97.622051 Y136.599999 F900.000000 E154.012226
G0 X139.099999 Y97.695919 F2400.000000
G1 X100.195919 Y136.599999 F900.000000 E161.084804
G0 X139.099999 Y100.269788 F2400.000000
G1 X102.769788 Y136.599999 F900.000000 E167.689465
G0 X139.099999 Y102.843657 F2400.000000
G1 X105.343657 Y136.599998 F900.000000 E173.826208
G0 X139.099999 Y105.417525 F2400.000000
G1 X107.917526 Y136.599998 F900.000000 E179.495034
G0 X139.099999 Y107.991394 F2400.000000
G1 X110.491395 Y136.599998 F900.000000 E184.695943
G0 X139.099999 Y110.565263 F2400.000000
G1 X113.065264 Y136.599998 F900.000000 E189.428935
G0 X139.099999 Y113.139132 F2400.000000
G1 X115.639132 Y136.599998 F900.000000 E193.694009
G0 X139.099999 Y115.713000 F2400.000000
G1 X118.213001 Y136.599998 F900.000000 E197.491167
G0 X139.099999 Y118.286869 F2400.000000
G1 X120.786870 Y136.599998 F900.000000 E200.820407
G0 X139.099999 Y120.860738 F2400.000000
G1 X123.360739 Y136.599998 F900.000000 E203.681730
G0 X139.099999 Y123.434607 F2400.000000
G1 X125.934608 Y136.599998 F900.000000 E206.075136
G0 X139.099999 Y126.008475 F2400.000000
G1 X128.508477 Y136.599998 F900.000000 E208.000625
G0 X139.099999 Y128.582344 F2400.000000
G1 X131.082346 Y136.599998 F900.000000 E209.458196
G0 X139.099999 Y131.156213 F2400.000000
G1 X133.656215 Y136.599998 F900.000000 E210.447851
G0 X139.099999 Y133.730081 F2400.000000
G1 X136.230083 Y136.599998 F900.000000 E210.969588
G0 X139.099999 Y136.303949 F2400.000000
G1 X138.803951 Y136.599998 F900.000000 E211.023408
G0 X0.000000 Y0.000000 Z0.550000 F0.000000
;WALL LAYER:1 Z:0.550000 HEIGHT:0.250000 OVERLAP:0.200000 WIDTH:0.000000
;PERIMETER:1 LAYER:1 Z:0.550000 HEIGHT:0.250000 OVERLAP:0.200000 WIDTH:0.300000
G0 X90.750000 Y88.250002 F2400.000000
G1 X139.250000 Y88.250000 F600.000000 E214.140499
G1 X139.250000 Y136.749998 E217.257589
G1 X90.750002 Y136.750000 E220.374679
G1 X90.750000 Y88.300002 E223.488556
;PERIMETER:0 LAYER:1 Z:0.550000 HEIGHT:0.250000 OVERLAP:0.200000 WIDTH:0.600000
G0 X90.300000 Y88.250002 F2400.000000
G1 X90.300000 Y87.800002 F600.000000 E223.551228
G1 X139.700000 Y87.800000 E230.431161
G1 X139.700000 Y137.199998 E237.311094
G1 X90.300002 Y137.200000 E244.191027
G1 X90.300000 Y88.300002 E251.001326
;INFILL LAYER:1 Z:0.550000 HEIGHT:0.250000 OVERLAP:0.200000 WIDTH:0.480000
G0 X90.973871 Y88.400002 F2400.000000
G1 X139.099999 Y136.526131 F900.000000 E258.438304
G0 X90.900001 Y90.900001 F2400.000000
G1 X136.599998 Y136.599998 F900.000000 E265.500369
G0 X90.900001 Y93.473869 F2400.000000
G1 X134.026129 Y136.599998 F900.000000 E272.164692
G0 X90.900001 Y96.047738 F2400.000000
G1 X131.452260 Y136.599998 F900.000000 E278.431273
G0 X90.900001 Y98.621607 F2400.000000
G1 X128.878391 Y136.599998 F900.000000 E284.300111
G0 X90.900002 Y101.195477 F2400.000000
G1 X126.304523 Y136.599998 F900.000000 E289.771207
G0 X90.900002 Y103.769345 F2400.000000
G1 X123.730655 Y136.599998 F900.000000 E294.844560
G0 X90.900002 Y106.343214 F2400.000000
G1 X121.156786 Y136.599998 F900.000000 E299.520171
G0 X90.900002 Y108.917083 F2400.000000
G1 X118.582917 Y136.599998 F900.000000 E303.798039
G0 X90.900002 Y111.490951 F2400.000000
G1 X116.009049 Y136.599998 F900.000000 E307.678165
G0 X90.900002 Y114.064819 F2400.000000
G1 X113.435181 Y136.599998 F900.000000 E311.160548
G0 X90.900002 Y116.638688 F2400.000000
G1 X110.861312 Y136.599998 F900.000000 E314.245189
G0 X90.900002 Y119.212557 F2400.000000
G1 X108.287443 Y136.599998 F900.000000 E316.932088
G0 X90.900002 Y121.786426 F2400.000000
G1 X105.713574 Y136.599998 F900.000000 E319.221244
G0 X90.900002 Y124.360294 F2400.000000
G1 X103.139706 Y136.599998 F900.000000 E321.112658
G0 X90.900002 Y126.934164 F2400.000000
G1 X100.565838 Y136.599999 F900.000000 E322.606329
G0 X90.900002 Y129.508033 F2400.000000
G1 X97.991969 Y136.599999 F900.000000 E323.702257
G0 X90.900002 Y132.081902 F2400.000000
G1 X95.418100 Y136.599999 F900.000000 E324.400443
G0 X90.900002 Y134.655770 F2400.000000
G1 X92.844232 Y136.599999 F900.000000 E324.700887
G0 X93.547740 Y88.400002 F2400.000000
G1 X139.099999 Y133.952262 F900.000000 E331.740123
G0 X96.121609 Y88.400002 F2400.000000
G1 X139.099999 Y131.378393 F900.000000 E338.381616
G0 X98.695477 Y88.400002 F2400.000000
G1 X139.099999 Y128.804524 F900.000000 E344.625366
G0 X101.269346 Y88.400002 F2400.000000
G1 X139.099999 Y126.230656 F900.000000 E350.471374
G0 X103.843214 Y88.400002 F2400.000000
G1 X139.099999 Y123.656787 F900.000000 E355.919640
G0 X106.417083 Y88.400002 F2400.000000
G1 X139.099999 Y121.082918 F900.000000 E360.970164
G0 X108.990951 Y88.400002 F2400.000000
G1 X139.099999 Y118.509050 F900.000000 E365.622945
G0 X111.564819 Y88.400002 F2400.000000
G1 X139.099999 Y115.935182 F900.000000 E369.877983
G0 X114.138688 Y88.400002 F2400.000000
G1 X139.099999 Y113.361313 F900.000000 E373.735279
G0 X116.712557 Y88.400002 F2400.000000
G1 X139.099999 Y110.787444 F900.000000 E377.194833
G0 X119.286426 Y88.400002 F2400.000000
G1 X139.099999 Y108.213575 F900.000000 E380.256644
G0 X121.860294 Y88.400002 F2400.000000
G1 X139.099999 Y105.639707 F900.000000 E382.920712
G0 X124.434163 Y88.400002 F2400.000000
G1 X139.099999 Y103.065838 F900.000000 E385.187039
G0 X127.008032 Y88.400002 F2400.000000
G1 X139.099999 Y100.491969 F900.000000 E387.055622
G0 X129.581900 Y88.400001 F2400.000000
G1 X139.099999 Y97.918100 F900.000000 E388.526464
G0 X132.155768 Y88.400001 F2400.000000
G1 X139.099999 Y95.344232 F900.000000 E389.599563
G0 X134.729637 Y88.400001 F2400.000000
G1 X139.099999 Y92.770363 F900.000000 E390.274919
G0 X137.303506 Y88.400001 F2400.000000
G1 X139.099999 Y90.196494 F900.000000 E390.552533
G0 X0.000000 Y0.000000 Z0.800000 F0.000000
;WALL LAYER:2 Z:0.800000 HEIGHT:0.250000 OVERLAP:0.200000 WIDTH:0.000000
;PERIMETER:1 LAYER:2 Z:0.800000 HEIGHT:0.250000 OVERLAP:0.200000 WIDTH:0.300000
G0 X90.750000 Y88.250002 F2400.000000
G1 X139.250000 Y88.250000 F600.000000 E393.669623
G1 X139.250000 Y136.749998 E396.786714
G1 X90.750002 Y136.750000 E399.903804
G1 X90.750000 Y88.300002 E403.017681
;PERIMETER:0 LAYER:2 Z:0.800000 HEIGHT:0.250000 OVERLAP:0.200000 WIDTH:0.600000
G0 X90.300000 Y88.250002 F2400.000000
G1 X90.300000 Y87.800002 F600.000000 E403.080353
G1 X139.700000 Y87.800000 E409.960286
G1 X139.700000 Y137.199998 E416.840219
G1 X90.300002 Y137.200000 E423.720152
G1 X90.300000 Y88.300002 E430.530450
;INFILL LAYER:2 Z:0.800000 HEIGHT:0.250000 OVERLAP:0.200000 WIDTH:0.480000
G0 X91.770805 Y88.400002 F2400.000000
G1 X90.900001 Y89.270807 F900.000000 E430.665017
G0 X94.344674 Y88.400002 F2400.000000
G1 X90.900001 Y91.844676 F900.000000 E431.197326
G0 X96.918543 Y88.400002 F2400.000000
G1 X90.900001 Y94.418545 F900.000000 E432.127377
G0 X99.492412 Y88.400002 F2400.000000
G1 X90.900001 Y96.992414 F900.000000 E433.455171
G0 X102.066280 Y88.400002 F2400.000000
G1 X90.900001 Y99.566282 F900.000000 E435.180707
G0 X104.640150 Y88.400002 F2400.000000
G1 X90.900002 Y102.140150 F900.000000 E437.303986
G0 X107.214019 Y88.400002 F2400.000000
G1 X90.900002 Y104.714019 F900.000000 E439.825007
G0 X109.787888 Y88.400002 F2400.000000
G1 X90.900002 Y107.287888 F900.000000 E442.743770
G0 X112.361755 Y88.400002 F2400.000000
G1 X90.900002 Y109.861755 F900.000000 E446.060276
G0 X114.935624 Y88.400002 F2400.000000
G1 X90.900002 Y112.435624 F900.000000 E449.774525
G0 X117.509493 Y88.400002 F2400.000000
G1 X90.900002 Y115.009493 F900.000000 E453.886516
G0 X120.083362 Y88.400002 F2400.000000
G1 X90.900002 Y117.583362 F900.000000 E458.396249
G0 X122.657230 Y88.400002 F2400.000000
G1 X90.900002 Y120.157230 F900.000000 E463.303725
G0 X125.231099 Y88.400002 F2400.000000
G1 X90.900002 Y122.731099 F900.000000 E468.608943
G0 X127.804969 Y88.400001 F2400.000000
G1 X90.900002 Y125.304967 F900.000000 E474.311904
G0 X130.378838 Y88.400001 F2400.000000
G1 X90.900002 Y127.878836 F900.000000 E480.412608
G0 X132.952706 Y88.400001 F2400.000000
G1 X90.900002 Y130.452704 F900.000000 E486.911053
G0 X135.526575 Y88.400001 F2400.000000
G1 X90.900002 Y133.026573 F900.000000 E493.807242
G0 X138.100444 Y88.400001 F2400.000000
G1 X90.900002 Y135.600442 F900.000000 E501.101172
G0 X139.099999 Y89.974314 F2400.000000
G1 X92.474314 Y136.599999 F900.000000 E508.306286
G0 X139.099999 Y92.548182 F2400.000000
G1 X95.048182 Y136.599999 F900.000000 E515.113656
G0 X139.099999 Y95.122051 F2400.000000
G1 X97.622051 Y136.599999 F900.000000 E521.523285
G0 X139.099999 Y97.695919 F2400.000000
G1 X100.195919 Y136.599999 F900.000000 E527.535170
G0 X139.099999 Y100.269788 F2400.000000
G1 X102.769788 Y136.599999 F900.000000 E533.149314
G0 X139.099999 Y102.843657 F2400.000000
G1 X105.343657 Y136.599998 F900.000000 E538.365715
G0 X139.099999 Y105.417525 F2400.000000
G1 X107.917526 Y136.599998 F900.000000 E543.184373
G0 X139.099999 Y107.991394 F2400.000000
G1 X110.491395 Y136.599998 F900.000000 E547.605289
G0 X139.099999 Y110.565263 F2400.000000
G1 X113.065264 Y136.599998 F900.000000 E551.628462
G0 X139.099999 Y113.139132 F2400.000000
G1 X115.639132 Y136.599998 F900.000000 E555.253893
G0 X139.099999 Y115.713000 F2400.000000
G1 X118.213001 Y136.599998 F900.000000 E558.481582
G0 X139.099999 Y118.286869 F2400.000000
G1 X120.786870 Y136.599998 F900.000000 E561.311527
G0 X139.099999 Y120.860738 F2400.000000
G1 X123.360739 Y136.599998 F900.000000 E563.743731
G0 X139.099999 Y123.434607 F2400.000000
G1 X125.934608 Y136.599998 F900.000000 E565.778192
G0 X139.099999 Y126.008475 F2400.000000
G1 X128.508477 Y136.599998 F900.000000 E567.414910
G0 X139.099999 Y128.582344 F2400.000000
G1 X131.082346 Y136.599998 F900.000000 E568.653886
G0 X139.099999 Y131.156213 F2400.000000
G1 X133.656215 Y136.599998 F900.000000 E569.495120
G0 X139.099999 Y133.730081 F2400.000000
G1 X136.230083 Y136.599998 F900.000000 E569.938611
G0 X139.099999 Y136.303949 F2400.000000
G1 X138.803951 Y136.599998 F900.000000 E569.984359
G0 X0.000000 Y0.000000 Z1.050000 F0.000000
;WALL LAYER:3 Z:1.050000 HEIGHT:0.250000 OVERLAP:0.200000 WIDTH:0.000000
;PERIMETER:1 LAYER:3 Z:1.050000 HEIGHT:0.250000 OVERLAP:0.200000 WIDTH:0.300000
G0 X90.750000 Y88.250002 F2400.000000
G1 X139.250000 Y88.250000 F600.000000 E573.101450
G1 X139.250000 Y136.749998 E576.218540
G1 X90.750002 Y136.750000 E579.335631
G1 X90.750000 Y88.300002 E582.449508
;PERIMETER:0 LAYER:3 Z:1.050000 HEIGHT:0.250000 OVERLAP:0.200000 WIDTH:0.600000
G0 X90.300000 Y88.250002 F2400.000000
G1 X90.300000 Y87.800002 F600.000000 E582.512179
G1 X139.700000 Y87.800000 E589.392113
G1 X139.700000 Y137.199998 E596.272046
G1 X90.300002 Y137.200000 E603.151979
G1 X90.300000 Y88.300002 E609.962277
;INFILL LAYER:3 Z:1.050000 HEIGHT:0.250000 OVERLAP:0.200000 WIDTH:0.480000
G0 X90.973871 Y88.400002 F2400.000000
G1 X139.099999 Y136.526131 F900.000000 E617.399255
G0 X90.900001 Y90.900001 F2400.000000
G1 X136.599998 Y136.599998 F900.000000 E624.461321
G0 X90.900001 Y93.473869 F2400.000000
G1 X134.026129 Y136.599998 F900.000000 E631.125644
G0 X90.900001 Y96.047738 F2400.000000
G1 X131.452260 Y136.599998 F900.000000 E637.392224
G0 X90.900001 Y98.621607 F2400.000000
G1 X128.878391 Y136.599998 F900.000000 E643.261063
G0 X90.900002 Y101.195477 F2400.000000
G1 X126.304523 Y136.599998 F900.000000 E648.732158
G0 X90.900002 Y103.769345 F2400.000000
G1 X123.730655 Y136.599998 F900.000000 E653.805511
G0 X90.900002 Y106.343214 F2400.000000
G1 X121.156786 Y136.599998 F900.000000 E658.481122
G0 X90.900002 Y108.917083 F2400.000000
G1 X118.582917 Y136.599998 F900.000000 E662.758990
G0 X90.900002 Y111.490951 F2400.000000
G1 X116.009049 Y136.599998 F900.000000 E666.639116
G0 X90.900002 Y114.064819 F2400.000000
G1 X113.435181 Y136.599998 F900.000000 E670.121500
G0 X90.900002 Y116.638688 F2400.000000
G1 X110.861312 Y136.599998 F900.000000 E673.206141
G0 X90.900002 Y119.212557 F2400.000000
G1 X108.287443 Y136.599998 F900.000000 E675.893039
G0 X90.900002 Y121.786426 F2400.000000
G1 X105.713574 Y136.599998 F900.000000 E678.182195
G0 X90.900002 Y124.360294 F2400.000000
G1 X103.139706 Y136.599998 F900.000000 E680.073609
G0 X90.900002 Y126.934164 F2400.000000
G1 X100.565838 Y136.599999 F900.000000 E681.567280
G0 X90.900002 Y129.508033 F2400.000000
G1 X97.991969 Y136.599999 F900.000000 E682.663209
G0 X90.900002 Y132.081902 F2400.000000
G1 X95.418100 Y136.599999 F900.000000 E683.361395
G0 X90.900002 Y134.655770 F2400.000000
G1 X92.844232 Y136.599999 F900.000000 E683.661838
G0 X93.547740 Y88.400002 F2400.000000
G1 X139.099999 Y133.952262 F900.000000 E690.701074
G0 X96.121609 Y88.400002 F2400.000000
G1 X139.099999 Y131.378393 F900.000000 E697.342567
G0 X98.695477 Y88.400002 F2400.000000
G1 X139.099999 Y128.804524 F900.000000 E703.586318
G0 X101.269346 Y88.400002 F2400.000000
G1 X139.099999 Y126.230656 F900.000000 E709.432326
G0 X103.843214 Y88.400002 F2400.000000
G1 X139.099999 Y123.656787 F900.000000 E714.880592
G0 X106.417083 Y88.400002 F2400.000000
G1 X139.099999 Y121.082918 F900.000000 E719.931115
G0 X108.990951 Y88.400002 F2400.000000
G1 X139.099999 Y118.509050 F900.000000 E724.583896
G0 X111.564819 Y88.400002 F2400.000000
G1 X139.099999 Y115.935182 F900.000000 E728.838934
G0 X114.138688 Y88.400002 F2400.000000
G1 X139.099999 Y113.361313 F900.000000 E732.696230
