;FLAVOR:UltiGCode
;MATERIAL:38250
;TIME:23588
M140 S230
G0 X95.428015 Y96.354705 Z0.350000 F1500.000000
G1 X183.875633 Y96.415236 E12.999063
G1 X183.790793 Y133.640086 E18.469977
G1 X103.718447 Y133.640001 E30.238131
G1 X95.341125 Y133.186508 E31.471141
G1 X95.428015 Y96.354705 E36.884290
G0 X95.906883 Y96.835032
G1 X183.394539 Y96.894907 E49.742268
G1 X183.311886 Y133.160085 E55.072139
G1 X103.731415 Y133.160001 E66.768003
G1 X95.822199 Y132.731847 E67.932115
G1 X95.906883 Y96.835032 E73.207849
G0 X96.385752 Y97.315360
G1 X182.913444 Y97.374578 E85.924742
G1 X182.832978 Y132.680083 E91.113571
G1 X103.744383 Y132.680000 E102.737144
G1 X96.303273 Y132.277187 E103.832358
G1 X96.385752 Y97.315360 E108.970678
G0 X102.810565 Y103.759758 F900.000000
G1 X176.458760 Y103.810163 E119.794684
G1 X176.407639 Y126.240073 E123.091194
G1 X103.918539 Y126.240000 E133.744846
G1 X102.757755 Y126.177163 E133.915695
G1 X102.810565 Y103.759758 E137.210368
G0 X102.330566 Y103.758371
G1 X102.331696 Y103.279639 E137.280727
G1 X176.939854 Y103.330492 E148.245817
G1 X176.886546 Y126.720074 E151.683370
G1 X103.905571 Y126.720000 E162.409313
G1 X102.276657 Y126.631822 E162.649063
G1 X102.330566 Y103.758371 E166.010761
G0 X101.850568 Y103.756980
G1 X101.852828 Y102.799207 E166.151524
G1 X177.420949 Y102.850821 E177.257700
G1 X177.365454 Y127.200076 E180.836295
G1 X103.892603 Y127.200001 E191.634528
G1 X101.795570 Y127.086481 E191.943178
G1 X101.850568 Y103.756980 E195.371902
G0 X86.911558 Y111.411496 F600.000000
G1 X92.088394 Y111.411496 E196.106878
G1 X92.088413 Y116.588332 E196.841855
G1 X86.911577 Y116.588351 E197.576832
G1 X86.911558 Y111.411496 E198.311812
G0 X104.200923 Y124.800000 F900.000000
G1 X104.247171 Y105.200748 E201.192303
G1 X175.015476 Y105.249176 E211.593054
G1 X174.970916 Y124.800069 E214.466437
G1 X104.200923 Y124.800000 E224.867433
G0 X103.719789 Y125.280000
G1 X103.768303 Y104.720419 E227.889063
G1 X175.496570 Y104.769505 E238.430899
G1 X175.449823 Y125.280070 E241.445324
G1 X103.719789 Y125.280000 E251.987417
G0 X103.238743 Y125.722499
G1 X103.289433 Y104.240090 E255.144674
G1 X175.977665 Y104.289835 E265.827595
G1 X175.928731 Y125.760071 E268.983063
G1 X103.585123 Y125.749952 E279.615332
G1 X103.238743 Y125.722499 E279.666399
G0 X104.442054 Y124.321132
G1 X123.309397 Y105.453789 E283.587893
G0 X123.987755 Y105.454253
G1 X104.882008 Y124.560000 E287.558938
G0 X105.560829 Y124.560001
G1 X124.666113 Y105.454718 E291.529887
G0 X125.344471 Y105.455182
G1 X106.239651 Y124.560002 E295.500739
G0 X106.918472 Y124.560003
G1 X126.022830 Y105.455646 E299.471496
G0 X126.701188 Y105.456110
G1 X107.597295 Y124.560003 E303.442155
G0 X108.276116 Y124.560004
G1 X127.379546 Y105.456574 E307.412719
G0 X128.057904 Y105.457039
G1 X108.954938 Y124.560005 E311.383186
G0 X109.633759 Y124.560006
G1 X128.736262 Y105.457503 E315.353557
G0 X129.414621 Y105.457967
G1 X110.312582 Y124.560006 E319.323831
G0 X110.991404 Y124.560007
G1 X130.092979 Y105.458431 E323.294009
G0 X130.771338 Y105.458896
G1 X111.670225 Y124.560008 E327.264091
G0 X112.349047 Y124.560009
G1 X131.449696 Y105.459360 E331.234077
G0 X132.128054 Y105.459825
G1 X113.027869 Y124.560009 E335.203966
G0 X113.706691 Y124.560010
G1 X132.806412 Y105.460289 E339.173758
G0 X133.484771 Y105.460752
G1 X114.385512 Y124.560011 E343.143455
G0 X115.064334 Y124.560012
G1 X134.163129 Y105.461217 E347.113055
G0 X134.841487 Y105.461681
G1 X115.743156 Y124.560012 E351.082558
G0 X116.421978 Y124.560013
G1 X135.519845 Y105.462146 E355.051966
G0 X136.198203 Y105.462610
G1 X117.100800 Y124.560014 E359.021277
G0 X117.779621 Y124.560015
G1 X136.876562 Y105.463074 E362.990491
G0 X137.554920 Y105.463538
G1 X118.458444 Y124.560015 E366.959610
G0 X119.137265 Y124.560016
G1 X138.233278 Y105.464003 E370.928632
G0 X138.911636 Y105.464467
G1 X119.816087 Y124.560017 E374.897557
G0 X120.494908 Y124.560018
G1 X139.589994 Y105.464931 E378.866387
G0 X140.268353 Y105.465396
G1 X121.173731 Y124.560018 E382.835119
G0 X121.852552 Y124.560019
G1 X140.946712 Y105.465859 E386.803756
G0 X141.625070 Y105.466324
G1 X122.531374 Y124.560019 E390.772296
G0 X123.210196 Y124.560020
G1 X142.303428 Y105.466788 E394.740740
G0 X142.981786 Y105.467253
G1 X123.889018 Y124.560020 E398.709087
G0 X124.567840 Y124.560021
G1 X143.660144 Y105.467717 E402.677339
G0 X144.338503 Y105.468181
G1 X125.246661 Y124.560022 E406.645493
G0 X125.925483 Y124.560023
G1 X145.016861 Y105.468645 E410.613552
G0 X145.695219 Y105.469110
G1 X126.604305 Y124.560023 E414.581514
G0 X127.283127 Y124.560024
G1 X146.373577 Y105.469574 E418.549380
G0 X147.051935 Y105.470038
G1 X127.961948 Y124.560025 E422.517149
G0 X128.640770 Y124.560026
G1 X147.730293 Y105.470503 E426.484822
G0 X148.408652 Y105.470966
G1 X129.319592 Y124.560026 E430.452399
G0 X129.998414 Y124.560027
G1 X149.087010 Y105.471431 E434.419880
G0 X149.765368 Y105.471895
G1 X130.677236 Y124.560028 E438.387264
G0 X131.356058 Y124.560028
G1 X150.443727 Y105.472360 E442.354551
G0 X151.122085 Y105.472824
G1 X132.034880 Y124.560029 E446.321742
G0 X132.713701 Y124.560030
G1 X151.800444 Y105.473288 E450.288837
G0 X152.478802 Y105.473752
G1 X133.392523 Y124.560031 E454.255836
G0 X134.071345 Y124.560031
G1 X153.157160 Y105.474216 E458.222738
G0 X153.835518 Y105.474681
G1 X134.750167 Y124.560032 E462.189544
G0 X135.428988 Y124.560033
G1 X154.513876 Y105.475145 E466.156254
G0 X155.192234 Y105.475610
G1 X136.107810 Y124.560034 E470.122867
G0 X136.786633 Y124.560034
G1 X155.870593 Y105.476073 E474.089384
G0 X156.548951 Y105.476538
G1 X137.465454 Y124.560035 E478.055804
G0 X138.144276 Y124.560036
G1 X157.227309 Y105.477002 E482.022129
G0 X157.905667 Y105.477467
G1 X138.823097 Y124.560037 E485.988356
G0 X139.501920 Y124.560037
G1 X158.584025 Y105.477931 E489.954488
G0 X159.262383 Y105.478395
G1 X140.180741 Y124.560038 E493.920523
G0 X140.859563 Y124.560039
G1 X159.940742 Y105.478859 E497.886462
G0 X160.619101 Y105.479323
G1 X141.538384 Y124.560040 E501.852304
G0 X142.217207 Y124.560040
G1 X161.297459 Y105.479788 E505.818050
G0 X161.975817 Y105.480252
G1 X142.896029 Y124.560040 E509.783700
G0 X143.574850 Y124.560041
G1 X162.654175 Y105.480717 E513.749253
G0 X163.332534 Y105.481180
G1 X144.253672 Y124.560042 E517.714710
G0 X144.932494 Y124.560042
G1 X164.010892 Y105.481645 E521.680071
G0 X164.689250 Y105.482109
G1 X145.611316 Y124.560043 E525.645335
G0 X146.290137 Y124.560044
G1 X165.367608 Y105.482574 E529.610503
G0 X166.045966 Y105.483038
G1 X146.968959 Y124.560045 E533.575575
G0 X147.647781 Y124.560045
G1 X166.724324 Y105.483502 E537.540550
G0 X167.402683 Y105.483966
G1 X148.326603 Y124.560046 E541.505429
G0 X149.005424 Y124.560047
G1 X168.081041 Y105.484430 E545.470212
G0 X168.759399 Y105.484895
G1 X149.684246 Y124.560048 E549.434898
G0 X150.363069 Y124.560048
G1 X169.437757 Y105.485359 E553.399488
G0 X170.116116 Y105.485824
G1 X151.041890 Y124.560049 E557.363982
G0 X151.720712 Y124.560050
G1 X170.794475 Y105.486287 E561.328379
G0 X171.472833 Y105.486752
G1 X152.399533 Y124.560051 E565.292680
G0 X153.078356 Y124.560051
G1 X172.151191 Y105.487216 E569.256884
G0 X172.829549 Y105.487680
G1 X153.757177 Y124.560052 E573.220992
G0 X154.435999 Y124.560053
G1 X173.507907 Y105.488145 E577.185004
G0 X174.186265 Y105.488609
G1 X155.114820 Y124.560054 E581.148920
G0 X155.793643 Y124.560054
G1 X174.774725 Y105.578972 E585.094054
G0 X174.773174 Y106.259345
G1 X156.472465 Y124.560055 E588.897775
G0 X157.151286 Y124.560056
G1 X174.771624 Y106.939718 E592.560085
G0 X174.770073 Y107.620091
G1 X157.830109 Y124.560056 E596.080981
G0 X158.508930 Y124.560057
G1 X174.768522 Y108.300465 E599.460466
G0 X174.766972 Y108.980838
G1 X159.187752 Y124.560058 E602.698538
G0 X159.866573 Y124.560059
G1 X174.765421 Y109.661211 E605.795197
G0 X174.763870 Y110.341584
G1 X160.545396 Y124.560059 E608.750445
G0 X161.224217 Y124.560060
G1 X174.762320 Y111.021957 E611.564279
G0 X174.760768 Y111.702332
G1 X161.903039 Y124.560061 E614.236701
G0 X162.581861 Y124.560061
G1 X174.759217 Y112.382705 E616.767711
G0 X174.757667 Y113.063078
G1 X163.260683 Y124.560061 E619.157308
G0 X163.939505 Y124.560062
G1 X174.756116 Y113.743451 E621.405493
G0 X174.754565 Y114.423824
G1 X164.618326 Y124.560063 E623.512266
G0 X165.297148 Y124.560064
G1 X174.753015 Y115.104198 E625.477626
G0 X174.751464 Y115.784571
G1 X165.975970 Y124.560064 E627.301573
G0 X166.654792 Y124.560065
G1 X174.749913 Y116.464944 E628.984109
G0 X174.748363 Y117.145317
G1 X167.333613 Y124.560066 E630.525232
G0 X168.012435 Y124.560067
G1 X174.746812 Y117.825690 E631.924942
G0 X174.745261 Y118.506063
G1 X168.691257 Y124.560067 E633.183240
G0 X169.370079 Y124.560068
G1 X174.743711 Y119.186437 E634.300125
G0 X174.742160 Y119.866810
G1 X170.048901 Y124.560069 E635.275599
G0 X170.727722 Y124.560070
G1 X174.740609 Y120.547183 E636.109660
G0 X174.739058 Y121.227556
G1 X171.406545 Y124.560070 E636.802308
G0 X172.085366 Y124.560071
G1 X174.737508 Y121.907929 E637.353544
G0 X174.735956 Y122.588304
G1 X172.764188 Y124.560072 E637.763367
G0 X173.443009 Y124.560073
G1 X174.734406 Y123.268677 E638.031778
G0 X174.732855 Y123.949050
G1 X174.121832 Y124.560073 E638.158776
G0 X122.631039 Y105.453324
G1 X104.443660 Y123.640703 E641.938943
G0 X104.445265 Y122.960276
G1 X121.952681 Y105.452860 E645.577782
G0 X121.274322 Y105.452396
G1 X104.446871 Y122.279847 E649.075293
G0 X104.448476 Y121.599420
G1 X120.595963 Y105.451932 E652.431477
G0 X119.917605 Y105.451468
G1 X104.450082 Y120.918991 E655.646333
G0 X104.451687 Y120.238564
G1 X119.239247 Y105.451003 E658.719863
G0 X118.560889 Y105.450539
G1 X104.453293 Y119.558135 E661.652064
G0 X104.454899 Y118.877707
G1 X117.882530 Y105.450075 E664.442938
G0 X117.204172 Y105.449611
G1 X104.456504 Y118.197279 E667.092485
G0 X104.458110 Y117.516850
G1 X116.525814 Y105.449146 E669.600703
G0 X115.847456 Y105.448682
G1 X104.459715 Y116.836423 E671.967595
G0 X104.461321 Y116.155994
G1 X115.169098 Y105.448217 E674.193159
G0 X114.490740 Y105.447753
G1 X104.462926 Y115.475567 E676.277396
G0 X104.464532 Y114.795138
G1 X113.812381 Y105.447289 E678.220305
G0 X113.134023 Y105.446825
G1 X104.466138 Y114.114710 E680.021887
G0 X104.467743 Y113.434282
G1 X112.455665 Y105.446361 E681.682141
G0 X111.777307 Y105.445896
G1 X104.469349 Y112.753854 E683.201068
G0 X104.470954 Y112.073427
G1 X111.098949 Y105.445432 E684.578667
G0 X110.420591 Y105.444967
G1 X104.472560 Y111.392999 E685.814939
G0 X104.474165 Y110.712571
G1 X109.742232 Y105.444504 E686.909884
G0 X109.063874 Y105.444039
G1 X104.475771 Y110.032143 E687.863501
G0 X104.477377 Y109.351714
G1 X108.385516 Y105.443575 E688.675790
G0 X107.707158 Y105.443110
G1 X104.478982 Y108.671287 E689.346752
G0 X104.480588 Y107.990858
G1 X107.028800 Y105.442646 E689.876387
G0 X106.350441 Y105.442183
G1 X104.482193 Y107.310431 E690.264694
G0 X104.483799 Y106.630002
G1 X105.672083 Y105.441718 E690.511674
G0 X104.993725 Y105.441254
G1 X104.485404 Y105.949574 E690.617326
G0 X86.911558 Y111.411496 Z0.650000 F600.000000
G1 X92.088394 Y111.411496 E691.263804
G1 X92.088413 Y116.588332 E691.910282
G1 X86.911577 Y116.588351 E692.556760
G1 X86.911558 Y111.411496 E693.203240
G0 X104.200013 Y124.800001 F900.000000
G1 X104.247120 Y105.200762 E695.722704
G1 X173.488185 Y105.249160 E704.623552
G1 X173.443638 Y124.800097 E707.136806
G1 X104.200013 Y124.800001 E716.037982
G0 X103.718858 Y125.280001
G1 X103.768271 Y104.720427 E718.680895
G1 X173.969280 Y104.769496 E727.705143
G1 X173.922546 Y125.280098 E730.341761
G1 X103.718858 Y125.280001 E739.366351
G0 X103.237778 Y125.728872
G1 X103.289423 Y104.240091 E742.128714
G1 X174.450374 Y104.289832 E751.276361
G1 X174.401455 Y125.760099 E754.036343
G1 X103.423901 Y125.749974 E763.160413
G1 X103.237778 Y125.728872 E763.184492
G0 X104.874149 Y124.560002
G1 X104.441630 Y124.127483 E763.263122
G0 X104.443258 Y123.450289
G1 X105.552973 Y124.560003 E763.464863
G0 X106.231796 Y124.560004
G1 X104.444885 Y122.773093 E763.789715
G0 X104.446513 Y122.095899
G1 X106.910620 Y124.560005 E764.237677
G0 X107.589443 Y124.560006
G1 X104.448141 Y121.418704 E764.808751
G0 X104.449768 Y120.741508
G1 X108.268267 Y124.560007 E765.502936
G0 X108.947090 Y124.560008
G1 X104.451396 Y120.064314 E766.320232
G0 X104.453024 Y119.387119
G1 X109.625914 Y124.560009 E767.260639
G0 X110.304737 Y124.560010
G1 X104.454651 Y118.709924 E768.324157
G0 X104.456279 Y118.032729
G1 X110.983561 Y124.560011 E769.510786
G0 X111.662384 Y124.560012
G1 X104.457907 Y117.355535 E770.820526
G0 X104.459534 Y116.678339
G1 X112.341208 Y124.560013 E772.253377
G0 X113.020031 Y124.560014
G1 X104.461162 Y116.001144 E773.809339
G0 X104.462790 Y115.323950
G1 X113.698854 Y124.560015 E775.488412
G0 X114.377678 Y124.560016
G1 X104.464417 Y114.646754 E777.290596
G0 X104.466044 Y113.969560
G1 X115.056501 Y124.560017 E779.215891
G0 X115.735325 Y124.560018
G1 X104.467672 Y113.292365 E781.264297
G0 X104.469299 Y112.615170
G1 X116.414148 Y124.560019 E783.435814
G0 X117.092972 Y124.560019
G1 X104.470927 Y111.937975 E785.730442
G0 X104.472555 Y111.260780
G1 X117.771795 Y124.560020 E788.148181
G0 X118.450619 Y124.560021
G1 X104.474182 Y110.583585 E790.689031
G0 X104.475810 Y109.906390
G1 X119.129442 Y124.560022 E793.352992
G0 X119.808266 Y124.560023
G1 X104.477438 Y109.229196 E796.140064
G0 X104.479065 Y108.552000
G1 X120.487090 Y124.560025 E799.050247
G0 X121.165914 Y124.560026
G1 X104.480693 Y107.874805 E802.083541
G0 X104.482321 Y107.197611
G1 X121.844737 Y124.560027 E805.239946
G0 X122.523561 Y124.560028
G1 X104.483948 Y106.520415 E808.519463
G0 X104.485576 Y105.843221
G1 X123.202384 Y124.560029 E811.922090
G0 X123.881207 Y124.560030
G1 X104.762295 Y105.441117 E815.397818
G0 X105.441592 Y105.441592
G1 X124.560031 Y124.560031 E818.873459
G0 X125.238854 Y124.560032
G1 X106.120890 Y105.442067 E822.349015
G0 X106.800187 Y105.442542
G1 X125.917678 Y124.560033 E825.824484
G0 X126.596501 Y124.560034
G1 X107.479485 Y105.443017 E829.299868
G0 X108.158782 Y105.443492
G1 X127.275325 Y124.560035 E832.775165
G0 X127.954148 Y124.560036
G1 X108.838079 Y105.443967 E836.250376
G0 X109.517377 Y105.444442
G1 X128.632972 Y124.560037 E839.725500
G0 X129.311795 Y124.560038
G1 X110.196674 Y105.444917 E843.200539
G0 X110.875971 Y105.445391
G1 X129.990619 Y124.560039 E846.675491
G0 X130.669442 Y124.560040
G1 X111.555268 Y105.445866 E850.150358
G0 X112.234566 Y105.446341
G1 X131.348266 Y124.560040 E853.625138
G0 X132.027089 Y124.560041
G1 X112.913863 Y105.446815 E857.099832
G0 X113.593161 Y105.447290
G1 X132.705913 Y124.560042 E860.574440
G0 X133.384736 Y124.560043
G1 X114.272458 Y105.447765 E864.048962
G0 X114.951756 Y105.448240
G1 X134.063560 Y124.560044 E867.523397
G0 X134.742383 Y124.560045
G1 X115.631053 Y105.448715 E870.997747
G0 X116.310350 Y105.449190
G1 X135.421206 Y124.560046 E874.472010
G0 X136.100030 Y124.560047
G1 X116.989648 Y105.449665 E877.946187
G0 X117.668945 Y105.450140
G1 X136.778853 Y124.560048 E881.420278
G0 X137.457677 Y124.560049
G1 X118.348243 Y105.450615 E884.894283
G0 X119.027540 Y105.451090
G1 X138.136500 Y124.560050 E888.368201
G0 X138.815324 Y124.560051
G1 X119.706838 Y105.451565 E891.842033
G0 X120.386134 Y105.452039
G1 X139.494148 Y124.560053 E895.315780
G0 X140.172972 Y124.560054
G1 X121.065432 Y105.452514 E898.789440
G0 X121.744729 Y105.452989
G1 X140.851795 Y124.560055 E902.263015
G0 X141.530619 Y124.560056
G1 X122.424026 Y105.453464 E905.736503
G0 X123.103324 Y105.453938
G1 X142.209442 Y124.560057 E909.209905
G0 X142.888266 Y124.560058
G1 X123.782621 Y105.454413 E912.683220
G0 X124.461919 Y105.454888
G1 X143.567089 Y124.560059 E916.156450
G0 X144.245913 Y124.560060
G1 X125.141216 Y105.455363 E919.629593
G0 X125.820514 Y105.455838
G1 X144.924736 Y124.560061 E923.102651
G0 X145.603559 Y124.560061
G1 X126.499811 Y105.456313 E926.575622
G0 X127.179109 Y105.456788
G1 X146.282383 Y124.560062 E930.048507
G0 X146.961206 Y124.560063
G1 X127.858406 Y105.457263 E933.521305
G0 X128.537704 Y105.457738
G1 X147.640030 Y124.560064 E936.994018
G0 X148.318853 Y124.560065
G1 X129.217000 Y105.458212 E940.466644
