;FLAVOR:UltiGCode
;MATERIAL:39301
;TIME:19510
M140 S230
G0 X95.428015 Y96.354705 Z0.350000 F2400.000000
G1 X183.875633 Y96.415236 F1500.000000 E12.999063
G1 X183.790793 Y133.640086 E18.469977
G1 X103.718447 Y133.640001 E30.238131
G1 X95.341125 Y133.186508 E31.471141
G1 X95.428015 Y96.354705 E36.884290
G0 X95.906883 Y96.835032 F2400.000000
G1 X183.394539 Y96.894907 F1500.000000 E49.742268
G1 X183.311886 Y133.160085 E55.072139
G1 X103.731415 Y133.160001 E66.768003
G1 X95.822199 Y132.731847 E67.932115
G1 X95.906883 Y96.835032 E73.207849
G0 X96.385752 Y97.315360 F2400.000000
G1 X182.913444 Y97.374578 F1500.000000 E85.924742
G1 X182.832978 Y132.680083 E91.113571
G1 X103.744383 Y132.680000 E102.737144
G1 X96.303273 Y132.277187 E103.832358
G1 X96.385752 Y97.315360 E108.970678
G0 X102.810565 Y103.759758 F2400.000000
G1 X176.458760 Y103.810163 F900.000000 E119.794684
G1 X176.407639 Y126.240073 E123.091194
G1 X103.918539 Y126.240000 E133.744846
G1 X102.757755 Y126.177163 E133.915695
G1 X102.810565 Y103.759758 E137.210368
G0 X102.330566 Y103.758371 F2400.000000
G1 X102.331696 Y103.279639 F900.000000 E137.280727
G1 X176.939854 Y103.330492 E148.245817
G1 X176.886546 Y126.720074 E151.683370
G1 X103.905571 Y126.720000 E162.409313
G1 X102.276657 Y126.631822 E162.649063
G1 X102.330566 Y103.758371 E166.010761
G0 X101.850568 Y103.756980 F2400.000000
G1 X101.852828 Y102.799207 F900.000000 E166.151524
G1 X177.420949 Y102.850821 E177.257700
G1 X177.365454 Y127.200076 E180.836295
G1 X103.892603 Y127.200001 E191.634528
G1 X101.795570 Y127.086481 E191.943178
G1 X101.850568 Y103.756980 E195.371902
G0 X73.317283 Y105.287268 F2400.000000
G1 X77.837261 Y105.287268 F600.000000 E196.013622
G1 X77.837283 Y109.807246 E196.655342
G1 X73.317305 Y109.807268 E197.297062
G1 X73.317283 Y105.287268 E197.938785
G0 X97.242143 Y106.887833 F2400.000000
G1 X101.762121 Y106.887833 F600.000000 E198.580505
G1 X101.762143 Y111.407811 E199.222226
G1 X97.242165 Y111.407833 E199.863946
G1 X97.242143 Y106.887833 E200.505669
G0 X84.980354 Y120.171731 F2400.000000
G1 X89.500333 Y120.171731 F600.000000 E201.147389
G1 X89.500355 Y124.691709 E201.789109
G1 X84.980376 Y124.691731 E202.430829
G1 X84.980354 Y120.171731 E203.072553
G0 X59.455129 Y120.171731 F2400.000000
G1 X59.455129 Y120.169908 F600.000000 E203.072811
G1 X63.975107 Y120.160778 E203.714533
G1 X63.975129 Y124.680756 E204.356253
G1 X59.455151 Y124.680779 E204.997973
G1 X59.455129 Y120.171731 E205.638141
G0 X48.316287 Y110.322344 F2400.000000
G1 X48.316287 Y105.802365 F600.000000 E206.279862
G1 X52.836265 Y105.802343 E206.921582
G1 X52.836287 Y110.322322 E207.563302
G1 X48.316287 Y110.322344 E208.205025
G0 X104.200923 Y124.800000 F2400.000000
G1 X104.247171 Y105.200748 F900.000000 E211.085516
G1 X175.015476 Y105.249176 E221.486267
G1 X174.970916 Y124.800069 E224.359650
G1 X104.200923 Y124.800000 E234.760646
G0 X103.719789 Y125.280000 F2400.000000
G1 X103.768303 Y104.720419 F900.000000 E237.782276
G1 X175.496570 Y104.769505 E248.324112
G1 X175.449823 Y125.280070 E251.338537
G1 X103.719789 Y125.280000 E261.880630
G0 X103.238743 Y125.722499 F2400.000000
G1 X103.289433 Y104.240090 F900.000000 E265.037888
G1 X175.977665 Y104.289835 E275.720808
G1 X175.928731 Y125.760071 E278.876276
G1 X103.585123 Y125.749952 E289.508545
G1 X103.238743 Y125.722499 E289.559612
G0 X104.442054 Y124.321132 F2400.000000
G1 X123.309397 Y105.453789 F900.000000 E293.481106
G0 X123.987755 Y105.454253 F2400.000000
G1 X104.882008 Y124.560000 F900.000000 E297.452151
G0 X105.560829 Y124.560001 F2400.000000
G1 X124.666113 Y105.454718 F900.000000 E301.423100
G0 X125.344471 Y105.455182 F2400.000000
G1 X106.239651 Y124.560002 F900.000000 E305.393952
G0 X106.918472 Y124.560003 F2400.000000
G1 X126.022830 Y105.455646 F900.000000 E309.364709
G0 X126.701188 Y105.456110 F2400.000000
G1 X107.597295 Y124.560003 F900.000000 E313.335368
G0 X108.276116 Y124.560004 F2400.000000
G1 X127.379546 Y105.456574 F900.000000 E317.305932
G0 X128.057904 Y105.457039 F2400.000000
G1 X108.954938 Y124.560005 F900.000000 E321.276399
G0 X109.633759 Y124.560006 F2400.000000
G1 X128.736262 Y105.457503 F900.000000 E325.246770
G0 X129.414621 Y105.457967 F2400.000000
G1 X110.312582 Y124.560006 F900.000000 E329.217044
G0 X110.991404 Y124.560007 F2400.000000
G1 X130.092979 Y105.458431 F900.000000 E333.187223
G0 X130.771338 Y105.458896 F2400.000000
G1 X111.670225 Y124.560008 F900.000000 E337.157304
G0 X112.349047 Y124.560009 F2400.000000
G1 X131.449696 Y105.459360 F900.000000 E341.127290
G0 X132.128054 Y105.459825 F2400.000000
G1 X113.027869 Y124.560009 F900.000000 E345.097179
G0 X113.706691 Y124.560010 F2400.000000
G1 X132.806412 Y105.460289 F900.000000 E349.066971
G0 X133.484771 Y105.460752 F2400.000000
G1 X114.385512 Y124.560011 F900.000000 E353.036668
G0 X115.064334 Y124.560012 F2400.000000
G1 X134.163129 Y105.461217 F900.000000 E357.006268
G0 X134.841487 Y105.461681 F2400.000000
G1 X115.743156 Y124.560012 F900.000000 E360.975772
G0 X116.421978 Y124.560013 F2400.000000
G1 X135.519845 Y105.462146 F900.000000 E364.945179
G0 X136.198203 Y105.462610 F2400.000000
G1 X117.100800 Y124.560014 F900.000000 E368.914490
G0 X117.779621 Y124.560015 F2400.000000
G1 X136.876562 Y105.463074 F900.000000 E372.883705
G0 X137.554920 Y105.463538 F2400.000000
G1 X118.458444 Y124.560015 F900.000000 E376.852823
G0 X119.137265 Y124.560016 F2400.000000
G1 X138.233278 Y105.464003 F900.000000 E380.821845
G0 X138.911636 Y105.464467 F2400.000000
G1 X119.816087 Y124.560017 F900.000000 E384.790770
G0 X120.494908 Y124.560018 F2400.000000
G1 X139.589994 Y105.464931 F900.000000 E388.759600
G0 X140.268353 Y105.465396 F2400.000000
G1 X121.173731 Y124.560018 F900.000000 E392.728332
G0 X121.852552 Y124.560019 F2400.000000
G1 X140.946712 Y105.465859 F900.000000 E396.696969
G0 X141.625070 Y105.466324 F2400.000000
G1 X122.531374 Y124.560019 F900.000000 E400.665509
G0 X123.210196 Y124.560020 F2400.000000
G1 X142.303428 Y105.466788 F900.000000 E404.633953
G0 X142.981786 Y105.467253 F2400.000000
G1 X123.889018 Y124.560020 F900.000000 E408.602301
G0 X124.567840 Y124.560021 F2400.000000
G1 X143.660144 Y105.467717 F900.000000 E412.570552
G0 X144.338503 Y105.468181 F2400.000000
G1 X125.246661 Y124.560022 F900.000000 E416.538707
G0 X125.925483 Y124.560023 F2400.000000
G1 X145.016861 Y105.468645 F900.000000 E420.506765
G0 X145.695219 Y105.469110 F2400.000000
G1 X126.604305 Y124.560023 F900.000000 E424.474727
G0 X127.283127 Y124.560024 F2400.000000
G1 X146.373577 Y105.469574 F900.000000 E428.442593
G0 X147.051935 Y105.470038 F2400.000000
G1 X127.961948 Y124.560025 F900.000000 E432.410362
G0 X128.640770 Y124.560026 F2400.000000
G1 X147.730293 Y105.470503 F900.000000 E436.378035
G0 X148.408652 Y105.470966 F2400.000000
G1 X129.319592 Y124.560026 F900.000000 E440.345612
G0 X129.998414 Y124.560027 F2400.000000
G1 X149.087010 Y105.471431 F900.000000 E444.313093
G0 X149.765368 Y105.471895 F2400.000000
G1 X130.677236 Y124.560028 F900.000000 E448.280477
G0 X131.356058 Y124.560028 F2400.000000
G1 X150.443727 Y105.472360 F900.000000 E452.247764
G0 X151.122085 Y105.472824 F2400.000000
G1 X132.034880 Y124.560029 F900.000000 E456.214955
G0 X132.713701 Y124.560030 F2400.000000
G1 X151.800444 Y105.473288 F900.000000 E460.182051
G0 X152.478802 Y105.473752 F2400.000000
G1 X133.392523 Y124.560031 F900.000000 E464.149049
G0 X134.071345 Y124.560031 F2400.000000
G1 X153.157160 Y105.474216 F900.000000 E468.115951
G0 X153.835518 Y105.474681 F2400.000000
G1 X134.750167 Y124.560032 F900.000000 E472.082757
G0 X135.428988 Y124.560033 F2400.000000
G1 X154.513876 Y105.475145 F900.000000 E476.049467
G0 X155.192234 Y105.475610 F2400.000000
G1 X136.107810 Y124.560034 F900.000000 E480.016080
G0 X136.786633 Y124.560034 F2400.000000
G1 X155.870593 Y105.476073 F900.000000 E483.982597
G0 X156.548951 Y105.476538 F2400.000000
G1 X137.465454 Y124.560035 F900.000000 E487.949017
G0 X138.144276 Y124.560036 F2400.000000
G1 X157.227309 Y105.477002 F900.000000 E491.915342
G0 X157.905667 Y105.477467 F2400.000000
G1 X138.823097 Y124.560037 F900.000000 E495.881570
G0 X139.501920 Y124.560037 F2400.000000
G1 X158.584025 Y105.477931 F900.000000 E499.847701
G0 X159.262383 Y105.478395 F2400.000000
G1 X140.180741 Y124.560038 F900.000000 E503.813736
G0 X140.859563 Y124.560039 F2400.000000
G1 X159.940742 Y105.478859 F900.000000 E507.779675
G0 X160.619101 Y105.479323 F2400.000000
G1 X141.538384 Y124.560040 F900.000000 E511.745517
G0 X142.217207 Y124.560040 F2400.000000
G1 X161.297459 Y105.479788 F900.000000 E515.711263
G0 X161.975817 Y105.480252 F2400.000000
G1 X142.896029 Y124.560040 F900.000000 E519.676913
G0 X143.574850 Y124.560041 F2400.000000
G1 X162.654175 Y105.480717 F900.000000 E523.642466
G0 X163.332534 Y105.481180 F2400.000000
G1 X144.253672 Y124.560042 F900.000000 E527.607924
G0 X144.932494 Y124.560042 F2400.000000
G1 X164.010892 Y105.481645 F900.000000 E531.573284
G0 X164.689250 Y105.482109 F2400.000000
G1 X145.611316 Y124.560043 F900.000000 E535.538549
G0 X146.290137 Y124.560044 F2400.000000
G1 X165.367608 Y105.482574 F900.000000 E539.503717
G0 X166.045966 Y105.483038 F2400.000000
G1 X146.968959 Y124.560045 F900.000000 E543.468788
G0 X147.647781 Y124.560045 F2400.000000
G1 X166.724324 Y105.483502 F900.000000 E547.433763
G0 X167.402683 Y105.483966 F2400.000000
G1 X148.326603 Y124.560046 F900.000000 E551.398642
G0 X149.005424 Y124.560047 F2400.000000
G1 X168.081041 Y105.484430 F900.000000 E555.363425
G0 X168.759399 Y105.484895 F2400.000000
G1 X149.684246 Y124.560048 F900.000000 E559.328111
G0 X150.363069 Y124.560048 F2400.000000
G1 X169.437757 Y105.485359 F900.000000 E563.292701
G0 X170.116116 Y105.485824 F2400.000000
G1 X151.041890 Y124.560049 F900.000000 E567.257195
G0 X151.720712 Y124.560050 F2400.000000
G1 X170.794475 Y105.486287 F900.000000 E571.221592
G0 X171.472833 Y105.486752 F2400.000000
G1 X152.399533 Y124.560051 F900.000000 E575.185893
G0 X153.078356 Y124.560051 F2400.000000
G1 X172.151191 Y105.487216 F900.000000 E579.150097
G0 X172.829549 Y105.487680 F2400.000000
G1 X153.757177 Y124.560052 F900.000000 E583.114206
G0 X154.435999 Y124.560053 F2400.000000
G1 X173.507907 Y105.488145 F900.000000 E587.078217
G0 X174.186265 Y105.488609 F2400.000000
G1 X155.114820 Y124.560054 F900.000000 E591.042133
G0 X155.793643 Y124.560054 F2400.000000
G1 X174.774725 Y105.578972 F900.000000 E594.987267
G0 X174.773174 Y106.259345 F2400.000000
G1 X156.472465 Y124.560055 F900.000000 E598.790989
G0 X157.151286 Y124.560056 F2400.000000
G1 X174.771624 Y106.939718 F900.000000 E602.453298
G0 X174.770073 Y107.620091 F2400.000000
G1 X157.830109 Y124.560056 F900.000000 E605.974195
G0 X158.508930 Y124.560057 F2400.000000
G1 X174.768522 Y108.300465 F900.000000 E609.353679
G0 X174.766972 Y108.980838 F2400.000000
G1 X159.187752 Y124.560058 F900.000000 E612.591751
G0 X159.866573 Y124.560059 F2400.000000
G1 X174.765421 Y109.661211 F900.000000 E615.688411
G0 X174.763870 Y110.341584 F2400.000000
G1 X160.545396 Y124.560059 F900.000000 E618.643658
G0 X161.224217 Y124.560060 F2400.000000
G1 X174.762320 Y111.021957 F900.000000 E621.457492
G0 X174.760768 Y111.702332 F2400.000000
G1 X161.903039 Y124.560061 F900.000000 E624.129914
G0 X162.581861 Y124.560061 F2400.000000
G1 X174.759217 Y112.382705 F900.000000 E626.660924
G0 X174.757667 Y113.063078 F2400.000000
G1 X163.260683 Y124.560061 F900.000000 E629.050522
G0 X163.939505 Y124.560062 F2400.000000
G1 X174.756116 Y113.743451 F900.000000 E631.298706
G0 X174.754565 Y114.423824 F2400.000000
G1 X164.618326 Y124.560063 F900.000000 E633.405479
G0 X165.297148 Y124.560064 F2400.000000
G1 X174.753015 Y115.104198 F900.000000 E635.370839
G0 X174.751464 Y115.784571 F2400.000000
G1 X165.975970 Y124.560064 F900.000000 E637.194787
G0 X166.654792 Y124.560065 F2400.000000
G1 X174.749913 Y116.464944 F900.000000 E638.877322
G0 X174.748363 Y117.145317 F2400.000000
G1 X167.333613 Y124.560066 F900.000000 E640.418445
G0 X168.012435 Y124.560067 F2400.000000
G1 X174.746812 Y117.825690 F900.000000 E641.818155
G0 X174.745261 Y118.506063 F2400.000000
G1 X168.691257 Y124.560067 F900.000000 E643.076453
G0 X169.370079 Y124.560068 F2400.000000
G1 X174.743711 Y119.186437 F900.000000 E644.193339
G0 X174.742160 Y119.866810 F2400.000000
G1 X170.048901 Y124.560069 F900.000000 E645.168812
G0 X170.727722 Y124.560070 F2400.000000
G1 X174.740609 Y120.547183 F900.000000 E646.002873
G0 X174.739058 Y121.227556 F2400.000000
G1 X171.406545 Y124.560070 F900.000000 E646.695521
G0 X172.085366 Y124.560071 F2400.000000
G1 X174.737508 Y121.907929 F900.000000 E647.246757
G0 X174.735956 Y122.588304 F2400.000000
G1 X172.764188 Y124.560072 F900.000000 E647.656580
G0 X173.443009 Y124.560073 F2400.000000
G1 X174.734406 Y123.268677 F900.000000 E647.924991
G0 X174.732855 Y123.949050 F2400.000000
G1 X174.121832 Y124.560073 F900.000000 E648.051990
G0 X122.631039 Y105.453324 F2400.000000
G1 X104.443660 Y123.640703 F900.000000 E651.832156
G0 X104.445265 Y122.960276 F2400.000000
G1 X121.952681 Y105.452860 F900.000000 E655.470995
G0 X121.274322 Y105.452396 F2400.000000
G1 X104.446871 Y122.279847 F900.000000 E658.968506
G0 X104.448476 Y121.599420 F2400.000000
G1 X120.595963 Y105.451932 F900.000000 E662.324690
G0 X119.917605 Y105.451468 F2400.000000
G1 X104.450082 Y120.918991 F900.000000 E665.539547
G0 X104.451687 Y120.238564 F2400.000000
G1 X119.239247 Y105.451003 F900.000000 E668.613076
G0 X118.560889 Y105.450539 F2400.000000
G1 X104.453293 Y119.558135 F900.000000 E671.545277
G0 X104.454899 Y118.877707 F2400.000000
G1 X117.882530 Y105.450075 F900.000000 E674.336151
G0 X117.204172 Y105.449611 F2400.000000
G1 X104.456504 Y118.197279 F900.000000 E676.985698
G0 X104.458110 Y117.516850 F2400.000000
G1 X116.525814 Y105.449146 F900.000000 E679.493917
G0 X115.847456 Y105.448682 F2400.000000
G1 X104.459715 Y116.836423 F900.000000 E681.860808
G0 X104.461321 Y116.155994 F2400.000000
G1 X115.169098 Y105.448217 F900.000000 E684.086372
G0 X114.490740 Y105.447753 F2400.000000
G1 X104.462926 Y115.475567 F900.000000 E686.170609
G0 X104.464532 Y114.795138 F2400.000000
G1 X113.812381 Y105.447289 F900.000000 E688.113518
G0 X113.134023 Y105.446825 F2400.000000
G1 X104.466138 Y114.114710 F900.000000 E689.915100
G0 X104.467743 Y113.434282 F2400.000000
G1 X112.455665 Y105.446361 F900.000000 E691.575354
G0 X111.777307 Y105.445896 F2400.000000
G1 X104.469349 Y112.753854 F900.000000 E693.094281
G0 X104.470954 Y112.073427 F2400.000000
G1 X111.098949 Y105.445432 F900.000000 E694.471880
G0 X110.420591 Y105.444967 F2400.000000
G1 X104.472560 Y111.392999 F900.000000 E695.708152
G0 X104.474165 Y110.712571 F2400.000000
G1 X109.742232 Y105.444504 F900.000000 E696.803097
G0 X109.063874 Y105.444039 F2400.000000
G1 X104.475771 Y110.032143 F900.000000 E697.756714
G0 X104.477377 Y109.351714 F2400.000000
G1 X108.385516 Y105.443575 F900.000000 E698.569003
G0 X107.707158 Y105.443110 F2400.000000
G1 X104.478982 Y108.671287 F900.000000 E699.239966
G0 X104.480588 Y107.990858 F2400.000000
G1 X107.028800 Y105.442646 F900.000000 E699.769600
G0 X106.350441 Y105.442183 F2400.000000
G1 X104.482193 Y107.310431 F900.000000 E700.157907
G0 X104.483799 Y106.630002 F2400.000000
G1 X105.672083 Y105.441718 F900.000000 E700.404887
G0 X104.993725 Y105.441254 F2400.000000
G1 X104.485404 Y105.949574 F900.000000 E700.510539
G0 X73.317283 Y105.949574 Z0.700000 F2400.000000
G1 X73.317283 Y105.287419 F600.000000 E700.604548
G1 X77.837261 Y105.287268 E701.246268
G1 X77.837283 Y109.807246 E701.887988
G1 X73.317305 Y109.807268 E702.529708
G1 X73.317283 Y105.949574 E703.077401
G0 X97.242143 Y106.887833 F2400.000000
G1 X101.762121 Y106.887833 F600.000000 E703.719121
G1 X101.762143 Y111.407811 E704.360842
G1 X97.242165 Y111.407833 E705.002562
G1 X97.242143 Y106.887833 E705.644285
G0 X84.980354 Y120.171731 F2400.000000
G1 X89.500333 Y120.171731 F600.000000 E706.286005
G1 X89.500355 Y124.691709 E706.927725
G1 X84.980376 Y124.691731 E707.569445
G1 X84.980354 Y120.171731 E708.211169
G0 X59.455129 Y120.171731 F2400.000000
G1 X59.455129 Y120.169908 F600.000000 E708.211428
