;FLAVOR:UltiGCode
;LAYER 0
;SKIRT 0
G0 X16.338824 Y96.031959 Z0.300000 F9000.000000
G11
G1 X25.119138 Y96.105959 F1800.000000 E0.358442
G1 X25.119149 Y96.045162 E0.528174
G1 X25.203368 Y96.033829 E0.574432
G1 X33.607756 Y96.084736 E0.698663
G1 X33.607807 Y96.059547 E0.715924
G1 X44.113885 Y96.087802 E0.718586
G1 X44.105382 Y97.206543 E1.504540
G1 X44.413531 Y97.402064 E1.626137
G1 X45.291467 Y96.904576 E1.736616
G1 X46.247984 Y96.498433 E1.871697
G1 X47.366494 Y96.160314 E1.981783
G1 X50.890174 Y95.625366 E2.107300
G1 X51.813447 Y95.606135 E2.242502
G1 X56.943054 Y95.718025 E2.377528
G1 X56.942980 Y96.408521 E2.512640
G1 X57.781922 Y96.708856 E2.647752
G1 X58.980763 Y97.279762 E2.782847
G1 X59.490531 Y97.607863 E2.917990
G1 X60.144889 Y97.211280 E3.053278
G1 X62.003357 Y96.276159 E3.189157
G1 X62.941763 Y95.961453 E3.296629
G1 X64.059698 Y95.724442 E3.891132
G1 X65.488055 Y95.628758 E4.026320
G1 X67.098270 Y95.759836 E4.161361
G1 X68.696708 Y95.950538 E4.296479
G1 X69.530102 Y96.161421 E4.431623
G1 X70.371180 Y96.069687 E4.566740
G1 X78.152405 Y96.086074 E4.701813
G1 X78.142420 Y96.683448 E4.836871
G1 X79.188231 Y96.225610 E4.972028
G1 X80.430702 Y95.888544 E5.125512
G1 X81.491523 Y95.747226 E5.154859
G1 X84.134952 Y95.678285 E6.385412
G1 X85.171479 Y95.805519 E6.521185
G1 X86.147985 Y96.027939 E6.660189
G1 X86.591904 Y96.159432 E7.006334
G1 X87.348015 Y96.073383 E7.175442
G1 X91.859899 Y96.097484 E7.331744
G1 X92.907207 Y96.258125 E7.526357
G1 X93.658969 Y96.474273 E7.651352
G1 X94.662907 Y96.199456 E7.786168
G1 X95.719636 Y96.072959 E7.921316
G1 X100.754943 Y96.086596 E8.056443
G1 X101.802620 Y96.245492 E8.191493
G1 X102.814438 Y96.556066 E8.326652
G1 X103.770030 Y97.012526 E8.461727
G1 X104.301714 Y97.357591 E8.492054
G1 X104.561010 Y97.202662 E8.542533
G1 X104.468098 Y96.196463 E9.843882
G1 X110.544336 Y95.639812 E9.849067
G1 X110.804733 Y94.709880 E11.186065
G1 X113.283089 Y95.388972 E11.195825
G1 X114.904297 Y95.240509 E11.328081
G1 X114.970643 Y95.847641 E11.995756
G1 X117.027764 Y96.430781 E12.130946
G1 X118.001121 Y96.866555 E12.266031
G1 X120.170340 Y98.063340 E12.401161
G1 X120.341789 Y98.165955 E12.536262
G1 X121.085421 Y97.513150 E12.671356
G1 X121.975670 Y96.940056 E12.806461
G1 X122.940008 Y96.503345 E12.941589
G1 X123.959271 Y96.213772 E13.076699
G1 X124.243074 Y96.167664 E13.199537
G1 X124.243414 Y96.053074 E13.236117
G1 X137.198460 Y96.083365 E13.419364
G1 X141.004940 Y96.085888 E13.605662
G1 X142.055521 Y96.218409 E13.778841
G1 X143.072650 Y96.503188 E14.010878
G1 X144.039606 Y96.934476 E14.133344
G1 X144.932829 Y97.504760 E14.268128
G1 X145.731748 Y98.198479 E14.403288
G1 X145.909148 Y98.378670 E14.538043
G1 X147.356244 Y97.314046 E14.673517
G1 X148.284969 Y96.819517 E14.808460
G1 X149.396088 Y96.382022 E14.943739
G1 X150.429954 Y96.108687 E15.078527
G1 X153.744658 Y95.621661 E15.213543
G1 X154.625329 Y95.606721 E15.549249
G1 X159.755554 Y95.718025 E15.885957
G1 X159.755480 Y96.408515 E16.021099
G1 X160.592842 Y96.712667 E16.156186
G1 X161.204341 Y96.978081 E16.291304
G1 X162.130850 Y96.541558 E16.426388
G1 X162.673737 Y96.366194 E16.561514
G1 X162.673903 Y96.054090 E16.696636
G1 X162.727114 Y96.043633 E16.831747
G1 X173.158069 Y96.097188 E16.966761
G1 X173.179723 Y96.114325 E17.134720
G1 X173.204723 Y96.110730 E17.747382
G1 X173.192704 Y96.689378 E17.749991
G1 X174.221380 Y96.327603 E18.098458
G1 X175.260724 Y96.126618 E18.224063
G1 X176.234784 Y96.084614 E18.359093
G1 X180.267892 Y96.166343 E18.494251
G1 X180.267916 Y96.057785 E18.629315
G1 X188.185222 Y96.098508 E18.764479
G1 X190.766830 Y96.135034 E18.899600
G1 X190.766868 Y96.304882 E19.034633
G1 X191.601738 Y96.534351 E19.164628
G1 X195.638031 Y95.916287 E19.206726
G1 X195.648055 Y94.700439 E20.542961
G1 X202.935148 Y96.024611 E20.723543
G1 X203.970382 Y96.368176 E20.854010
G1 X206.439806 Y97.470124 E20.988792
G1 X207.372503 Y98.063369 E21.124108
G1 X208.485219 Y98.996773 E21.258292
G1 X209.192951 Y99.795765 E21.393465
G1 X210.692932 Y101.962139 E21.547099
G1 X211.200247 Y102.988534 E21.708435
G1 X211.590368 Y104.160203 E21.843711
G1 X211.740556 Y104.917678 E22.120252
G1 X212.102535 Y107.651428 E22.187673
G1 X212.099926 Y108.597963 E22.347818
G1 X211.965676 Y109.933403 E22.473823
G1 X211.726083 Y110.885064 E22.819375
G1 X211.614859 Y111.249790 E22.989352
G1 X212.253910 Y112.045331 E23.145016
G1 X212.789066 Y112.962627 E23.510718
G1 X213.181452 Y113.943275 E23.635887
G1 X213.427347 Y114.976355 E23.770929
G1 X213.516498 Y116.029199 E23.906012
G1 X213.482505 Y116.829087 E24.041153
G1 X213.170607 Y119.673640 E24.176264
G1 X212.935478 Y120.599971 E24.311332
G1 X212.543708 Y121.677281 E24.446509
G1 X212.032027 Y122.687265 E24.581581
G1 X211.543998 Y123.399885 E24.716142
G1 X210.089903 Y125.221058 E26.127119
G1 X209.310256 Y125.946295 E26.215959
G1 X208.355702 Y126.635377 E26.268150
G1 X207.339700 Y127.197141 E26.397712
G1 X206.733609 Y127.443962 E26.532228
G1 X204.064435 Y128.320720 E26.666597
G1 X202.753259 Y128.545857 E26.742767
G1 X202.391471 Y128.569742 E28.080463
G1 X202.179982 Y129.520225 E28.195734
G1 X202.044780 Y129.515324 E28.293228
G1 X202.041038 Y129.535848 E28.534763
G1 X196.064421 Y128.042590 E32.341048
G1 X195.134180 Y127.835184 E32.476533
G1 X194.293111 Y128.041214 E32.611553
G1 X193.238915 Y128.139514 E32.746745
G1 X192.376100 Y128.130383 E32.881531
G1 X192.183805 Y129.095208 E33.016919
G1 X191.825576 Y130.092548 E33.151962
G1 X191.325419 Y131.025239 E33.287149
G1 X190.693061 Y131.874726 E33.421921
G1 X189.942631 Y132.621971 E33.557358
G1 X189.090540 Y133.250585 E33.585920
G1 X188.154943 Y133.747257 E33.645496
G1 X187.155415 Y134.101342 E34.765754
G1 X186.109946 Y134.304523 E34.773511
G1 X185.268709 Y134.348075 E34.784353
G1 X180.608997 Y134.333056 E35.856629
G1 X179.561289 Y134.174695 E35.859843
G1 X178.549577 Y133.863608 E37.200244
G1 X177.593723 Y133.407588 E37.342981
G1 X176.715667 Y132.815082 E37.389541
G1 X175.933954 Y132.100588 E37.518284
G1 X175.266679 Y131.278633 E37.650865
G1 X174.726889 Y130.368011 E37.799945
G1 X174.327330 Y129.386882 E38.254658
G1 X174.041419 Y128.218337 E38.372477
G1 X173.817016 Y128.167787 E39.027084
G1 X164.172070 Y128.110363 E39.115179
G1 X164.173122 Y127.046169 E39.228866
G1 X163.168397 Y127.467565 E39.398275
G1 X160.592114 Y128.318257 E39.475620
G1 X159.286093 Y128.544504 E39.573241
G1 X158.063079 Y128.615964 E39.838673
G1 X156.538923 Y128.554739 E39.964951
G1 X156.290365 Y129.502398 E40.110750
G1 X155.874787 Y130.473942 E40.293393
G1 X155.320399 Y131.376585 E40.499508
G1 X154.638443 Y132.186953 E40.704888
G1 X153.845927 Y132.888663 E40.814566
G1 X152.957526 Y133.465753 E40.922510
G1 X151.994882 Y133.906447 E41.915264
G1 X151.768135 Y133.977781 E41.991489
G1 X151.767735 Y134.373437 E42.137143
G1 X141.567779 Y134.337178 E42.301390
G1 X141.565398 Y134.377747 E42.437929
G1 X131.086167 Y134.311062 E42.775300
G1 X131.096110 Y134.235209 E42.908536
G1 X130.065541 Y134.347086 E43.036312
G1 X124.832355 Y134.319481 E43.095381
G1 X123.784987 Y134.158760 E43.192471
G1 X122.773595 Y133.845486 E43.768118
G1 X121.818726 Y133.387182 E43.903300
G1 X120.942192 Y132.793033 E44.003097
G1 X120.162222 Y132.076902 E44.135895
G1 X119.496468 Y131.253390 E44.271678
G1 X118.958512 Y130.341045 E44.914100
G1 X118.561249 Y129.359386 E45.049294
G1 X118.334724 Y128.423605 E45.184329
G1 X118.288243 Y128.140681 E45.319442
G1 X116.895669 Y128.492373 E45.400309
G1 X115.442804 Y128.638706 E45.438846
G1 X114.085426 Y128.642559 E45.567766
G1 X112.278385 Y128.436838 E46.346237
G1 X112.052650 Y129.369811 E46.469444
G1 X111.656679 Y130.349234 E46.797295
G1 X111.119141 Y131.262117 E47.004999
G1 X110.455633 Y132.083914 E47.082920
G1 X109.674475 Y132.803167 E47.355715
G1 X108.799096 Y133.396813 E47.491776
G1 X107.843565 Y133.856425 E47.807858
G1 X106.834509 Y134.169361 E47.833350
G1 X105.788740 Y134.331495 E47.959596
G1 X103.157534 Y134.350977 E48.094676
G1 X100.518488 Y134.330398 E48.229737
G1 X99.472152 Y134.165474 E48.364924
G1 X98.461519 Y133.849702 E48.401607
G1 X97.508609 Y133.387562 E48.416227
G1 X96.633641 Y132.791353 E50.069074
G1 X95.856374 Y132.071905 E50.554717
G1 X95.192610 Y131.246622 E50.689815
G1 X94.658436 Y130.332217 E50.824574
G1 X94.263882 Y129.350271 E50.959656
G1 X93.958782 Y128.069642 E51.094862
G1 X89.156769 Y128.048120 E51.229854
G1 X89.160031 Y128.068311 E51.262115
G1 X86.428736 Y128.072419 E51.491321
G1 X86.250880 Y129.040716 E51.625562
G1 X85.907825 Y130.041946 E51.777915
G1 X85.421675 Y130.983184 E51.914350
G1 X84.801857 Y131.841399 E52.341791
G1 X84.062884 Y132.600541 E52.454165
G1 X83.219709 Y133.241408 E53.108849
G1 X82.292693 Y133.752132 E53.196943
G1 X81.337252 Y134.106108 E53.310606
G1 X81.332801 Y134.436048 E53.395654
G1 X70.859541 Y134.371400 E53.526324
G1 X70.840928 Y132.956113 E53.599111
G1 X70.067164 Y132.287523 E53.638930
G1 X69.378289 Y131.486593 E53.645849
G1 X68.811636 Y130.590045 E54.976678
G1 X68.388000 Y129.627399 E54.980202
G1 X68.105466 Y128.606274 E54.983424
G1 X66.909283 Y128.467639 E55.057266
G1 X65.686524 Y128.145220 E55.196387
G1 X64.707068 Y127.739136 E55.331446
G1 X62.784343 Y126.738458 E55.455835
G1 X62.343493 Y126.447076 E55.970497
G1 X61.264919 Y127.089155 E55.984347
G1 X60.353177 Y127.468825 E56.994473
G1 X57.781300 Y128.318012 E57.323875
G1 X56.468511 Y128.545107 E57.345545
G1 X55.250453 Y128.615725 E57.456010
G1 X52.386469 Y128.498493 E57.976975
G1 X52.144724 Y129.449329 E58.132102
G1 X51.736643 Y130.425963 E59.077036
G1 X51.188566 Y131.331852 E59.216197
G1 X50.513491 Y132.148097 E59.561199
G1 X49.725300 Y132.855387 E59.702226
G1 X48.842385 Y133.439538 E59.887524
G1 X47.882052 Y133.887150 E60.023702
G1 X46.867279 Y134.188940 E60.359881
G1 X45.823036 Y134.337035 E60.505954
G1 X34.763744 Y134.332775 E60.663507
G1 X34.763746 Y133.636446 E60.762029
G1 X34.395424 Y133.458448 E61.113853
G1 X33.474858 Y133.887176 E61.234616
G1 X32.464192 Y134.187493 E61.405854
G1 X31.421675 Y134.337063 E61.531058
G1 X30.825029 Y134.358210 E61.579707
G1 X20.340179 Y134.320930 E61.709896
G1 X20.340180 Y133.417435 E61.845388
G1 X19.696012 Y133.006350 E61.980146
G1 X17.844582 Y133.401652 E62.115631
G1 X11.658654 Y104.216207 E62.250437
G1 X11.592773 Y103.156311 E62.352581
G1 X11.684051 Y102.101966 E62.717673
G1 X11.929680 Y101.071186 E62.839604
G1 X12.322876 Y100.090627 E62.985857
G1 X12.857923 Y99.174211 E63.130307
G1 X13.520877 Y98.349073 E63.240502
G1 X14.298828 Y97.629666 E63.537830
G1 X15.171299 Y97.034132 E63.673681
G1 X16.126334 Y96.570640 E63.823883
G1 X16.338402 Y96.498920 E63.972002
G1 X16.338824 Y96.031959 E64.055495
G10
G0 X135.164116 Y95.586630 F9000.000000
G11
G1 X141.152335 Y95.613817 F1800.000000 E64.819498
G1 X142.229548 Y95.765211 E64.958282
G1 X143.275145 Y96.065356 E65.097070
G1 X144.269202 Y96.513309 E65.236177
G1 X145.186271 Y97.095478 E65.374764
G1 X145.943598 Y97.742060 E65.501811
G1 X147.164689 Y96.869022 E65.693324
G1 X148.085846 Y96.388297 E65.825889
G1 X149.068808 Y95.988135 E65.961292
G1 X150.137054 Y95.677903 E66.103213
G1 X153.664808 Y95.146216 E66.558377
G1 X154.635626 Y95.126022 E66.682264
G1 X160.235579 Y95.247267 E67.396890
G1 X160.235480 Y96.045360 E67.498713
G1 X161.193490 Y96.438771 E67.630843
G1 X162.190257 Y96.007209 E67.769422
G1 X162.193901 Y95.572049 E67.824943
G1 X162.251632 Y95.561714 E67.832425
G1 X173.631349 Y95.618255 E69.284301
G1 X173.662562 Y95.637738 E69.288996
G1 X173.689433 Y95.633913 E69.292458
G1 X173.679323 Y95.990263 E69.337941
G1 X174.730136 Y95.721170 E69.476333
G1 X175.817885 Y95.602504 E69.615934
G1 X179.787891 Y95.676960 E70.122529
G1 X179.787916 Y95.576181 E70.135386
G1 X188.429870 Y95.619266 E71.237966
G1 X191.246834 Y95.660508 E71.597401
G1 X191.246869 Y95.926450 E71.631331
G1 X191.642409 Y96.045245 E71.684022
G1 X195.158027 Y95.504487 E72.137830
G1 X195.168054 Y94.126426 E72.313652
G1 X203.034551 Y95.554745 E73.333692
G1 X204.105226 Y95.904575 E73.477399
G1 X206.648923 Y97.037880 E73.832684
G1 X207.615194 Y97.645227 E73.978293
G1 X208.789336 Y98.623061 E74.173239
G1 X209.528386 Y99.444368 E74.314202
G1 X211.094307 Y101.697847 E74.664307
G1 X211.618933 Y102.745231 E74.813761
G1 X212.022005 Y103.917044 E74.971862
G1 X212.215754 Y104.849982 E75.093429
G1 X212.582872 Y107.622276 E75.450214
G1 X212.578738 Y108.631731 E75.579004
G1 X212.442333 Y109.996259 E75.753963
G1 X212.177040 Y111.069364 E75.894994
G1 X212.155860 Y111.136616 E75.903990
G1 X212.777215 Y111.967008 E76.036310
G1 X213.300745 Y112.921003 E76.175146
G1 X213.681874 Y113.939792 E76.313924
G1 X213.917196 Y115.003926 E76.452969
G1 X213.997996 Y116.106499 E76.594016
G1 X213.960131 Y116.876806 E76.692413
G1 X213.643988 Y119.760289 E77.062500
G1 X213.397037 Y120.743549 E77.191844
G1 X212.980114 Y121.876393 E77.345853
G1 X212.453667 Y122.918452 E77.494805
G1 X211.922573 Y123.694980 E77.614831
G1 X210.456709 Y125.531612 E77.914637
G1 X209.650515 Y126.288913 E78.055756
G1 X208.654621 Y127.014505 E78.212963
G1 X207.598010 Y127.605945 E78.367450
G1 X206.793353 Y127.931231 E78.478182
G1 X204.197486 Y128.782035 E78.826705
G1 X202.869939 Y129.016771 E78.998705
G1 X202.784681 Y129.016975 E79.009582
G1 X202.542427 Y130.101912 E79.151411
G1 X202.396654 Y130.096034 E79.170024
G1 X202.392339 Y130.120181 E79.173153
G1 X196.013516 Y128.524361 E80.012064
G1 X195.148314 Y128.331735 E80.125152
G1 X194.244097 Y128.535385 E80.243404
G1 X193.143000 Y128.621246 E80.384312
G1 X192.783143 Y128.618251 E80.430225
G1 X192.529980 Y129.602439 E80.559878
G1 X192.112753 Y130.608019 E80.698778
G1 X191.557016 Y131.542980 E80.837544
G1 X190.875260 Y132.390273 E80.976293
G1 X190.079080 Y133.132436 E81.115160
G1 X189.186623 Y133.754553 E81.253956
G1 X188.214278 Y134.243575 E81.392816
G1 X187.183448 Y134.590133 E81.531566
G1 X186.116550 Y134.786229 E81.669964
G1 X185.274636 Y134.834779 E81.777557
G1 X180.572208 Y134.812037 E82.377513
G1 X179.495720 Y134.651086 E82.516382
G1 X178.453515 Y134.341269 E82.655100
G1 X177.465029 Y133.884843 E82.794009
G1 X176.551684 Y133.294908 E82.932730
G1 X175.731289 Y132.580082 E83.071557
G1 X175.019760 Y131.757165 E83.210351
G1 X174.432807 Y130.840893 E83.349180
G1 X173.980613 Y129.851169 E83.488007
G1 X173.797786 Y129.304775 E83.561517
G1 X173.644404 Y128.646534 E83.647747
G1 X163.692064 Y128.589129 E84.917517
G1 X163.693122 Y127.786078 E85.019973
G1 X161.133079 Y128.664777 E85.365294
G1 X160.117654 Y128.907714 E85.498501
G1 X158.743648 Y129.076168 E85.675114
G1 X157.859889 Y129.077675 E85.787866
G1 X156.919168 Y129.051122 E85.907934
G1 X156.613505 Y130.009658 E86.036294
G1 X156.140785 Y130.989165 E86.175055
G1 X155.532898 Y131.891320 E86.313846
G1 X154.803835 Y132.699572 E86.452718
G1 X153.967503 Y133.394577 E86.591454
G1 X153.041368 Y133.965829 E86.730283
G1 X152.244834 Y134.319215 E86.841460
G1 X152.247734 Y134.856153 E86.909965
G1 X142.047779 Y134.818109 E88.211314
G1 X142.045385 Y134.861099 E88.216807
G1 X130.118946 Y134.806296 E89.738434
G1 X129.801092 Y134.824460 E89.779053
G1 X124.816567 Y134.799555 E90.415001
G1 X123.740137 Y134.640389 E90.553829
G1 X122.696731 Y134.330124 E90.692710
G1 X121.708560 Y133.875386 E90.831492
G1 X120.794710 Y133.285349 E90.970275
G1 X119.973848 Y132.571796 E91.109040
G1 X119.261627 Y131.748575 E91.247921
G1 X118.673866 Y130.833040 E91.386727
G1 X118.221557 Y129.843911 E91.525491
G1 X117.897007 Y128.742237 E91.672018
G1 X116.864091 Y128.984125 E91.807366
G1 X115.439110 Y129.119225 E91.989984
G1 X114.051979 Y129.122318 E92.166959
G1 X112.658829 Y128.965619 E92.345822
G1 X112.363773 Y129.927894 E92.474233
G1 X111.901812 Y130.914561 E92.613230
G1 X111.293961 Y131.837801 E92.754257
G1 X110.570701 Y132.651319 E92.893136
G1 X109.741807 Y133.355212 E93.031875
G1 X108.819748 Y133.933150 E93.170712
G1 X107.826367 Y134.376289 E93.309489
G1 X106.779557 Y134.673514 E93.448324
G1 X105.685213 Y134.820009 E93.589189
G1 X100.562473 Y134.814184 E94.242763
G1 X99.485655 Y134.661003 E94.381530
G1 X98.441228 Y134.355028 E94.520382
G1 X97.450299 Y133.905680 E94.659198
G1 X96.534529 Y133.319533 E94.797918
G1 X95.709359 Y132.610461 E94.936725
