;FLAVOR:UltiGCode
;LAYER 0
;SKIRT 0
G0 X73.795117 Y93.332832 Z0.300000 F9000.000000
G11
G1 X75.985723 Y92.569305 F1800.000000 E0.562865
G1 X77.412056 Y90.720419 E0.958023
G1 X80.275464 Y89.412860 E1.353267
G1 X83.472990 Y89.527553 E1.384924
G1 X83.981994 Y86.793031 E1.791856
G1 X85.835009 Y84.313132 E2.193722
G1 X88.685767 Y82.978285 E2.589193
G1 X89.910531 Y82.844709 E2.739539
G1 X91.950436 Y80.737040 E3.069947
G1 X96.800624 Y79.040466 E3.471492
G1 X97.615791 Y75.773056 E3.866725
G1 X103.217634 Y77.068327 E3.962200
G1 X105.850787 Y75.727933 E4.313570
G1 X108.975668 Y75.751647 E4.715794
G1 X111.731413 Y77.234240 E5.006261
G1 X112.196598 Y77.812030 E5.364224
G1 X114.160976 Y75.936351 E5.759777
G1 X117.138931 Y75.047524 E5.942874
G1 X118.284693 Y75.282466 E6.495750
G1 X122.660591 Y75.843825 E6.887316
G1 X125.243370 Y77.553299 E7.141761
G1 X126.719153 Y80.277128 E7.501360
G1 X126.613171 Y80.501485 E7.915320
G1 X129.683408 Y79.637260 E8.101741
G1 X132.759792 Y80.313553 E8.422614
G1 X135.128929 Y82.312404 E8.790787
G1 X135.789586 Y83.288213 E9.082203
G1 X138.363500 Y83.574189 E9.482266
G1 X140.993608 Y85.302819 E9.884035
G1 X142.501731 Y88.008787 E10.282802
G1 X142.590918 Y88.751789 E10.345457
G1 X145.191037 Y89.659627 E10.754298
G1 X147.327804 Y91.977685 E11.598411
G1 X148.229985 Y94.067998 E12.205649
G1 X150.728390 Y95.344738 E12.701938
G1 X152.565975 Y97.841840 E13.104278
G1 X153.106783 Y99.171165 E13.549752
G1 X155.776235 Y102.584797 E14.052361
G1 X156.330532 Y105.603442 E14.446757
G1 X155.867066 Y107.543187 E14.810463
G1 X158.483188 Y108.592072 E15.268618
G1 X160.595601 Y111.054862 E15.564662
G1 X161.144635 Y112.408965 E15.860036
G1 X162.662778 Y114.414095 E16.189864
G1 X163.407616 Y117.202067 E16.370854
G1 X164.412951 Y119.253051 E16.811857
G1 X164.348708 Y122.388102 E17.107359
G1 X162.808700 Y125.134939 E17.507592
G1 X160.186393 Y126.835688 E17.909504
G1 X159.722660 Y126.997329 E18.312846
G1 X162.153829 Y129.084982 E18.723431
G1 X165.686344 Y134.679204 E19.121558
G1 X161.802182 Y137.429953 E19.747256
G1 X159.680949 Y140.690619 E20.045321
G1 X156.920332 Y142.215054 E20.345066
G1 X153.429306 Y142.280530 E20.670933
G1 X151.188460 Y145.520593 E21.153163
G1 X148.465567 Y146.984135 E21.442817
G1 X145.616590 Y147.084331 E21.662400
G1 X142.291726 Y148.441097 E21.960930
G1 X141.335813 Y146.326742 E22.175622
G1 X139.579291 Y147.834906 E22.433618
G1 X137.187585 Y148.816257 E22.692750
G1 X135.947236 Y149.504709 E23.051906
G1 X132.490789 Y149.537747 E23.159784
G1 X130.329978 Y150.371685 E23.523847
G1 X127.214704 Y150.002787 E23.806893
G1 X124.616198 Y148.221898 E24.199676
G1 X123.160957 Y145.415339 E24.597424
G1 X123.074761 Y142.198315 E24.735767
G1 X124.468282 Y139.406214 E25.073482
G1 X128.282486 Y136.323442 E25.188505
G1 X129.941104 Y134.678142 E25.443480
G1 X131.614213 Y136.327524 E25.826462
G1 X134.050446 Y135.560399 E25.961977
G1 X137.827674 Y135.422670 E26.292232
G1 X139.890854 Y136.370101 E26.687379
G1 X141.271499 Y135.342471 E26.937804
G1 X143.088046 Y133.867605 E27.618331
G1 X144.643692 Y133.226006 E27.850518
G1 X146.487210 Y132.394952 E28.118189
G1 X148.518066 Y132.425972 E28.221601
G1 X150.401715 Y130.333961 E28.320468
G1 X151.111220 Y129.874009 E28.979722
G1 X152.930401 Y127.675533 E29.321506
G1 X154.880300 Y126.617348 E29.718795
G1 X152.424202 Y124.761104 E30.070047
G1 X151.085983 Y121.945371 E30.449503
G1 X150.933304 Y120.871836 E30.839574
G1 X149.746694 Y118.505683 E30.989687
G1 X149.479266 Y117.644705 E31.340219
G1 X148.449952 Y115.931658 E31.731848
G1 X148.268263 Y112.935334 E32.169964
G1 X148.570394 Y111.917038 E32.490839
G1 X146.066169 Y111.261709 E32.850506
G1 X143.730253 Y109.227990 E33.251842
G1 X142.847020 Y107.475099 E33.379349
G1 X137.957306 Y105.343834 E33.716840
G1 X138.431147 Y103.586714 E33.955671
G1 X136.356376 Y103.898153 E34.120726
G1 X136.216366 Y103.099792 E34.420243
G1 X135.441580 Y103.114208 E34.761791
G1 X135.261923 Y97.950070 E35.071152
G1 X132.659733 Y97.313514 E35.164341
G1 X130.313547 Y95.266040 E35.537093
G1 X129.123560 Y92.783367 E35.951659
G1 X126.339922 Y91.735909 E36.129396
G1 X124.213973 Y89.538649 E36.528370
G1 X123.787834 Y88.441937 E36.927085
G1 X121.282465 Y89.569679 E37.278616
G1 X118.217685 Y89.397719 E37.603812
G1 X114.938270 Y88.379098 E37.886412
G1 X112.981088 Y86.799596 E38.268801
G1 X110.857194 Y88.653323 E38.665016
G1 X107.799752 Y89.393179 E38.713403
G1 X106.803848 Y89.309602 E39.083636
G1 X104.441241 Y90.499354 E39.501601
G1 X102.601285 Y90.844068 E39.801990
G1 X101.444066 Y91.422441 E40.072618
G1 X101.086970 Y93.742752 E40.284364
G1 X98.428988 Y93.423678 E40.611734
G1 X96.107394 Y94.123511 E40.644039
G1 X95.376994 Y94.129268 E41.004562
G1 X92.953993 Y95.761771 E41.238174
G1 X89.725989 Y96.133879 E41.538219
G1 X88.344005 Y95.958144 E41.702646
G1 X87.756070 Y99.029547 E42.109744
G1 X85.784373 Y101.454206 E42.158962
G1 X83.316616 Y102.679737 E42.515984
G1 X81.515862 Y104.483660 E42.759083
G1 X79.441472 Y105.260369 E43.340378
G1 X78.517845 Y108.111686 E43.602268
G1 X76.306904 Y110.292551 E44.004764
G1 X75.984608 Y110.492448 E44.406196
G1 X74.868840 Y113.171269 E44.655539
G1 X72.397282 Y115.321560 E45.089989
G1 X72.001383 Y117.642497 E45.125449
G1 X71.906239 Y119.761553 E45.459467
G1 X71.304222 Y121.308192 E45.856767
G1 X71.515698 Y123.865400 E45.960291
G1 X71.507977 Y124.118490 E46.323325
G1 X72.982917 Y126.528816 E46.578310
G1 X73.350709 Y128.322557 E46.946954
G1 X74.861046 Y130.125241 E47.319110
G1 X75.458152 Y131.267358 E47.704599
G1 X77.646151 Y133.589900 E47.983831
G1 X77.372598 Y133.861908 E48.382689
G1 X79.893359 Y135.077032 E49.293539
G1 X81.230239 Y136.434738 E49.683938
G1 X85.377988 Y138.320275 E50.168329
G1 X84.607297 Y140.222807 E51.419707
G1 X87.686169 Y139.534911 E51.771495
G1 X90.739353 Y140.295278 E52.195583
G1 X92.330405 Y141.430213 E52.491051
G1 X95.566300 Y142.490679 E52.887017
G1 X95.810829 Y142.622799 E53.166038
G1 X98.172717 Y141.493357 E53.538760
G1 X101.285187 Y141.592453 E53.948724
G1 X102.057697 Y141.840739 E54.272439
G1 X104.903113 Y141.858423 E54.683115
G1 X106.755077 Y142.609805 E55.096093
G1 X108.807278 Y140.575760 E55.479562
G1 X111.561111 Y139.613906 E55.534014
G1 X114.567603 Y139.914414 E55.892839
G1 X116.465833 Y141.003830 E56.181440
G1 X119.586950 Y141.183209 E56.372690
G1 X119.274405 Y148.315639 E57.168202
G1 X118.141627 Y151.158205 E57.464440
G1 X117.390437 Y154.879821 E57.870869
G1 X107.728202 Y153.193094 E58.280195
G1 X105.335809 Y154.563958 E58.468240
G1 X102.026986 Y154.881470 E58.593468
G1 X99.839085 Y155.640695 E58.886747
G1 X96.768269 Y155.190813 E59.254450
G1 X94.946927 Y153.980195 E59.717580
G1 X92.111900 Y154.685343 E59.854974
G1 X88.976442 Y153.982273 E60.191491
G1 X86.465457 Y154.346684 E60.474318
G1 X83.422050 Y153.298389 E60.837971
G1 X81.198805 Y150.945741 E61.234973
G1 X80.325692 Y148.069708 E61.485692
G1 X80.354535 Y147.643885 E62.156352
G1 X77.689287 Y148.541952 E62.584274
G1 X75.447767 Y148.237781 E62.886354
G1 X74.263881 Y149.157283 E63.149990
G1 X70.420387 Y144.247501 E63.451770
G1 X68.371455 Y145.339837 E63.847523
G1 X66.866046 Y142.532377 E64.256989
G1 X63.680727 Y142.148937 E64.628327
G1 X63.853291 Y140.685173 E65.022657
G1 X62.912683 Y140.404675 E65.097390
G1 X63.461854 Y138.172503 E65.461965
G1 X62.072516 Y135.647416 E65.880182
G1 X59.623617 Y132.967862 E66.176156
G1 X60.339307 Y132.163190 E66.474078
G1 X59.446956 Y129.681085 E66.875687
G1 X59.550937 Y127.466723 E67.283899
G1 X58.199749 Y124.957006 E67.638770
G1 X58.143112 Y121.845811 E68.033733
G1 X58.817308 Y119.999929 E68.435338
G1 X56.596845 Y115.235273 E68.592524
G1 X59.510094 Y113.573122 E68.966746
G1 X60.157134 Y111.295534 E69.622313
G1 X61.434241 Y109.671043 E70.051956
G1 X61.688530 Y107.319390 E70.785513
G1 X63.393501 Y104.728049 E71.162480
G1 X66.042986 Y102.916832 E71.561173
G1 X67.252502 Y100.269479 E71.960412
G1 X69.651709 Y98.320978 E72.055050
G1 X70.191085 Y98.092528 E72.401573
G1 X71.300173 Y95.458992 E72.798071
G1 X73.795117 Y93.332832 E72.947292
;WALL 0
G10
G0 X76.411784 Y98.987653 F9000.000000
G11
G1 X77.374799 Y98.852976 F900.000000 E73.072291
G1 X77.196365 Y99.338094 E73.138737
G1 X76.449743 Y99.567955 E73.239160
G1 X76.411784 Y98.987653 E73.313916
;INFILL 0
G0 X76.923383 Y99.091647 F9000.000000
G1 X76.955194 Y99.059835 F1500.000000 E73.319787
;WALL 0
G10
G0 X81.183031 Y96.015987 F9000.000000
G11
G1 X81.502798 Y95.553223 F900.000000 E73.392095
G1 X82.166196 Y95.838433 E73.484921
G1 X81.858684 Y96.538072 E73.583163
G1 X81.183031 Y96.015987 E73.692925
;INFILL 0
G0 X81.501569 Y95.871106 F9000.000000
G1 X81.519467 Y95.853208 F1500.000000 E73.696228
G0 X81.828112 Y96.223386 F9000.000000
G1 X81.806611 Y96.244886 F1500.000000 E73.700196
;WALL 0
G10
G0 X78.319639 Y98.706205 F9000.000000
G11
G1 X78.104908 Y99.267501 F900.000000 E73.777449
G1 X77.553549 Y98.869161 E73.864888
G1 X78.162475 Y98.645669 E73.948270
G1 X78.319639 Y98.706205 E73.969920
;WALL 0
G10
G0 X89.673488 Y89.806805 F9000.000000
G11
G1 X89.913549 Y89.094327 F900.000000 E74.066568
G1 X90.975058 Y89.623365 E74.219031
G1 X90.518852 Y89.909840 E74.288280
G1 X89.673488 Y89.806805 E74.397754
;INFILL 0
G0 X89.964758 Y89.444385 F9000.000000
G1 X90.015234 Y89.393909 F1500.000000 E74.407068
G0 X90.499531 Y89.588434 F9000.000000
G1 X90.522140 Y89.565825 F1500.000000 E74.411240
;WALL 0
G10
G0 X73.227394 Y104.465112 F9000.000000
G11
G1 X72.977311 Y104.971448 F900.000000 E74.483835
G1 X72.141538 Y104.854183 E74.592325
G1 X72.348201 Y103.974955 E74.708429
G1 X73.227394 Y104.465112 E74.837826
;INFILL 0
G0 X72.810456 Y104.562219 F9000.000000
G1 X72.721957 Y104.650718 F1500.000000 E74.854156
G0 X72.435534 Y104.258319 F9000.000000
G1 X72.445111 Y104.248741 F1500.000000 E74.855923
;WALL 0
G10
G0 X95.487488 Y87.787905 F9000.000000
G11
G1 X95.176086 Y86.096090 F900.000000 E75.077057
G1 X96.039698 Y86.084083 E75.188084
G1 X95.945823 Y87.437465 E75.362478
G1 X96.010267 Y87.772380 E75.406320
G1 X95.487488 Y87.787905 E75.473552
;INFILL 0
G0 X95.624599 Y87.178656 F9000.000000
G1 X95.677878 Y87.125377 F1500.000000 E75.483384
G0 X95.442399 Y86.682034 F9000.000000
G1 X95.842581 Y86.281852 F1500.000000 E75.557228
;WALL 0
G10
G0 X69.694926 Y108.405805 F9000.000000
G11
G1 X69.790627 Y109.576500 F900.000000 E75.708221
G1 X68.015399 Y109.666054 E75.936715
G1 X67.681325 Y109.784923 E75.982297
G1 X67.700575 Y109.295833 E76.045218
G1 X69.263985 Y108.670841 E76.261656
G1 X69.529447 Y108.285254 E76.321833
G1 X69.694926 Y108.405805 E76.348152
;INFILL 0
G0 X69.582369 Y109.147951 F9000.000000
G1 X69.295953 Y109.434367 F1500.000000 E76.401003
G0 X68.852750 Y109.198748 F9000.000000
G1 X68.729430 Y109.322067 F1500.000000 E76.423759
G0 X67.882043 Y109.490632 F9000.000000
G1 X67.836307 Y109.536368 F1500.000000 E76.432198
;WALL 0
G10
G0 X97.894566 Y85.607685 F9000.000000
G11
G1 X98.191898 Y85.040076 F900.000000 E76.514569
G1 X98.523467 Y85.445571 E76.581902
G1 X97.997567 Y85.604837 E76.652538
G1 X97.894566 Y85.607685 E76.665784
;WALL 0
G0 X99.003686 Y85.217253 F9000.000000
G1 X99.689228 Y84.675093 F900.000000 E76.778137
G1 X99.779653 Y85.434331 E76.876426
G1 X99.003686 Y85.217253 E76.980005
;WALL 0
G10
G0 X101.584939 Y84.008810 F9000.000000
G11
G1 X102.074727 Y83.248633 F900.000000 E77.096252
G1 X103.162834 Y83.478093 E77.239203
G1 X102.962686 Y84.466838 E77.368883
G1 X101.584939 Y84.008810 E77.555521
;INFILL 0
G0 X102.252563 Y83.944805 F9000.000000
G1 X102.589431 Y83.607937 F1500.000000 E77.617682
G0 X102.918004 Y83.958186 F9000.000000
G1 X102.722376 Y84.153814 F1500.000000 E77.653781
;WALL 0
G10
G0 X66.270742 Y114.480191 F9000.000000
G11
G1 X65.908301 Y115.158193 F900.000000 E77.752609
G1 X65.514903 Y114.716309 E77.828662
G1 X65.868331 Y114.287263 E77.900118
G1 X66.270742 Y114.480191 E77.957485
;WALL 0
G10
G0 X65.341091 Y117.036689 F9000.000000
G11
G1 X65.900715 Y118.174880 F900.000000 E78.120527
G1 X65.347023 Y118.424152 E78.198584
G1 X64.370738 Y117.323672 E78.387695
G1 X65.341091 Y117.036689 E78.517773
;INFILL 0
G0 X65.300765 Y117.502490 F9000.000000
G1 X65.086550 Y117.716705 F1500.000000 E78.557302
G0 X64.712646 Y117.411787 F9000.000000
G1 X64.689967 Y117.434465 F1500.000000 E78.561486
G0 X65.382460 Y118.099618 F9000.000000
G1 X65.584570 Y117.897508 F1500.000000 E78.598781
;WALL 0
G10
G0 X107.229159 Y83.000027 F9000.000000
G11
G1 X107.216005 Y81.827501 F900.000000 E78.749517
G1 X107.877989 Y82.248610 E78.850373
G1 X108.040929 Y83.054076 E78.956012
G1 X107.229159 Y83.000027 E79.060595
;INFILL 0
G0 X107.492716 Y82.777587 F9000.000000
G1 X107.693440 Y82.576862 F1500.000000 E79.097634
G0 X107.389233 Y82.202248 F9000.000000
G1 X107.424261 Y82.167219 F1500.000000 E79.104098
;WALL 0
G10
G0 X65.244192 Y122.759188 F9000.000000
G11
G1 X65.105704 Y123.522555 F900.000000 E79.203829
G1 X64.230481 Y123.396804 E79.317493
G1 X64.906356 Y122.638575 E79.448065
G1 X65.244192 Y122.759188 E79.494178
;WALL 0
G10
G0 X117.841458 Y82.811303 F9000.000000
G11
G1 X117.597831 Y82.109485 F900.000000 E79.589677
G1 X117.135426 Y81.579055 E79.680135
G1 X117.593756 Y81.346751 E79.746188
G1 X117.882661 Y82.185948 E79.860280
G1 X118.402917 Y82.810227 E79.964744
G1 X117.875914 Y82.923225 E80.034029
G1 X117.841458 Y82.811303 E80.049083
;INFILL 0
G0 X117.935405 Y82.517236 F9000.000000
G1 X117.957672 Y82.494968 F1500.000000 E80.053192
G0 X117.468681 Y81.626314 F9000.000000
G1 X117.477632 Y81.617364 F1500.000000 E80.054844
;WALL 0
G10
G0 X67.048653 Y128.344249 F9000.000000
G11
G1 X66.730004 Y129.008603 F900.000000 E80.149561
G1 X65.676712 Y129.114252 E80.285639
G1 X66.309137 Y127.956164 E80.455262
G1 X67.048653 Y128.344249 E80.562621
;INFILL 0
G0 X66.617364 Y128.404696 F9000.000000
G1 X66.159411 Y128.862649 F1500.000000 E80.647125
;WALL 0
G10
G0 X119.901589 Y83.309590 F9000.000000
G11
G1 X119.753681 Y82.054429 F900.000000 E80.809591
G1 X120.609558 Y81.755057 E80.926149
G1 X120.706024 Y83.015508 E81.088652
G1 X119.932332 Y83.368103 E81.197950
G1 X119.901589 Y83.309590 E81.206447
;INFILL 0
G0 X120.079803 Y83.088128 F9000.000000
G1 X120.531716 Y82.636214 F1500.000000 E81.289837
G0 X119.988706 Y82.500402 F9000.000000
G1 X120.414249 Y82.074859 F1500.000000 E81.368361
;WALL 0
G10
G0 X69.345618 Y132.885103 F9000.000000
G11
G1 X69.065607 Y133.515042 F900.000000 E81.456979
G1 X68.199283 Y134.148401 E81.594931
G1 X68.131045 Y133.368556 E81.695563
G1 X68.938294 Y132.766964 E81.824980
G1 X69.345618 Y132.885103 E81.879499
;WALL 0
G10
G0 X70.773071 Y135.452061 F9000.000000
G11
G1 X71.267126 Y135.774197 F900.000000 E81.955317
G1 X71.434337 Y136.807579 E82.089884
G1 X70.597622 Y136.935457 E82.198692
G1 X70.773071 Y135.452061 E82.390710
;INFILL 0
G0 X71.021515 Y136.219351 F9000.000000
G1 X70.848852 Y136.392014 F1500.000000 E82.422571
;WALL 0
G10
G0 X129.561420 Y86.425848 F9000.000000
G11
G1 X129.863120 Y85.868818 F900.000000 E82.504004
G1 X130.220321 Y86.464708 E82.593314
G1 X129.650068 Y86.466596 E82.666619
G1 X129.561420 Y86.425848 E82.679161
;INFILL 0
G0 X129.839693 Y86.225865 F9000.000000
G1 X129.878061 Y86.187497 F1500.000000 E82.686241
;WALL 0
G10
G0 X75.948010 Y139.985091 F9000.000000
G11
G1 X75.888137 Y140.423737 F900.000000 E82.743151
G1 X75.199375 Y140.391764 E82.831786
G1 X75.397384 Y139.849148 E82.906038
G1 X75.948010 Y139.985091 E82.978946
;WALL 0
G0 X76.633323 Y141.093819 F9000.000000
G1 X77.888220 Y141.707776 F900.000000 E83.158533
G1 X76.933311 Y142.329294 E83.304995
G1 X76.336211 Y141.690702 E83.417380
G1 X76.633323 Y141.093819 E83.503089
;INFILL 0
G0 X77.167040 Y141.613809 F9000.000000
G1 X76.881688 Y141.899160 F1500.000000 E83.555744
;WALL 0
G10
G0 X135.394265 Y91.723881 F9000.000000
G11
G1 X135.170678 Y90.400161 F900.000000 E83.728317
G1 X136.203566 Y89.420953 E83.911276
G1 X136.485264 Y89.988792 E83.992760
G1 X136.020090 Y91.306565 E84.172402
G1 X135.984172 Y91.685628 E84.221349
G1 X135.394265 Y91.723881 E84.297340
;INFILL 0
G0 X135.641167 Y91.285552 F9000.000000
G1 X135.834727 Y91.091991 F1500.000000 E84.333057
G0 X135.430711 Y90.817185 F9000.000000
G1 X136.064475 Y90.183421 F1500.000000 E84.450003
;WALL 0
G10
