;FLAVOR:UltiGCode
;MATERIAL:46428
;TIME:0
G0 X0.000000 Y0.000000 Z0.300000
;BRIM LAYER:0 Z:0.300000 HEIGHT:0.300000 OVERLAP:0.000000 WIDTH:0.000000
;PERIMETER:0 LAYER:0 Z:0.300000 HEIGHT:0.300000 OVERLAP:0.000000 WIDTH:0.480000
G10
G0 X55.252549 Y52.752549 F2400.000000
G11
G1 X114.999997 Y28.004345 F1500.000000 E8.063454
G1 X174.747438 Y52.752549 E16.126908
G1 X199.495656 Y112.499997 E24.190363
G1 X174.747444 Y172.247438 E32.253817
G1 X115.000004 Y196.995656 E40.317271
G1 X55.252553 Y172.247444 E48.380726
G1 X30.504345 Y112.500004 E56.444180
G1 X55.214281 Y52.844937 E64.495166
;PERIMETER:1 LAYER:0 Z:0.300000 HEIGHT:0.300000 OVERLAP:0.000000 WIDTH:0.480000
G0 X54.809087 Y52.568861 F2400.000000
G1 X54.884980 Y52.385638 F1500.000000 E64.519894
G1 X114.999997 Y27.484796 E72.632974
G1 X175.114814 Y52.385172 E80.746008
G1 X200.015205 Y112.499997 E88.859044
G1 X175.114820 Y172.614814 E96.972078
G1 X115.000004 Y197.515205 E105.085113
G1 X54.885177 Y172.614820 E113.198149
G1 X29.984796 Y112.500004 E121.311183
G1 X54.770819 Y52.661249 E129.386960
;PERIMETER:2 LAYER:0 Z:0.300000 HEIGHT:0.300000 OVERLAP:0.000000 WIDTH:0.480000
G0 X54.365624 Y52.385173 F2400.000000
G1 X54.517700 Y52.018029 F1500.000000 E129.436510
G1 X114.999997 Y26.965248 E137.599148
G1 X175.482191 Y52.017796 E145.761763
G1 X200.534753 Y112.499997 E153.924379
G1 X175.482196 Y172.982191 E162.086995
G1 X115.000004 Y198.034753 E170.249610
G1 X54.517801 Y172.982196 E178.412227
G1 X29.465248 Y112.500004 E186.574842
G1 X54.327356 Y52.477561 E194.675409
;WALL LAYER:0 Z:0.300000 HEIGHT:0.300000 OVERLAP:0.200000 WIDTH:0.480000
;PERIMETER:1 LAYER:0 Z:0.300000 HEIGHT:0.300000 OVERLAP:0.200000 WIDTH:0.300000
G0 X67.490766 Y64.990765 F1800.000000
G1 X114.999996 Y45.311798 F600.000000 E198.508972
G1 X162.509224 Y64.990765 E202.342534
G1 X182.188202 Y112.499996 E206.176097
G1 X162.509229 Y160.009224 E210.009659
G1 X115.000004 Y179.688202 E213.843221
G1 X67.490768 Y160.009229 E217.676784
G1 X47.811798 Y112.500004 E221.510346
G1 X67.471631 Y65.036959 E225.340182
;PERIMETER:0 LAYER:0 Z:0.300000 HEIGHT:0.300000 OVERLAP:0.200000 WIDTH:0.600000
G0 X67.318558 Y64.575019 F1800.000000
G1 X114.999996 Y44.824720 F600.000000 E233.832542
G1 X162.853639 Y64.646349 E242.355572
G1 X182.675280 Y112.499996 E250.878603
G1 X162.853644 Y160.353639 E259.401634
G1 X115.000004 Y180.175280 E267.924665
G1 X67.146354 Y160.353644 E276.447697
G1 X47.324720 Y112.500004 E284.970727
G1 X67.146349 Y64.646352 E293.493759
G1 X67.272364 Y64.594153 E293.516203
;INFILL LAYER:0 Z:0.300000 HEIGHT:0.300000 OVERLAP:0.200000 WIDTH:0.480000
G0 X68.182693 Y64.866518 F2400.000000
G1 X67.366519 Y65.682693 F900.000000 E293.664579
G0 X66.886518 Y66.841516 F2400.000000
G1 X69.341516 Y64.386518 F900.000000 E294.110886
G0 X70.500339 Y63.906518 F2400.000000
G1 X66.406519 Y68.000338 F900.000000 E294.855123
G0 X65.926518 Y69.159161 F2400.000000
G1 X71.659162 Y63.426517 F900.000000 E295.897291
G0 X72.817984 Y62.946518 F2400.000000
G1 X65.446519 Y70.317983 F900.000000 E297.237388
G0 X64.966518 Y71.476806 F2400.000000
G1 X73.976807 Y62.466517 F900.000000 E298.875416
G0 X75.135629 Y61.986518 F2400.000000
G1 X64.486519 Y72.635628 F900.000000 E300.811374
G0 X64.006519 Y73.794450 F2400.000000
G1 X76.294452 Y61.506517 F900.000000 E303.045262
G0 X77.453274 Y61.026518 F2400.000000
G1 X63.526519 Y74.953273 F900.000000 E305.577080
G0 X63.046519 Y76.112095 F2400.000000
G1 X78.612097 Y60.546517 F900.000000 E308.406828
G0 X79.770919 Y60.066518 F2400.000000
G1 X62.566519 Y77.270918 F900.000000 E311.534507
G0 X62.086519 Y78.429740 F2400.000000
G1 X80.929742 Y59.586517 F900.000000 E314.960115
G0 X82.088564 Y59.106518 F2400.000000
G1 X61.606519 Y79.588563 F900.000000 E318.683654
G0 X61.126519 Y80.747385 F2400.000000
G1 X83.247387 Y58.626517 F900.000000 E322.705123
G0 X84.406209 Y58.146518 F2400.000000
G1 X60.646520 Y81.906207 F900.000000 E327.024523
G0 X60.166519 Y83.065030 F2400.000000
G1 X85.565032 Y57.666517 F900.000000 E331.641852
G0 X86.723854 Y57.186518 F2400.000000
G1 X59.686520 Y84.223852 F900.000000 E336.557112
G0 X59.206519 Y85.382675 F2400.000000
G1 X87.882677 Y56.706517 F900.000000 E341.770301
G0 X89.041499 Y56.226518 F2400.000000
G1 X58.726520 Y86.541497 F900.000000 E347.281421
G0 X58.246519 Y87.700320 F2400.000000
G1 X90.200321 Y55.746518 F900.000000 E353.090471
G0 X91.359144 Y55.266518 F2400.000000
G1 X57.766520 Y88.859142 F900.000000 E359.197452
G0 X57.286520 Y90.017964 F2400.000000
G1 X92.517966 Y54.786518 F900.000000 E365.602362
G0 X93.676789 Y54.306518 F2400.000000
G1 X56.806520 Y91.176787 F900.000000 E372.305203
G0 X56.326520 Y92.335609 F2400.000000
G1 X94.835611 Y53.826518 F900.000000 E379.305973
G0 X95.994434 Y53.346518 F2400.000000
G1 X55.846519 Y93.494432 F900.000000 E386.604674
G0 X55.366520 Y94.653255 F2400.000000
G1 X97.153256 Y52.866518 F900.000000 E394.201305
G0 X98.312079 Y52.386518 F2400.000000
G1 X54.886519 Y95.812078 F900.000000 E402.095867
G0 X54.406520 Y96.970900 F2400.000000
G1 X99.470901 Y51.906518 F900.000000 E410.288358
G0 X100.629725 Y51.426517 F2400.000000
G1 X53.926519 Y98.129723 F900.000000 E418.778780
G0 X53.446520 Y99.288545 F2400.000000
G1 X101.788547 Y50.946518 F900.000000 E427.567131
G0 X102.947370 Y50.466517 F2400.000000
G1 X52.966520 Y100.447367 F900.000000 E436.653413
G0 X52.486520 Y101.606190 F2400.000000
G1 X104.106192 Y49.986518 F900.000000 E446.037626
G0 X105.265015 Y49.506517 F2400.000000
G1 X52.006520 Y102.765012 F900.000000 E455.719768
G0 X51.526520 Y103.923835 F2400.000000
G1 X106.423837 Y49.026518 F900.000000 E465.699840
G0 X107.582660 Y48.546517 F2400.000000
G1 X51.046520 Y105.082657 F900.000000 E475.977843
G0 X50.566520 Y106.241480 F2400.000000
G1 X108.741482 Y48.066518 F900.000000 E486.553776
G0 X109.900305 Y47.586517 F2400.000000
G1 X50.086520 Y107.400302 F900.000000 E497.427639
G0 X49.606521 Y108.559124 F2400.000000
G1 X111.059127 Y47.106518 F900.000000 E508.599432
G0 X112.217950 Y46.626517 F2400.000000
G1 X49.126520 Y109.717947 F900.000000 E520.069156
G0 X48.646521 Y110.876769 F2400.000000
G1 X113.376772 Y46.146518 F900.000000 E531.836809
G0 X114.535595 Y45.666517 F2400.000000
G1 X48.166520 Y112.035592 F900.000000 E543.902393
G0 X48.093298 Y112.787637 F2400.000000
G1 X115.287636 Y45.593299 F900.000000 E556.118006
G0 X115.767635 Y45.792122 F2400.000000
G1 X48.292120 Y113.267637 F900.000000 E568.384735
G0 X48.490943 Y113.747637 F2400.000000
G1 X116.247636 Y45.990944 F900.000000 E580.702581
G0 X116.727635 Y46.189767 F2400.000000
G1 X48.689765 Y114.227637 F900.000000 E593.071544
G0 X48.888588 Y114.707637 F2400.000000
G1 X117.207636 Y46.388589 F900.000000 E605.491624
G0 X117.687635 Y46.587412 F2400.000000
G1 X49.087411 Y115.187636 F900.000000 E617.962820
G0 X49.286233 Y115.667637 F2400.000000
G1 X118.167636 Y46.786234 F900.000000 E630.485134
G0 X118.647635 Y46.985057 F2400.000000
G1 X49.485056 Y116.147636 F900.000000 E643.058563
G0 X49.683878 Y116.627637 F2400.000000
G1 X119.127636 Y47.183879 F900.000000 E655.683110
G0 X119.607635 Y47.382702 F2400.000000
G1 X49.882701 Y117.107636 F900.000000 E668.358773
G0 X50.081523 Y117.587637 F2400.000000
G1 X120.087636 Y47.581524 F900.000000 E681.085554
G0 X120.567636 Y47.780347 F2400.000000
G1 X50.280346 Y118.067636 F900.000000 E693.863450
G0 X50.479168 Y118.547637 F2400.000000
G1 X121.047636 Y47.979169 F900.000000 E706.692464
G0 X121.527636 Y48.177992 F2400.000000
G1 X50.677991 Y119.027637 F900.000000 E719.572594
G0 X50.876813 Y119.507637 F2400.000000
G1 X122.007636 Y48.376814 F900.000000 E732.503841
G0 X122.487636 Y48.575637 F2400.000000
G1 X51.075636 Y119.987637 F900.000000 E745.486205
G0 X51.274459 Y120.467636 F2400.000000
G1 X122.967635 Y48.774460 F900.000000 E758.519685
G0 X123.447636 Y48.973282 F2400.000000
G1 X51.473281 Y120.947637 F900.000000 E771.604283
G0 X51.672104 Y121.427636 F2400.000000
G1 X123.927635 Y49.172105 F900.000000 E784.739996
G0 X124.407636 Y49.370927 F2400.000000
G1 X51.870926 Y121.907637 F900.000000 E797.926827
G0 X52.069749 Y122.387636 F2400.000000
G1 X124.887635 Y49.569750 F900.000000 E811.164774
G0 X125.367636 Y49.768572 F2400.000000
G1 X52.268571 Y122.867637 F900.000000 E824.453839
G0 X52.467394 Y123.347636 F2400.000000
G1 X125.847635 Y49.967395 F900.000000 E837.794019
G0 X126.327636 Y50.166217 F2400.000000
G1 X52.666216 Y123.827637 F900.000000 E851.185317
G0 X52.865039 Y124.307636 F2400.000000
G1 X126.807635 Y50.365040 F900.000000 E864.627731
G0 X127.287636 Y50.563862 F2400.000000
G1 X53.063861 Y124.787637 F900.000000 E878.121262
G0 X53.262684 Y125.267636 F2400.000000
G1 X127.767635 Y50.762685 F900.000000 E891.665910
G0 X128.247636 Y50.961507 F2400.000000
G1 X53.461507 Y125.747636 F900.000000 E905.261675
G0 X53.660329 Y126.227636 F2400.000000
G1 X128.727635 Y51.160330 F900.000000 E918.908556
G0 X129.207635 Y51.359153 F2400.000000
G1 X53.859152 Y126.707636 F900.000000 E932.606554
G0 X54.057974 Y127.187636 F2400.000000
G1 X129.687635 Y51.557975 F900.000000 E946.355668
G0 X130.167635 Y51.756798 F2400.000000
G1 X54.256797 Y127.667636 F900.000000 E960.155899
G0 X54.455619 Y128.147636 F2400.000000
G1 X130.647635 Y51.955620 F900.000000 E974.007248
G0 X131.127635 Y52.154443 F2400.000000
G1 X54.654442 Y128.627636 F900.000000 E987.909712
G0 X54.853264 Y129.107636 F2400.000000
G1 X131.607635 Y52.353265 F900.000000 E1001.863294
G0 X132.087635 Y52.552088 F2400.000000
G1 X55.052087 Y129.587636 F900.000000 E1015.867992
G0 X55.250909 Y130.067636 F2400.000000
G1 X132.567636 Y52.750910 F900.000000 E1029.923807
G0 X133.047635 Y52.949733 F2400.000000
G1 X55.449732 Y130.547636 F900.000000 E1044.030739
G0 X55.648555 Y131.027636 F2400.000000
G1 X133.527636 Y53.148555 F900.000000 E1058.188788
G0 X134.007635 Y53.347378 F2400.000000
G1 X55.847377 Y131.507636 F900.000000 E1072.397953
G0 X56.046200 Y131.987636 F2400.000000
G1 X134.487636 Y53.546200 F900.000000 E1086.658235
G0 X134.967635 Y53.745023 F2400.000000
G1 X56.245022 Y132.467636 F900.000000 E1100.969634
G0 X56.443845 Y132.947636 F2400.000000
G1 X135.447636 Y53.943845 F900.000000 E1115.332149
G0 X135.927635 Y54.142668 F2400.000000
G1 X56.642667 Y133.427636 F900.000000 E1129.745781
G0 X56.841490 Y133.907636 F2400.000000
G1 X136.407635 Y54.341491 F900.000000 E1144.210530
G0 X136.887635 Y54.540313 F2400.000000
G1 X57.040312 Y134.387636 F900.000000 E1158.726396
G0 X57.239135 Y134.867636 F2400.000000
G1 X137.367635 Y54.739136 F900.000000 E1173.293378
G0 X137.847635 Y54.937958 F2400.000000
G1 X57.437957 Y135.347636 F900.000000 E1187.911477
G0 X57.636780 Y135.827636 F2400.000000
G1 X138.327635 Y55.136781 F900.000000 E1202.580693
G0 X138.807635 Y55.335603 F2400.000000
G1 X57.835603 Y136.307635 F900.000000 E1217.301025
G0 X58.034425 Y136.787636 F2400.000000
G1 X139.287635 Y55.534426 F900.000000 E1232.072474
G0 X139.767635 Y55.733248 F2400.000000
G1 X58.233248 Y137.267635 F900.000000 E1246.895040
G0 X58.432070 Y137.747636 F2400.000000
G1 X140.247635 Y55.932071 F900.000000 E1261.768723
G0 X140.727635 Y56.130893 F2400.000000
G1 X58.630893 Y138.227635 F900.000000 E1276.693522
G0 X58.829715 Y138.707636 F2400.000000
G1 X141.207635 Y56.329716 F900.000000 E1291.669439
G0 X141.687635 Y56.528538 F2400.000000
G1 X59.028538 Y139.187635 F900.000000 E1306.696472
G0 X59.227360 Y139.667636 F2400.000000
G1 X142.167635 Y56.727361 F900.000000 E1321.774621
G0 X142.647635 Y56.926183 F2400.000000
G1 X59.426183 Y140.147635 F900.000000 E1336.903888
G0 X59.625005 Y140.627636 F2400.000000
G1 X143.127635 Y57.125006 F900.000000 E1352.084271
G0 X143.607635 Y57.323829 F2400.000000
G1 X59.823828 Y141.107635 F900.000000 E1367.315771
G0 X60.022651 Y141.587635 F2400.000000
G1 X144.087635 Y57.522651 F900.000000 E1382.598387
G0 X144.567635 Y57.721474 F2400.000000
G1 X60.221473 Y142.067636 F900.000000 E1397.932120
G0 X60.420296 Y142.547635 F2400.000000
G1 X145.047635 Y57.920296 F900.000000 E1413.316970
G0 X145.527635 Y58.119119 F2400.000000
G1 X60.619118 Y143.027636 F900.000000 E1428.752937
G0 X60.817941 Y143.507635 F2400.000000
G1 X146.007635 Y58.317941 F900.000000 E1444.240020
G0 X146.487635 Y58.516764 F2400.000000
G1 X61.016763 Y143.987636 F900.000000 E1459.778221
G0 X61.215586 Y144.467635 F2400.000000
G1 X146.967635 Y58.715586 F900.000000 E1475.367537
G0 X147.447635 Y58.914409 F2400.000000
G1 X61.414408 Y144.947636 F900.000000 E1491.007971
G0 X61.613231 Y145.427635 F2400.000000
G1 X147.927635 Y59.113231 F900.000000 E1506.699522
G0 X148.407635 Y59.312054 F2400.000000
G1 X61.812053 Y145.907636 F900.000000 E1522.442189
G0 X62.010876 Y146.387635 F2400.000000
G1 X148.887635 Y59.510876 F900.000000 E1538.235973
G0 X149.367635 Y59.709699 F2400.000000
G1 X62.209699 Y146.867635 F900.000000 E1554.080873
G0 X62.408521 Y147.347635 F2400.000000
G1 X149.847634 Y59.908522 F900.000000 E1569.976890
G0 X150.327635 Y60.107344 F2400.000000
G1 X62.607344 Y147.827635 F900.000000 E1585.924024
G0 X62.806166 Y148.307635 F2400.000000
G1 X150.807634 Y60.306167 F900.000000 E1601.922275
G0 X151.287635 Y60.504989 F2400.000000
G1 X63.004989 Y148.787635 F900.000000 E1617.971642
G0 X63.203811 Y149.267635 F2400.000000
G1 X151.767634 Y60.703812 F900.000000 E1634.072127
G0 X152.247635 Y60.902634 F2400.000000
G1 X63.402634 Y149.747635 F900.000000 E1650.223728
G0 X63.601456 Y150.227635 F2400.000000
G1 X152.727634 Y61.101457 F900.000000 E1666.426445
G0 X153.207635 Y61.300279 F2400.000000
G1 X63.800279 Y150.707635 F900.000000 E1682.680280
G0 X63.999101 Y151.187635 F2400.000000
G1 X153.687634 Y61.499102 F900.000000 E1698.985231
G0 X154.167635 Y61.697924 F2400.000000
G1 X64.197924 Y151.667635 F900.000000 E1715.341299
G0 X64.396747 Y152.147635 F2400.000000
G1 X154.647635 Y61.896747 F900.000000 E1731.748483
G0 X155.127634 Y62.095569 F2400.000000
G1 X64.595569 Y152.627634 F900.000000 E1748.206784
G0 X64.794391 Y153.107635 F2400.000000
G1 X155.607634 Y62.294392 F900.000000 E1764.716202
G0 X156.087634 Y62.493214 F2400.000000
G1 X64.993214 Y153.587634 F900.000000 E1781.276737
G0 X65.192036 Y154.067635 F2400.000000
G1 X156.567634 Y62.692037 F900.000000 E1797.888388
G0 X157.047634 Y62.890859 F2400.000000
G1 X65.390859 Y154.547634 F900.000000 E1814.551157
G0 X65.589682 Y155.027634 F2400.000000
G1 X157.527634 Y63.089682 F900.000000 E1831.265041
G0 X158.007634 Y63.288504 F2400.000000
G1 X65.788504 Y155.507634 F900.000000 E1848.030043
G0 X65.987327 Y155.987634 F2400.000000
G1 X158.487634 Y63.487327 F900.000000 E1864.846161
G0 X158.967634 Y63.686149 F2400.000000
G1 X66.186149 Y156.467634 F900.000000 E1881.713396
G0 X66.384972 Y156.947634 F2400.000000
G1 X159.447634 Y63.884972 F900.000000 E1898.631748
G0 X159.927634 Y64.083794 F2400.000000
G1 X66.583794 Y157.427634 F900.000000 E1915.601217
G0 X66.782617 Y157.907634 F2400.000000
G1 X160.407634 Y64.282617 F900.000000 E1932.621802
G0 X160.887633 Y64.481440 F2400.000000
G1 X66.981439 Y158.387634 F900.000000 E1949.693504
G0 X67.180262 Y158.867634 F2400.000000
G1 X161.367634 Y64.680262 F900.000000 E1966.816323
G0 X161.847633 Y64.879085 F2400.000000
G1 X67.379084 Y159.347634 F900.000000 E1983.990258
G0 X67.577907 Y159.827634 F2400.000000
G1 X162.327634 Y65.077907 F900.000000 E2001.215310
G0 X162.565579 Y65.518784 F2400.000000
G1 X68.018782 Y160.065581 F900.000000 E2018.403471
G0 X68.498782 Y160.264403 F2400.000000
G1 X162.764401 Y65.998784 F900.000000 E2035.540515
G0 X162.963224 Y66.478784 F2400.000000
G1 X68.978782 Y160.463226 F900.000000 E2052.626442
G0 X69.458782 Y160.662048 F2400.000000
G1 X163.162046 Y66.958784 F900.000000 E2069.661252
G0 X163.360869 Y67.438784 F2400.000000
G1 X69.938782 Y160.860871 F900.000000 E2086.644945
G0 X70.418782 Y161.059693 F2400.000000
G1 X163.559692 Y67.918783 F900.000000 E2103.577522
G0 X163.758514 Y68.398784 F2400.000000
G1 X70.898782 Y161.258516 F900.000000 E2120.458982
G0 X71.378782 Y161.457338 F2400.000000
G1 X163.957337 Y68.878783 F900.000000 E2137.289326
G0 X164.156159 Y69.358784 F2400.000000
G1 X71.858782 Y161.656161 F900.000000 E2154.068552
G0 X72.338781 Y161.854984 F2400.000000
G1 X164.354982 Y69.838783 F900.000000 E2170.796662
G0 X164.553805 Y70.318783 F2400.000000
