;FLAVOR:UltiGCode
;MATERIAL:6093
;TIME:0
G0 X0.000000 Y0.000000 Z0.300000
;BRIM LAYER:0 Z:0.300000 HEIGHT:0.300000 OVERLAP:0.000000 WIDTH:0.000000
;PERIMETER:0 LAYER:0 Z:0.300000 HEIGHT:0.300000 OVERLAP:0.000000 WIDTH:0.480000
G10
G0 X74.759997 Y72.260003 F2400.000000
G11
G1 X155.239948 Y72.259998 F1500.000000 E10.034710
G1 X155.239200 Y152.739994 E20.069425
G1 X74.760010 Y152.740011 E30.104040
G1 X74.759997 Y72.360003 E40.126289
;PERIMETER:1 LAYER:0 Z:0.300000 HEIGHT:0.300000 OVERLAP:0.000000 WIDTH:0.480000
G0 X74.279997 Y72.260003 F2400.000000
G1 X74.279997 Y71.780211 F1500.000000 E40.186112
G1 X155.719948 Y71.779998 E50.340520
G1 X155.719174 Y153.219994 E60.494934
G1 X74.280010 Y153.220012 E70.649244
G1 X74.279997 Y72.360003 E80.731342
;PERIMETER:2 LAYER:0 Z:0.300000 HEIGHT:0.300000 OVERLAP:0.000000 WIDTH:0.480000
G0 X73.799996 Y72.260003 F2400.000000
G1 X73.799996 Y71.300106 F1500.000000 E80.851027
G1 X156.199949 Y71.299997 E91.125134
G1 X156.199149 Y153.699995 E101.399247
G1 X73.800009 Y153.700012 E111.673252
G1 X73.799996 Y72.360003 E121.815199
;WALL LAYER:0 Z:0.300000 HEIGHT:0.300000 OVERLAP:0.200000 WIDTH:0.480000
;PERIMETER:1 LAYER:0 Z:0.300000 HEIGHT:0.300000 OVERLAP:0.200000 WIDTH:0.300000
G10
G0 X90.750000 Y88.250002 F1800.000000
G11
G1 X139.249972 Y88.250000 F600.000000 E125.430808
G1 X139.249998 Y102.794115 E126.515052
G1 X137.642936 Y103.869672 E126.659212
G1 X136.813454 Y104.230368 E126.726642
G1 X136.479407 Y104.272764 E126.751745
G1 X136.182219 Y104.210668 E126.774378
G1 X135.296141 Y103.777383 E126.847909
G1 X133.248936 Y102.337811 E127.034480
G1 X132.207563 Y101.870306 E127.119577
G1 X131.456897 Y101.777860 E127.175961
G1 X130.769243 Y101.875139 E127.227735
G1 X129.743232 Y102.305309 E127.310674
G1 X127.351716 Y103.886195 E127.524390
G1 X126.570145 Y104.265411 E127.589151
G1 X126.501088 Y104.269491 E127.594308
G1 X126.048769 Y103.870359 E127.639279
G1 X125.216227 Y102.538503 E127.756370
G1 X124.642814 Y101.941207 E127.818095
G1 X124.011283 Y101.747779 E127.867334
G1 X123.357855 Y101.930062 E127.917906
G1 X122.555890 Y102.742315 E128.002999
G1 X121.524983 Y104.171708 E128.134381
G1 X121.222192 Y103.865151 E128.166503
G1 X120.259876 Y102.491056 E128.291562
G1 X119.595065 Y101.911362 E128.357318
G1 X118.995900 Y101.751779 E128.403542
G1 X118.353239 Y101.931077 E128.453281
G1 X117.528013 Y102.782618 E128.541681
G1 X116.528686 Y104.174154 E128.669397
G1 X116.221188 Y103.865144 E128.701896
G1 X115.261582 Y102.494917 E128.826603
G1 X114.601268 Y101.904590 E128.892633
G1 X113.960193 Y101.762438 E128.941585
G1 X113.352906 Y101.930425 E128.988557
G1 X112.526796 Y102.782837 E129.077050
G1 X111.505908 Y104.207622 E129.207717
G1 X111.054987 Y103.808617 E129.252603
G1 X109.096826 Y101.364094 E129.486098
G1 X108.137588 Y102.348715 E129.588575
G1 X108.696861 Y104.015965 E129.719672
G1 X109.775450 Y106.403479 E129.914978
G1 X110.289432 Y107.303713 E129.992257
G1 X110.681904 Y107.829192 E130.041152
G1 X111.228921 Y108.264604 E130.093272
G1 X111.941910 Y108.320462 E130.146587
G1 X112.530785 Y107.939446 E130.198875
G1 X113.038584 Y107.260115 E130.262103
G1 X113.686918 Y106.189800 E130.355391
G1 X113.864468 Y106.197922 E130.368641
G1 X114.069818 Y106.619303 E130.403586
G1 X115.105012 Y109.433268 E130.627108
G1 X115.719478 Y110.491341 E130.718322
G1 X116.541173 Y110.868621 E130.785727
G1 X117.291527 Y110.465302 E130.849233
G1 X117.930849 Y109.350632 E130.945028
G1 X118.981628 Y106.499724 E131.171536
G1 X119.230755 Y105.991491 E131.213731
G1 X119.448356 Y106.259600 E131.239473
G1 X120.193192 Y107.416126 E131.342024
G1 X120.842729 Y108.114324 E131.413114
G1 X121.537490 Y108.313554 E131.466995
G1 X122.178005 Y108.094603 E131.517458
G1 X122.772903 Y107.446344 E131.583050
G1 X123.548128 Y106.197961 E131.692599
G1 X123.655816 Y106.051453 E131.706154
G1 X123.991238 Y105.780827 E131.738283
G1 X124.295471 Y105.868660 E131.761890
G1 X124.354405 Y105.914533 E131.767457
G1 X125.095935 Y106.268715 E131.828719
G1 X127.325791 Y107.696603 E132.026113
G1 X128.365324 Y108.186752 E132.111791
G1 X129.022874 Y108.297161 E132.161497
G1 X129.705874 Y108.141233 E132.213724
G1 X130.506792 Y107.510002 E132.289746
G1 X131.529901 Y105.886541 E132.432801
G1 X132.559259 Y107.373197 E132.567603
G1 X132.910333 Y107.729619 E132.604899
G1 X133.577182 Y108.172354 E132.664571
G1 X134.326486 Y108.395162 E132.722848
G1 X135.513401 Y108.563333 E132.812214
G1 X136.834719 Y108.579518 E132.910724
G1 X137.982514 Y108.484713 E132.996582
G1 X139.251460 Y108.246577 E133.092832
G1 X139.250039 Y136.749994 E135.217723
G1 X113.129740 Y136.750000 E137.164957
G1 X113.129811 Y136.434400 E137.188484
G1 X114.848822 Y136.433946 E137.316634
G1 X114.849058 Y134.228246 E137.481066
G1 X114.635098 Y134.228183 E137.497017
G1 X114.864295 Y133.618005 E137.545608
G1 X114.897382 Y133.080089 E137.585785
G1 X114.820693 Y132.533694 E137.626917
G1 X114.845172 Y132.534938 E137.628744
G1 X114.849061 Y127.497218 E138.004299
G1 X113.536796 Y127.497089 E138.102127
G1 X113.492445 Y127.250524 E138.120803
G1 X114.833381 Y126.763021 E138.227170
G1 X114.857387 Y120.365126 E138.704127
G1 X114.850064 Y117.951250 E138.884080
G1 X114.758859 Y117.951202 E138.890879
G1 X114.674267 Y117.789080 E138.904511
G1 X114.763374 Y117.663266 E138.916004
G1 X114.890131 Y117.053349 E138.962444
G1 X114.851346 Y116.404307 E139.010916
G1 X114.694914 Y115.929194 E139.048205
G1 X114.416914 Y115.536646 E139.084065
G1 X114.024665 Y115.234416 E139.120980
G1 X113.560916 Y115.036276 E139.158575
G1 X112.978376 Y114.970471 E139.202279
G1 X112.245314 Y115.084856 E139.257589
G1 X111.750561 Y115.358793 E139.299748
G1 X111.383303 Y115.772948 E139.341013
G1 X111.201224 Y116.204594 E139.375938
G1 X111.111904 Y116.855890 E139.424946
G1 X111.149227 Y117.214705 E139.451839
G1 X111.149082 Y119.165435 E139.597263
G1 X107.969823 Y119.613649 E139.836617
G1 X106.432340 Y116.947321 E140.066066
G1 X105.397673 Y117.129477 E140.144385
G1 X104.863236 Y120.161353 E140.373892
G1 X101.852375 Y120.800421 E140.603348
G1 X101.706301 Y121.840985 E140.681682
G1 X104.424107 Y123.284586 E140.911099
G1 X104.102188 Y126.345812 E141.140567
G1 X105.148961 Y126.856365 E141.227390
G1 X105.148074 Y136.749979 E141.964946
G1 X98.036443 Y136.749995 E142.495108
G1 X97.976953 Y136.528074 E142.512237
G1 X100.952955 Y134.808998 E142.768448
G1 X100.953004 Y129.890316 E143.135129
G1 X96.693125 Y127.431062 E143.501818
G1 X92.432040 Y129.889843 E143.868568
G1 X92.431998 Y134.808980 E144.235283
G1 X95.408832 Y136.527626 E144.491532
G1 X95.349391 Y136.749578 E144.508661
G1 X90.750028 Y136.750000 E144.851537
G1 X90.750002 Y104.826445 E147.231396
G1 X90.934748 Y104.749927 E147.246303
G1 X91.859861 Y105.674543 E147.343809
G1 X92.999763 Y105.979267 E147.431771
G1 X94.139793 Y105.674691 E147.519740
G1 X94.978085 Y104.836596 E147.608109
G1 X95.133135 Y104.225508 E147.655108
G1 X95.363430 Y104.222761 E147.672278
G1 X95.614673 Y105.125694 E147.742147
G1 X96.615596 Y106.110963 E147.846850
G1 X98.042012 Y106.477897 E147.956650
G1 X99.392159 Y106.105367 E148.061063
G1 X100.410169 Y105.087502 E148.168381
G1 X100.630714 Y104.230190 E148.234374
G1 X100.861751 Y104.228964 E148.251597
G1 X101.159415 Y105.339946 E148.337341
G1 X102.359753 Y106.540419 E148.463897
G1 X103.999926 Y106.979372 E148.590473
G1 X105.638822 Y106.540574 E148.716954
G1 X106.840367 Y105.340453 E148.843555
G1 X107.279367 Y103.700074 E148.970146
G1 X106.840521 Y102.060964 E149.096643
G1 X105.639301 Y100.859630 E149.223291
G1 X104.000230 Y100.420629 E149.349789
G1 X102.359813 Y100.859475 E149.476380
G1 X101.230240 Y102.005985 E149.596364
G1 X101.127303 Y102.142972 E149.609139
G1 X100.864638 Y103.151825 E149.686854
G1 X100.636103 Y103.154771 E149.703893
G1 X100.381576 Y102.269371 E149.772571
G1 X99.349951 Y101.272140 E149.879536
G1 X97.993319 Y100.920486 E149.984013
G1 X96.573971 Y101.314771 E150.093830
G1 X95.591749 Y102.314035 E150.198286
G1 X95.366027 Y103.156833 E150.263330
G1 X95.136766 Y103.157490 E150.280421
G1 X94.971943 Y102.555139 E150.326976
G1 X94.105076 Y101.708477 E150.417309
G1 X92.963943 Y101.425686 E150.504953
G1 X91.853501 Y101.728138 E150.590750
G1 X90.937146 Y102.669815 E150.688703
G1 X90.750461 Y102.594053 E150.703723
G1 X90.750000 Y88.300002 E151.769325
;PERIMETER:0 LAYER:0 Z:0.300000 HEIGHT:0.300000 OVERLAP:0.200000 WIDTH:0.600000
G0 X90.300000 Y88.250002 F1800.000000
G1 X90.300000 Y87.800224 F600.000000 E151.843336
G1 X139.699972 Y87.800000 E159.972035
G1 X139.699999 Y103.034428 E162.478840
G1 X137.859539 Y104.266188 E162.843252
G1 X136.933885 Y104.668703 E163.009345
G1 X136.468588 Y104.727740 E163.086523
G1 X136.019382 Y104.638999 E163.161867
G1 X135.063598 Y104.163024 E163.337563
G1 X133.029873 Y102.734177 E163.746546
G1 X132.083859 Y102.308476 E163.917247
G1 X131.461028 Y102.231766 E164.020507
G1 X130.889770 Y102.312566 E164.115442
G1 X129.955307 Y102.704343 E164.282174
G1 X127.582271 Y104.273310 E164.750284
G1 X126.774761 Y104.677841 E164.898900
G1 X126.504802 Y104.725662 E164.944013
G1 X126.287791 Y104.682702 E164.980414
G1 X125.701673 Y104.164079 E165.109194
G1 X124.859335 Y102.816531 E165.370688
G1 X124.399234 Y102.337263 E165.480010
G1 X124.005519 Y102.216636 E165.547767
G1 X123.594134 Y102.331315 E165.618041
G1 X122.900555 Y103.033716 E165.780472
G1 X121.886673 Y104.439497 E166.065677
G1 X121.497344 Y104.783972 E166.151217
G1 X120.875266 Y104.154271 E166.296868
G1 X119.922764 Y102.794155 E166.570097
G1 X119.378201 Y102.319310 E166.688986
G1 X118.998783 Y102.218224 E166.753596
G1 X118.591688 Y102.331721 E166.823138
G1 X117.882539 Y103.077774 E166.992510
G1 X116.881762 Y104.450029 E167.271983
G1 X116.496643 Y104.784245 E167.355890
G1 X115.874263 Y104.154267 E167.501609
G1 X114.922848 Y102.795701 E167.774526
G1 X114.389066 Y102.318490 E167.892343
G1 X113.972295 Y102.226043 E167.962589
G1 X113.590986 Y102.331453 E168.027686
G1 X112.874300 Y103.070872 E168.197129
G1 X111.905882 Y104.422045 E168.470672
G1 X111.477516 Y104.783573 E168.562907
G1 X110.727792 Y104.119954 E168.727659
G1 X109.063904 Y102.042783 E169.165592
G1 X108.651646 Y102.465917 E169.262801
G1 X109.116279 Y103.851335 E169.503249
G1 X110.176787 Y106.198829 E169.927114
G1 X110.666510 Y107.056574 E170.089639
G1 X111.007625 Y107.513294 E170.183440
G1 X111.401317 Y107.826685 E170.266240
G1 X111.825128 Y107.859952 E170.336192
G1 X112.218543 Y107.605505 E170.413288
G1 X112.665018 Y107.008263 E170.535988
G1 X113.268030 Y106.012775 E170.727504
G1 X113.866594 Y105.171919 E170.897341
G1 X114.484441 Y106.442951 E171.129889
G1 X115.513820 Y109.241148 E171.620496
G1 X116.036930 Y110.141913 E171.791897
G1 X116.525294 Y110.366175 E171.880324
G1 X116.965077 Y110.129899 E171.962473
G1 X117.521680 Y109.159555 E172.146545
G1 X118.567392 Y106.322403 E172.644096
G1 X119.136745 Y105.160907 E172.856946
G1 X119.813500 Y105.995433 E173.033744
G1 X120.549884 Y107.138875 E173.257538
G1 X121.086974 Y107.716205 E173.387289
G1 X121.525549 Y107.842004 E173.462366
G1 X121.923846 Y107.705932 E173.531624
G1 X122.411631 Y107.174475 E173.650325
G1 X123.194645 Y105.914034 E173.894491
G1 X123.328950 Y105.735081 E173.931308
G1 X123.802143 Y105.371209 E174.029531
G1 X123.998314 Y105.328389 E174.062571
G1 X124.397406 Y105.425567 E174.130159
G1 X125.316224 Y105.875450 E174.298500
G1 X127.543989 Y107.301971 E174.733790
G1 X128.501061 Y107.753240 E174.907903
G1 X129.009479 Y107.838616 E174.992734
G1 X129.506838 Y107.725102 E175.076678
G1 X130.167367 Y107.204560 E175.215062
G1 X131.107256 Y105.713169 E175.505136
G1 X131.517227 Y105.265671 E175.605001
G1 X131.982451 Y105.755813 E175.716199
G1 X132.907114 Y107.085088 E175.982645
G1 X133.198107 Y107.380518 E176.050879
G1 X133.769946 Y107.760191 E176.163826
G1 X134.422678 Y107.954294 E176.275881
G1 X135.547850 Y108.113720 E176.462875
G1 X136.818913 Y108.129291 E176.672043
G1 X137.922325 Y108.038152 E176.854226
G1 X139.046354 Y107.827213 E177.042412
G1 X139.701429 Y107.629446 E177.155009
G1 X139.700016 Y137.199994 E182.020803
G1 X112.679627 Y137.200000 E186.466972
G1 X112.679923 Y135.984203 E186.667030
G1 X114.398858 Y135.983981 E186.949878
G1 X114.399022 Y134.678240 E187.164736
G1 X114.106071 Y134.678140 E187.212941
G1 X113.943334 Y134.335195 E187.275403
G1 X114.258409 Y133.950102 E187.357277
G1 X114.419270 Y133.522906 E187.432390
G1 X114.445213 Y133.101596 E187.501847
G1 X114.285213 Y132.085130 E187.671164
G1 X114.397894 Y132.085052 E187.689706
G1 X114.399024 Y127.947185 E188.370586
G1 X112.680090 Y127.947019 E188.653435
G1 X112.679961 Y127.071811 E188.797449
G1 X114.383400 Y126.450050 E189.095836
G1 X114.408744 Y119.181709 E190.291839
G1 X114.400026 Y118.401298 E190.420262
G1 X114.009501 Y118.401136 E190.484523
G1 X113.881438 Y117.973026 E190.558052
G1 X114.085030 Y117.839291 E190.598134
G1 X114.342225 Y117.478805 E190.671001
G1 X114.437351 Y117.020577 E190.748010
G1 X114.405641 Y116.489572 E190.835541
G1 X114.288662 Y116.134222 E190.897101
G1 X114.088819 Y115.851972 E190.954007
G1 X113.795389 Y115.625834 E191.014966
G1 X113.444916 Y115.476060 E191.077681
G1 X112.988060 Y115.424421 E191.153335
G1 X112.393567 Y115.517163 E191.252341
G1 X112.036144 Y115.715036 E191.319566
G1 X111.769210 Y116.015998 E191.385761
G1 X111.639012 Y116.324552 E191.440868
G1 X111.565107 Y116.863214 E191.530334
G1 X111.609491 Y117.289908 E191.600925
G1 X111.794864 Y117.706770 E191.675996
G1 X111.599724 Y117.706920 E191.708106
G1 X111.599002 Y121.412325 E192.317825
G1 X111.699916 Y122.276887 E192.461054
G1 X111.600061 Y122.276997 E192.477485
G1 X111.598946 Y123.831628 E192.733297
G1 X110.367108 Y123.366050 E192.949989
G1 X110.367016 Y124.240343 E193.093853
G1 X109.902340 Y124.347852 E193.172334
G1 X108.913458 Y122.323370 E193.543077
G1 X110.965489 Y120.044669 E194.047663
G1 X110.768273 Y119.673842 E194.116775
G1 X107.731768 Y120.101656 E194.621362
G1 X106.199954 Y117.445162 E195.125950
G1 X105.786275 Y117.517974 E195.195067
G1 X105.253701 Y120.538503 E195.699758
G1 X102.254192 Y121.175162 E196.204319
G1 X102.195770 Y121.591194 E196.273448
G1 X104.903386 Y123.029805 E196.777965
G1 X104.582679 Y126.079485 E197.282553
G1 X104.960107 Y126.263592 E197.351653
G1 X107.165809 Y124.133423 E197.856224
G1 X109.966876 Y125.380495 E198.360752
G1 X110.250855 Y125.086322 E198.428032
G1 X111.402221 Y125.446172 E198.626525
G1 X111.401557 Y125.887761 E198.699188
G1 X110.367227 Y126.207645 E198.877340
G1 X110.367005 Y126.496669 E198.924898
G1 X105.599094 Y126.496992 E199.709451
G1 X105.598031 Y137.199980 E201.470614
G1 X90.300013 Y137.200000 E203.987882
G1 X90.300000 Y88.300002 E212.034312
;PERIMETER:1 LAYER:0 Z:0.300000 HEIGHT:0.300000 OVERLAP:0.200000 WIDTH:0.300000
G10
G0 X110.956524 Y120.727078 F1800.000000
G11
G1 X111.148549 Y120.800798 F600.000000 E212.049646
G1 X111.162190 Y121.632916 E212.111687
G1 X111.194261 Y121.826488 E212.126315
G1 X111.151314 Y121.826964 E212.129516
G1 X111.148941 Y123.180544 E212.230424
G1 X109.917119 Y122.715062 E212.328593
G1 X109.917048 Y122.822343 E212.336590
G1 X109.685018 Y122.876892 E212.354359
G1 X109.451158 Y122.398945 E212.394026
G1 X110.923064 Y120.764233 E212.558013
;PERIMETER:1 LAYER:0 Z:0.300000 HEIGHT:0.300000 OVERLAP:0.200000 WIDTH:0.300000
G0 X108.880703 Y125.389489 F1800.000000
G1 X109.823703 Y125.809336 F600.000000 E212.634965
G1 X109.773365 Y126.046602 E212.653047
G1 X106.102454 Y126.047001 E212.926708
G1 X106.026806 Y125.859857 E212.941756
G1 X107.260078 Y124.668006 E213.069612
G1 X108.835026 Y125.369152 E213.198132
;PERIMETER:0 LAYER:0 Z:0.300000 HEIGHT:0.300000 OVERLAP:0.200000 WIDTH:0.600000
G0 X100.503003 Y130.150115 F1800.000000
G1 X96.693076 Y127.950638 F600.000000 E213.922020
G1 X92.882041 Y130.149721 E214.646033
G1 X92.881999 Y134.549167 E215.369956
G1 X96.692980 Y136.749395 E216.094056
G1 X100.502962 Y134.549216 E216.818009
G1 X100.503003 Y130.200115 E217.533648
;PERIMETER:0 LAYER:0 Z:0.300000 HEIGHT:0.300000 OVERLAP:0.200000 WIDTH:0.600000
G10
G0 X103.999949 Y106.513544 F1800.000000
G11
G1 X105.406041 Y106.137051 F600.000000 E217.773169
G1 X106.436881 Y105.107444 E218.012909
