;FLAVOR:UltiGCode
;MATERIAL:6218
;TIME:0
G0 X0.000000 Y0.000000 Z0.300000
;BRIM LAYER:0 Z:0.300000 HEIGHT:0.300000 OVERLAP:0.000000 WIDTH:0.000000
;PERIMETER:0 LAYER:0 Z:0.300000 HEIGHT:0.300000 OVERLAP:0.000000 WIDTH:0.480000
G10
G0 X122.259987 Y90.760022 F2400.000000
G11
G1 X162.739974 Y90.759986 F1500.000000 E5.047281
G1 X162.740013 Y134.239997 E10.468623
G1 X122.260026 Y134.240000 E15.515904
G1 X122.259987 Y90.860023 E20.924772
;PERIMETER:1 LAYER:0 Z:0.300000 HEIGHT:0.300000 OVERLAP:0.000000 WIDTH:0.480000
G0 X122.259987 Y90.280023 F2400.000000
G1 X163.219974 Y90.279985 F1500.000000 E26.031902
G1 X163.220014 Y134.719998 E31.572943
G1 X121.780026 Y134.720000 E36.739922
G1 X121.779986 Y90.280025 E42.280957
G1 X122.159986 Y90.280023 E42.328338
;PERIMETER:2 LAYER:0 Z:0.300000 HEIGHT:0.300000 OVERLAP:0.000000 WIDTH:0.480000
G0 X122.259987 Y89.800022 F2400.000000
G1 X163.699974 Y89.799985 F1500.000000 E47.495317
G1 X163.700014 Y135.199999 E53.156056
G1 X121.300026 Y135.200001 E58.442734
G1 X121.299986 Y89.800025 E64.103468
G1 X122.159986 Y89.800022 E64.210698
;WALL LAYER:0 Z:0.300000 HEIGHT:0.300000 OVERLAP:0.200000 WIDTH:0.480000
;PERIMETER:1 LAYER:0 Z:0.300000 HEIGHT:0.300000 OVERLAP:0.200000 WIDTH:0.300000
G10
G0 X138.250001 Y106.750008 F1800.000000
G11
G1 X146.749979 Y106.750001 F600.000000 E64.844360
G1 X146.749999 Y118.249991 E65.701669
G1 X138.250021 Y118.250000 E66.335331
G1 X138.250001 Y106.800008 E67.188912
;PERIMETER:0 LAYER:0 Z:0.300000 HEIGHT:0.300000 OVERLAP:0.200000 WIDTH:0.600000
G0 X138.250001 Y106.300009 F1800.000000
G1 X147.199978 Y106.300000 F600.000000 E68.661619
G1 X147.200000 Y118.699992 E70.702021
G1 X137.800021 Y118.700000 E72.248775
G1 X137.800000 Y106.300017 E74.289176
G1 X138.200001 Y106.300009 E74.354995
;INFILL LAYER:0 Z:0.300000 HEIGHT:0.300000 OVERLAP:0.200000 WIDTH:0.480000
G0 X138.833740 Y106.900008 F2400.000000
G1 X138.400002 Y107.333747 F900.000000 E74.433847
G0 X138.400002 Y108.012568 F2400.000000
G1 X139.512564 Y106.900007 F900.000000 E74.636105
G0 X140.191387 Y106.900006 F2400.000000
G1 X138.400002 Y108.691391 F900.000000 E74.961771
G0 X138.400003 Y109.370213 F2400.000000
G1 X140.870210 Y106.900006 F900.000000 E75.410842
G0 X141.549033 Y106.900005 F2400.000000
G1 X138.400004 Y110.049034 F900.000000 E75.983321
G0 X138.400004 Y110.727857 F2400.000000
G1 X142.227856 Y106.900005 F900.000000 E76.679206
G0 X142.906679 Y106.900004 F2400.000000
G1 X138.400005 Y111.406678 F900.000000 E77.498498
G0 X138.400005 Y112.085501 F2400.000000
G1 X143.585502 Y106.900004 F900.000000 E78.441197
G0 X144.264325 Y106.900003 F2400.000000
G1 X138.400006 Y112.764322 F900.000000 E79.507302
G0 X138.400006 Y113.443145 F2400.000000
G1 X144.943149 Y106.900002 F900.000000 E80.696815
G0 X145.621971 Y106.900002 F2400.000000
G1 X138.400007 Y114.121966 F900.000000 E82.009733
G0 X138.400007 Y114.800789 F2400.000000
G1 X146.300795 Y106.900002 F900.000000 E83.446059
G0 X146.599990 Y107.279629 F2400.000000
G1 X138.400008 Y115.479610 F900.000000 E84.936777
G0 X138.400008 Y116.158433 F2400.000000
G1 X146.599991 Y107.958450 F900.000000 E86.427495
G0 X146.599991 Y108.637273 F2400.000000
G1 X138.400009 Y116.837255 F900.000000 E87.918213
G0 X138.400010 Y117.516076 F2400.000000
G1 X146.599992 Y109.316094 F900.000000 E89.408931
G0 X146.599992 Y109.994917 F2400.000000
G1 X138.494909 Y118.099999 F900.000000 E90.882397
G0 X139.173732 Y118.099999 F2400.000000
G1 X146.599993 Y110.673738 F900.000000 E92.232456
G0 X146.599994 Y111.352560 F2400.000000
G1 X139.852554 Y118.099999 F900.000000 E93.459108
G0 X140.531377 Y118.099999 F2400.000000
G1 X146.599994 Y112.031383 F900.000000 E94.562354
G0 X146.599995 Y112.710204 F2400.000000
G1 X141.210199 Y118.099999 F900.000000 E95.542193
G0 X141.889022 Y118.099999 F2400.000000
G1 X146.599995 Y113.389027 F900.000000 E96.398626
G0 X146.599996 Y114.067848 F2400.000000
G1 X142.567844 Y118.099999 F900.000000 E97.131652
G0 X143.246667 Y118.099999 F2400.000000
G1 X146.599996 Y114.746671 F900.000000 E97.741271
G0 X146.599997 Y115.425492 F2400.000000
G1 X143.925489 Y118.099999 F900.000000 E98.227484
G0 X144.604312 Y118.099999 F2400.000000
G1 X146.599997 Y116.104315 F900.000000 E98.590290
G0 X146.599998 Y116.783136 F2400.000000
G1 X145.283134 Y118.099999 F900.000000 E98.829690
G0 X145.961957 Y118.099999 F2400.000000
G1 X146.599998 Y117.461959 F900.000000 E98.945682
G0 X146.599998 Y117.461959 Z0.500000 F2400.000000
;WALL LAYER:1 Z:0.500000 HEIGHT:0.200000 OVERLAP:0.200000 WIDTH:0.480000
;PERIMETER:1 LAYER:1 Z:0.500000 HEIGHT:0.200000 OVERLAP:0.200000 WIDTH:0.300000
G0 X146.749998 Y117.461958 F1800.000000
G1 X146.749999 Y118.249873 F600.000000 E98.987546
G1 X138.250021 Y118.250000 E99.439173
G1 X138.250001 Y106.750016 E100.050199
G1 X146.749979 Y106.750001 E100.501826
G1 X146.749998 Y117.411958 E101.068325
;PERIMETER:0 LAYER:1 Z:0.500000 HEIGHT:0.200000 OVERLAP:0.200000 WIDTH:0.600000
G0 X147.199999 Y117.461958 F1800.000000
G1 X147.200000 Y118.699919 F600.000000 E101.208379
G1 X137.800021 Y118.700000 E102.271825
G1 X137.800000 Y106.300017 E103.674669
G1 X147.199979 Y106.300000 E104.738114
G1 X147.199999 Y117.411958 E105.995240
;INFILL LAYER:1 Z:0.500000 HEIGHT:0.200000 OVERLAP:0.200000 WIDTH:0.480000
G0 X146.599998 Y117.410629 F2400.000000
G1 X138.400003 Y109.210635 F900.000000 E107.028872
G0 X138.400003 Y109.889458 F2400.000000
G1 X146.599998 Y118.089453 F900.000000 E108.062504
G0 X145.931723 Y118.099999 F2400.000000
G1 X138.400004 Y110.568281 F900.000000 E109.011897
G0 X138.400004 Y111.247104 F2400.000000
G1 X145.252900 Y118.099999 F900.000000 E109.875723
G0 X144.574078 Y118.099999 F2400.000000
G1 X138.400005 Y111.925927 F900.000000 E110.653982
G0 X138.400006 Y112.604751 F2400.000000
G1 X143.895255 Y118.099999 F900.000000 E111.346673
G0 X143.216433 Y118.099999 F2400.000000
G1 X138.400006 Y113.283573 F900.000000 E111.953797
G0 X138.400007 Y113.962397 F2400.000000
G1 X142.537610 Y118.099999 F900.000000 E112.475353
G0 X141.858788 Y118.099999 F2400.000000
G1 X138.400007 Y114.641219 F900.000000 E112.911342
G0 X138.400008 Y115.320043 F2400.000000
G1 X141.179965 Y118.099999 F900.000000 E113.261763
G0 X140.501143 Y118.099999 F2400.000000
G1 X138.400008 Y115.998865 F900.000000 E113.526617
G0 X138.400009 Y116.677689 F2400.000000
G1 X139.822320 Y118.099999 F900.000000 E113.705903
G0 X139.143497 Y118.099999 F2400.000000
G1 X138.400009 Y117.356511 F900.000000 E113.799622
G0 X138.400010 Y118.035335 F2400.000000
G1 X138.464675 Y118.099999 F900.000000 E113.807773
G0 X146.599998 Y116.731807 F2400.000000
G1 X138.400002 Y108.531812 F900.000000 E114.841404
G0 X138.400002 Y107.852989 F2400.000000
G1 X146.599997 Y116.052983 F900.000000 E115.875036
G0 X146.599997 Y115.374161 F2400.000000
G1 X138.400002 Y107.174166 F900.000000 E116.908668
G0 X138.804667 Y106.900008 F2400.000000
G1 X146.599996 Y114.695337 F900.000000 E117.891290
G0 X146.599996 Y114.016515 F2400.000000
G1 X139.483488 Y106.900007 F900.000000 E118.788346
G0 X140.162310 Y106.900006 F2400.000000
G1 X146.599995 Y113.337691 F900.000000 E119.599833
G0 X146.599995 Y112.658869 F2400.000000
G1 X140.841132 Y106.900006 F900.000000 E120.325754
G0 X141.519954 Y106.900005 F2400.000000
G1 X146.599994 Y111.980045 F900.000000 E120.966107
G0 X146.599994 Y111.301223 F2400.000000
G1 X142.198776 Y106.900005 F900.000000 E121.520892
G0 X142.877598 Y106.900004 F2400.000000
G1 X146.599993 Y110.622399 F900.000000 E121.990110
G0 X146.599992 Y109.943576 F2400.000000
G1 X143.556420 Y106.900004 F900.000000 E122.373761
G0 X144.235242 Y106.900003 F2400.000000
G1 X146.599992 Y109.264753 F900.000000 E122.671844
G0 X146.599991 Y108.585930 F2400.000000
G1 X144.914063 Y106.900002 F900.000000 E122.884360
G0 X145.592886 Y106.900002 F2400.000000
G1 X146.599991 Y107.907107 F900.000000 E123.011308
G0 X146.599990 Y107.228284 F2400.000000
G1 X146.271708 Y106.900002 F900.000000 E123.052689
M106 S214.200000
G0 X146.271708 Y106.900002 Z0.700000 F2400.000000
;WALL LAYER:2 Z:0.700000 HEIGHT:0.200000 OVERLAP:0.200000 WIDTH:0.480000
;PERIMETER:1 LAYER:2 Z:0.700000 HEIGHT:0.200000 OVERLAP:0.200000 WIDTH:0.300000
G0 X146.271707 Y106.750001 F1800.000000
G1 X146.749781 Y106.750001 F600.000000 E123.078090
G1 X146.749999 Y118.249991 E123.689116
G1 X138.250021 Y118.250000 E124.140743
G1 X138.250001 Y106.750016 E124.751769
G1 X146.221706 Y106.750001 E125.175328
;PERIMETER:0 LAYER:2 Z:0.700000 HEIGHT:0.200000 OVERLAP:0.200000 WIDTH:0.600000
G0 X146.271707 Y106.300001 F1800.000000
G1 X147.199882 Y106.300000 F600.000000 E125.280335
G1 X147.200000 Y118.699992 E126.683180
G1 X137.800021 Y118.700000 E127.746625
G1 X137.800000 Y106.300017 E129.149469
G1 X146.221706 Y106.300001 E130.102240
;INFILL LAYER:2 Z:0.700000 HEIGHT:0.200000 OVERLAP:0.200000 WIDTH:0.480000
G0 X146.300795 Y106.900002 F2400.000000
G1 X138.400007 Y114.800789 F900.000000 E131.098156
G0 X138.400008 Y115.479610 F2400.000000
G1 X146.599990 Y107.279629 F900.000000 E132.131786
G0 X146.599991 Y107.958450 F2400.000000
G1 X138.400008 Y116.158433 F900.000000 E133.165416
G0 X138.400009 Y116.837255 F2400.000000
G1 X146.599991 Y108.637273 F900.000000 E134.199046
G0 X146.599992 Y109.316094 F2400.000000
G1 X138.400010 Y117.516076 F900.000000 E135.232676
G0 X138.494909 Y118.099999 F2400.000000
G1 X146.599992 Y109.994917 F900.000000 E136.254344
G0 X146.599993 Y110.673738 F2400.000000
G1 X139.173732 Y118.099999 F900.000000 E137.190444
G0 X139.852554 Y118.099999 F2400.000000
G1 X146.599994 Y111.352560 F900.000000 E138.040977
G0 X146.599994 Y112.031383 F2400.000000
G1 X140.531377 Y118.099999 F900.000000 E138.805943
G0 X141.210199 Y118.099999 F2400.000000
G1 X146.599995 Y112.710204 F900.000000 E139.485342
G0 X146.599995 Y113.389027 F2400.000000
G1 X141.889022 Y118.099999 F900.000000 E140.079173
G0 X142.567844 Y118.099999 F2400.000000
G1 X146.599996 Y114.067848 F900.000000 E140.587436
G0 X146.599996 Y114.746671 F2400.000000
G1 X143.246667 Y118.099999 F900.000000 E141.010133
G0 X143.925489 Y118.099999 F2400.000000
G1 X146.599997 Y115.425492 F900.000000 E141.347261
G0 X146.599997 Y116.104315 F2400.000000
G1 X144.604312 Y118.099999 F900.000000 E141.598823
G0 X145.283134 Y118.099999 F2400.000000
G1 X146.599998 Y116.783136 F900.000000 E141.764817
G0 X146.599998 Y117.461959 F2400.000000
G1 X145.961957 Y118.099999 F900.000000 E141.845244
G0 X138.400007 Y114.121966 F2400.000000
G1 X145.621971 Y106.900002 F900.000000 E142.755592
G0 X144.943149 Y106.900002 F2400.000000
G1 X138.400006 Y113.443145 F900.000000 E143.580373
G0 X138.400006 Y112.764322 F2400.000000
G1 X144.264325 Y106.900003 F900.000000 E144.319587
G0 X143.585502 Y106.900004 F2400.000000
G1 X138.400005 Y112.085501 F900.000000 E144.973233
G0 X138.400005 Y111.406678 F2400.000000
G1 X142.906679 Y106.900004 F900.000000 E145.541311
G0 X142.227856 Y106.900005 F2400.000000
G1 X138.400004 Y110.727857 F900.000000 E146.023822
G0 X138.400004 Y110.049034 F2400.000000
G1 X141.549033 Y106.900005 F900.000000 E146.420766
G0 X140.870210 Y106.900006 F2400.000000
G1 X138.400003 Y109.370213 F900.000000 E146.732142
G0 X138.400002 Y108.691391 F2400.000000
G1 X140.191387 Y106.900006 F900.000000 E146.957951
G0 X139.512564 Y106.900007 F2400.000000
G1 X138.400002 Y108.012568 F900.000000 E147.098192
G0 X138.400002 Y107.333747 F2400.000000
G1 X138.833740 Y106.900008 F900.000000 E147.152866
M106 S428.400000
G0 X138.833740 Y106.900008 Z0.900000 F2400.000000
;WALL LAYER:3 Z:0.900000 HEIGHT:0.200000 OVERLAP:0.200000 WIDTH:0.480000
;PERIMETER:1 LAYER:3 Z:0.900000 HEIGHT:0.200000 OVERLAP:0.200000 WIDTH:0.300000
G0 X138.833739 Y106.750008 F1800.000000
G1 X146.749978 Y106.750001 F600.000000 E147.573478
G1 X146.749999 Y118.249991 E148.184504
G1 X138.250021 Y118.250000 E148.636131
G1 X138.250001 Y106.750016 E149.247157
G1 X138.783739 Y106.750008 E149.275516
;PERIMETER:0 LAYER:3 Z:0.900000 HEIGHT:0.200000 OVERLAP:0.200000 WIDTH:0.600000
G0 X138.833739 Y106.300008 F1800.000000
G1 X147.199977 Y106.300000 F600.000000 E150.222011
G1 X147.200000 Y118.699992 E151.624856
G1 X137.800021 Y118.700000 E152.688301
G1 X137.800000 Y106.300017 E154.091145
G1 X138.783739 Y106.300008 E154.202439
;INFILL LAYER:3 Z:0.900000 HEIGHT:0.200000 OVERLAP:0.200000 WIDTH:0.480000
G0 X138.400002 Y107.513577 F2400.000000
G1 X146.599997 Y115.713573 F900.000000 E155.236070
G0 X146.412555 Y118.099999 F2400.000000
G1 X138.400004 Y110.087449 F900.000000 E156.246074
G0 X138.400006 Y112.661320 F2400.000000
G1 X143.838686 Y118.099999 F900.000000 E156.931635
G0 X141.264817 Y118.099999 F2400.000000
G1 X138.400008 Y115.235190 F900.000000 E157.292752
G0 X138.400010 Y117.809061 F2400.000000
G1 X138.690948 Y118.099999 F900.000000 E157.329425
G0 X146.599995 Y113.139702 F2400.000000
G1 X140.360299 Y106.900006 F900.000000 E158.115956
G0 X142.934166 Y106.900004 F2400.000000
G1 X146.599993 Y110.565831 F900.000000 E158.578043
G0 X146.599991 Y107.991961 F2400.000000
G1 X145.508033 Y106.900002 F900.000000 E158.715688
M106 S642.600000
G0 X145.508033 Y106.900002 Z1.100000 F2400.000000
;WALL LAYER:4 Z:1.100000 HEIGHT:0.200000 OVERLAP:0.200000 WIDTH:0.480000
;PERIMETER:1 LAYER:4 Z:1.100000 HEIGHT:0.200000 OVERLAP:0.200000 WIDTH:0.300000
G0 X145.508032 Y106.750002 F1800.000000
G1 X146.749910 Y106.750001 F600.000000 E158.781672
G1 X146.749999 Y118.249991 E159.392698
G1 X138.250021 Y118.250000 E159.844325
G1 X138.250001 Y106.750016 E160.455351
G1 X145.458032 Y106.750002 E160.838333
;PERIMETER:0 LAYER:4 Z:1.100000 HEIGHT:0.200000 OVERLAP:0.200000 WIDTH:0.600000
G0 X145.508032 Y106.300002 F1800.000000
G1 X147.199930 Y106.300000 F600.000000 E161.029742
G1 X147.200000 Y118.699992 E162.432587
G1 X137.800021 Y118.700000 E163.496033
G1 X137.800000 Y106.300017 E164.898877
G1 X145.458032 Y106.300002 E165.765251
;INFILL LAYER:4 Z:1.100000 HEIGHT:0.200000 OVERLAP:0.200000 WIDTH:0.480000
G0 X145.339128 Y106.900002 F2400.000000
G1 X138.400007 Y113.839124 F900.000000 E166.639946
G0 X138.400009 Y116.412991 F2400.000000
G1 X146.599991 Y108.213009 F900.000000 E167.673576
G0 X146.599993 Y110.786876 F2400.000000
G1 X139.286869 Y118.099999 F900.000000 E168.595415
G0 X141.860738 Y118.099999 F2400.000000
G1 X146.599995 Y113.360743 F900.000000 E169.192812
G0 X146.599997 Y115.934609 F2400.000000
G1 X144.434607 Y118.099999 F900.000000 E169.465765
G0 X138.400005 Y111.265257 F2400.000000
G1 X142.765258 Y106.900004 F900.000000 E170.016017
G0 X140.191387 Y106.900006 F2400.000000
G1 X138.400002 Y108.691391 F900.000000 E170.241826
M106 S647.700000
G0 X138.400002 Y108.691391 Z1.300000 F2400.000000
;WALL LAYER:5 Z:1.300000 HEIGHT:0.200000 OVERLAP:0.200000 WIDTH:0.480000
;PERIMETER:1 LAYER:5 Z:1.300000 HEIGHT:0.200000 OVERLAP:0.200000 WIDTH:0.300000
G0 X138.250003 Y108.691392 F1800.000000
G1 X138.250001 Y106.750059 F600.000000 E170.344974
G1 X146.749979 Y106.750001 E170.796601
G1 X146.749999 Y118.249991 E171.407627
G1 X138.250021 Y118.250000 E171.859254
G1 X138.250003 Y108.741392 E172.364473
;PERIMETER:0 LAYER:5 Z:1.300000 HEIGHT:0.200000 OVERLAP:0.200000 WIDTH:0.600000
G0 X137.800002 Y108.691392 F1800.000000
G1 X137.800000 Y106.300051 F600.000000 E172.635012
G1 X147.199979 Y106.300000 E173.698457
G1 X147.200000 Y118.699992 E175.101302
G1 X137.800021 Y118.700000 E176.164748
G1 X137.800002 Y108.741392 E177.291392
;INFILL LAYER:5 Z:1.300000 HEIGHT:0.200000 OVERLAP:0.200000 WIDTH:0.480000
G0 X138.400002 Y107.513577 F2400.000000
G1 X146.599997 Y115.713573 F900.000000 E178.325024
G0 X146.412555 Y118.099999 F2400.000000
G1 X138.400004 Y110.087449 F900.000000 E179.335028
G0 X138.400006 Y112.661320 F2400.000000
G1 X143.838686 Y118.099999 F900.000000 E180.020588
G0 X141.264817 Y118.099999 F2400.000000
G1 X138.400008 Y115.235190 F900.000000 E180.381705
G0 X138.400010 Y117.809061 F2400.000000
G1 X138.690948 Y118.099999 F900.000000 E180.418379
G0 X146.599995 Y113.139702 F2400.000000
G1 X140.360299 Y106.900006 F900.000000 E181.204909
G0 X142.934166 Y106.900004 F2400.000000
G1 X146.599993 Y110.565831 F900.000000 E181.666997
G0 X146.599991 Y107.991961 F2400.000000
G1 X145.508033 Y106.900002 F900.000000 E181.804641
