;FLAVOR:UltiGCode
;MATERIAL:24656
;TIME:0
G0 X0.000000 Y0.000000 Z0.300000
;BRIM LAYER:0 Z:0.300000 HEIGHT:0.300000 OVERLAP:0.000000 WIDTH:0.000000
;PERIMETER:0 LAYER:0 Z:0.300000 HEIGHT:0.300000 OVERLAP:0.000000 WIDTH:0.480000
G10
G0 X100.291232 Y100.011404 F2400.000000
G11
G1 X102.810268 Y97.533024 F1500.000000 E0.440618
G1 X105.753149 Y95.564040 E0.882109
G1 X108.995073 Y94.155997 E1.322810
G1 X112.253266 Y93.417403 E1.739368
G1 X115.243326 Y93.208143 E2.113098
G1 X118.741897 Y93.565369 E2.551588
G1 X122.188930 Y94.588403 E2.999914
G1 X125.449602 Y96.260194 E3.456796
G1 X128.411342 Y98.609706 E3.928170
G1 X130.711931 Y101.309158 E4.370405
G1 X132.491468 Y104.333094 E4.807889
G1 X133.701088 Y107.726870 E5.257120
G1 X134.270340 Y111.326388 E5.711507
G1 X134.144299 Y114.908069 E6.158368
G1 X133.369380 Y118.455055 E6.611059
G1 X131.918397 Y121.777480 E7.063100
G1 X129.942777 Y124.719222 E7.504934
G1 X127.453661 Y127.238337 E7.946499
G1 X124.560756 Y129.268005 E8.387126
G1 X121.334609 Y130.727031 E8.828605
G1 X117.869968 Y131.590641 E9.273815
G1 X114.266232 Y131.788132 E9.723824
G1 X110.623601 Y131.307162 E10.181950
G1 X107.173074 Y130.141198 E10.636081
G1 X104.055217 Y128.400122 E11.081340
G1 X101.338887 Y126.129023 E11.522811
G1 X99.078011 Y123.411919 E11.963540
G1 X97.362561 Y120.328228 E12.403523
G1 X96.211830 Y116.947177 E12.848839
G1 X95.711017 Y113.301458 E13.307678
G1 X95.902233 Y109.695894 E13.757872
G1 X96.754959 Y106.198664 E14.206703
G1 X98.249801 Y102.904596 E14.657739
G1 X100.233579 Y100.093112 E15.086770
;PERIMETER:1 LAYER:0 Z:0.300000 HEIGHT:0.300000 OVERLAP:0.000000 WIDTH:0.480000
G0 X99.899035 Y99.734670 F2400.000000
G1 X102.505819 Y97.159192 F1500.000000 E15.543679
G1 X105.522221 Y95.141018 E15.996199
G1 X108.845097 Y93.697817 E16.447905
G1 X112.183047 Y92.941143 E16.874660
G1 X115.251005 Y92.726430 E17.258127
G1 X118.835375 Y93.092417 E17.707371
G1 X122.368248 Y94.140928 E18.166861
G1 X125.710781 Y95.854691 E18.635213
G1 X128.746314 Y98.262741 E19.118331
G1 X131.104395 Y101.029656 E19.571618
G1 X132.928292 Y104.128971 E20.020008
G1 X134.168221 Y107.607782 E20.480495
G1 X134.751670 Y111.297071 E20.946214
G1 X134.622479 Y114.968222 E21.404238
G1 X133.828212 Y118.603768 E21.868231
G1 X132.340974 Y122.009205 E22.331567
G1 X130.316024 Y125.024404 E22.784433
G1 X127.764722 Y127.606451 E23.237029
G1 X124.799579 Y129.686803 E23.688660
G1 X121.492832 Y131.182278 E24.141168
G1 X117.941790 Y132.067426 E24.597481
G1 X114.247787 Y132.269864 E25.058762
G1 X110.514322 Y131.776899 E25.528312
G1 X106.977591 Y130.581806 E25.993788
G1 X103.781877 Y128.797252 E26.450166
G1 X100.997686 Y126.469415 E26.902666
G1 X98.680350 Y123.684459 E27.354401
G1 X96.922083 Y120.523801 E27.805365
G1 X95.742571 Y117.058183 E28.261821
G1 X95.229274 Y113.321587 E28.732096
G1 X95.425279 Y109.625722 E29.193566
G1 X96.299277 Y106.041262 E29.653591
G1 X97.831448 Y102.664931 E30.115891
G1 X99.841383 Y99.816378 E30.550580
;PERIMETER:2 LAYER:0 Z:0.300000 HEIGHT:0.300000 OVERLAP:0.000000 WIDTH:0.480000
G0 X99.506839 Y99.457935 F2400.000000
G1 X99.555856 Y99.388466 F1500.000000 E30.561181
G1 X102.201369 Y96.785361 E31.023947
G1 X105.291291 Y94.717996 E31.487497
G1 X108.695121 Y93.239638 E31.950207
G1 X112.112829 Y92.464882 E32.387159
G1 X115.258684 Y92.244718 E32.780362
G1 X118.928853 Y92.619465 E33.240359
G1 X122.547566 Y93.693455 E33.711014
G1 X125.971961 Y95.449188 E34.190837
G1 X129.081287 Y97.915777 E34.685699
G1 X131.496859 Y100.750153 E35.150038
G1 X133.365117 Y103.924848 E35.609333
G1 X134.635354 Y107.488693 E36.081076
G1 X135.232999 Y111.267754 E36.558127
G1 X135.100660 Y115.028375 E37.027314
G1 X134.287043 Y118.752482 E37.502610
G1 X132.763552 Y122.240929 E37.977240
G1 X130.689271 Y125.329586 E38.441139
G1 X128.075784 Y127.974566 E38.904767
G1 X125.038403 Y130.105601 E39.367400
G1 X121.651056 Y131.637525 E39.830938
G1 X118.013613 Y132.544211 E40.298353
G1 X114.229341 Y132.751595 E40.770906
G1 X110.405043 Y132.246636 E41.251880
G1 X106.782108 Y131.022414 E41.728702
G1 X103.508536 Y129.194381 E42.196199
G1 X100.656484 Y126.809808 E42.659728
G1 X98.282689 Y123.956999 E43.122469
G1 X96.481605 Y120.719374 E43.584415
G1 X95.273313 Y117.169189 E44.052008
G1 X94.747531 Y113.341717 E44.533721
G1 X94.948326 Y109.555550 E45.006466
G1 X95.843594 Y105.883860 E45.477686
G1 X97.413095 Y102.425266 E45.951250
G1 X99.449186 Y99.539643 E46.391595
;WALL LAYER:0 Z:0.300000 HEIGHT:0.300000 OVERLAP:0.200000 WIDTH:0.480000
;PERIMETER:1 LAYER:0 Z:0.300000 HEIGHT:0.300000 OVERLAP:0.200000 WIDTH:0.300000
G0 X112.528724 Y110.402955 F1800.000000
G1 X112.952140 Y109.986372 F600.000000 E46.435876
G1 X113.445942 Y109.655949 E46.480170
G1 X113.990906 Y109.419226 E46.524464
G1 X114.592470 Y109.282828 E46.570448
G1 X114.987257 Y109.255173 E46.599951
G1 X115.627811 Y109.320537 E46.647951
G1 X116.215281 Y109.494860 E46.693634
G1 X116.749022 Y109.768483 E46.738347
G1 X117.252443 Y110.167802 E46.786250
G1 X117.637865 Y110.620000 E46.830544
G1 X117.939747 Y111.132928 E46.874913
G1 X118.139697 Y111.693824 E46.919304
G1 X118.236051 Y112.302903 E46.965275
G1 X118.214924 Y112.904118 E47.010123
G1 X118.084564 Y113.500941 E47.055664
G1 X117.841290 Y114.058058 E47.100983
G1 X117.509082 Y114.552776 E47.145408
G1 X117.091506 Y114.975429 E47.189700
G1 X116.605132 Y115.316706 E47.233994
G1 X116.063781 Y115.561566 E47.278287
G1 X115.477521 Y115.707728 E47.323330
G1 X114.880777 Y115.740462 E47.367883
G1 X114.264080 Y115.659065 E47.414256
G1 X113.685240 Y115.463502 E47.459804
G1 X113.161041 Y115.170810 E47.504561
G1 X112.705200 Y114.789725 E47.548855
G1 X112.325141 Y114.333019 E47.593148
G1 X112.036002 Y113.813327 E47.637483
G1 X111.844071 Y113.249489 E47.681885
G1 X111.759073 Y112.630970 E47.728428
G1 X111.790726 Y112.033586 E47.773025
G1 X111.934887 Y111.442219 E47.818402
G1 X112.186081 Y110.888612 E47.863722
G1 X112.499897 Y110.443809 E47.904304
;PERIMETER:0 LAYER:0 Z:0.300000 HEIGHT:0.300000 OVERLAP:0.200000 WIDTH:0.600000
G0 X112.213124 Y110.082178 F1800.000000
G1 X112.666726 Y109.635898 F600.000000 E48.009011
G1 X113.229464 Y109.259355 E48.120427
G1 X113.850324 Y108.989672 E48.231810
G1 X114.526657 Y108.836329 E48.345924
G1 X114.994492 Y108.803566 E48.423094
G1 X115.715468 Y108.877147 E48.542346
G1 X116.383409 Y109.075358 E48.656992
G1 X116.993890 Y109.388331 E48.769878
G1 X117.566499 Y109.842540 E48.890143
G1 X118.005815 Y110.357982 E49.001585
G1 X118.349278 Y110.941574 E49.113011
G1 X118.577642 Y111.582205 E49.224923
G1 X118.687299 Y112.275432 E49.340411
G1 X118.663217 Y112.960535 E49.453214
G1 X118.514715 Y113.640378 E49.567719
G1 X118.237450 Y114.275319 E49.681725
G1 X117.858993 Y114.838897 E49.793430
G1 X117.383110 Y115.320553 E49.904845
G1 X116.829009 Y115.709342 E50.016227
G1 X116.212100 Y115.988368 E50.127639
G1 X115.544836 Y116.154719 E50.240797
G1 X114.863466 Y116.192086 E50.353084
G1 X114.161615 Y116.099441 E50.469574
G1 X113.501957 Y115.876564 E50.584148
G1 X112.904761 Y115.543106 E50.696697
G1 X112.385310 Y115.108833 E50.808108
G1 X111.952320 Y114.588509 E50.919494
G1 X111.623046 Y113.996659 E51.030939
G1 X111.404134 Y113.353539 E51.142727
G1 X111.307437 Y112.649819 E51.259611
G1 X111.343583 Y111.967786 E51.371996
G1 X111.507690 Y111.294634 E51.486006
G1 X111.793885 Y110.663907 E51.599976
G1 X112.178792 Y110.118357 E51.709840
;INFILL LAYER:0 Z:0.300000 HEIGHT:0.300000 OVERLAP:0.200000 WIDTH:0.480000
G0 X112.273379 Y111.059226 F2400.000000
G1 X113.564755 Y109.767850 F900.000000 E51.944606
G0 X114.569613 Y109.441814 F2400.000000
G1 X111.938869 Y112.072558 F900.000000 E52.422863
G0 X111.928453 Y112.761797 F2400.000000
G1 X115.256816 Y109.433434 F900.000000 E53.027943
G0 X115.831614 Y109.537459 F2400.000000
G1 X112.032246 Y113.336827 F900.000000 E53.718650
G0 X112.217272 Y113.830624 F2400.000000
G1 X116.327147 Y109.720748 F900.000000 E54.465806
G0 X116.758941 Y109.967777 F2400.000000
G1 X112.462789 Y114.263929 F900.000000 E55.246827
G0 X112.771092 Y114.634448 F2400.000000
G1 X117.137475 Y110.268065 F900.000000 E56.040614
G0 X117.451632 Y110.632731 F2400.000000
G1 X113.132716 Y114.951647 F900.000000 E56.825773
G0 X113.548059 Y115.215127 F2400.000000
G1 X117.715524 Y111.047662 F900.000000 E57.583398
G0 X117.919421 Y111.522587 F2400.000000
G1 X114.022780 Y115.419228 F900.000000 E58.291789
G0 X114.572362 Y115.548469 F2400.000000
G1 X118.047830 Y112.073001 F900.000000 E58.923613
G0 X118.071007 Y112.728646 F2400.000000
G1 X115.228470 Y115.571183 F900.000000 E59.440372
G0 X116.096196 Y115.382279 F2400.000000
G1 X117.877022 Y113.601454 F900.000000 E59.764118
G0 X117.877022 Y113.601454 Z0.500000 F2400.000000
;WALL LAYER:1 Z:0.500000 HEIGHT:0.200000 OVERLAP:0.200000 WIDTH:0.480000
;PERIMETER:1 LAYER:1 Z:0.500000 HEIGHT:0.200000 OVERLAP:0.200000 WIDTH:0.300000
G0 X119.118136 Y114.054142 F1800.000000
G1 X119.014388 Y114.338585 F600.000000 E59.780205
G1 X118.651440 Y114.988260 E59.819746
G1 X118.194704 Y115.549589 E59.858196
G1 X117.646726 Y116.036859 E59.897158
G1 X117.034737 Y116.419202 E59.935499
G1 X116.356566 Y116.705238 E59.974606
G1 X115.639500 Y116.869642 E60.013694
G1 X114.910745 Y116.918832 E60.052503
G1 X114.149920 Y116.836130 E60.093166
G1 X113.422168 Y116.627620 E60.133389
G1 X112.759326 Y116.306675 E60.172519
G1 X112.157378 Y115.883084 E60.211627
G1 X111.646463 Y115.373372 E60.249973
G1 X111.212368 Y114.777743 E60.289133
G1 X110.893162 Y114.127781 E60.327607
G1 X110.678359 Y113.424824 E60.366662
G1 X110.584013 Y112.667157 E60.407230
G1 X110.617928 Y111.928873 E60.446499
G1 X110.775908 Y111.204137 E60.485910
G1 X111.057512 Y110.504145 E60.525999
G1 X111.439200 Y109.888944 E60.564467
G1 X111.920225 Y109.330486 E60.603629
G1 X112.480378 Y108.872308 E60.642079
G1 X113.115470 Y108.504382 E60.681077
G1 X113.793102 Y108.250680 E60.719522
G1 X114.545964 Y108.103646 E60.760280
G1 X114.989956 Y108.079650 E60.783905
G1 X115.689032 Y108.134808 E60.821164
G1 X116.414715 Y108.315801 E60.860903
G1 X117.106148 Y108.616295 E60.900960
G1 X117.711037 Y109.013705 E60.939415
G1 X118.250879 Y109.510109 E60.978382
G1 X118.693219 Y110.080213 E61.016721
G1 X119.046744 Y110.727925 E61.055928
G1 X119.280693 Y111.407200 E61.094101
G1 X119.405589 Y112.165945 E61.134957
G1 X119.398810 Y112.894594 E61.173674
G1 X119.268607 Y113.641537 E61.213960
G1 X119.135269 Y114.007169 E61.234638
;PERIMETER:0 LAYER:1 Z:0.500000 HEIGHT:0.200000 OVERLAP:0.200000 WIDTH:0.600000
G0 X119.540892 Y114.208340 F1800.000000
G1 X119.424787 Y114.526660 F600.000000 E61.272972
G1 X119.025176 Y115.241941 E61.365666
G1 X118.520834 Y115.861771 E61.456069
G1 X117.917348 Y116.398394 E61.547431
G1 X117.242686 Y116.819886 E61.637429
G1 X116.495304 Y117.135109 E61.729195
G1 X115.705318 Y117.316228 E61.820887
G1 X114.901490 Y117.370480 E61.912033
G1 X114.062977 Y117.279329 E62.007455
G1 X113.260928 Y117.049527 E62.101844
G1 X112.530258 Y116.695735 E62.193687
G1 X111.866838 Y116.228882 E62.285463
G1 X111.303601 Y115.666962 E62.375472
G1 X110.825664 Y115.011172 E62.467276
G1 X110.473336 Y114.293756 E62.557699
G1 X110.236614 Y113.519054 E62.649343
G1 X110.132728 Y112.684740 E62.744460
G1 X110.170151 Y111.870182 E62.836711
G1 X110.344303 Y111.071281 E62.929215
G1 X110.654589 Y110.300005 E63.023268
G1 X111.075345 Y109.621841 E63.113558
G1 X111.604925 Y109.007021 E63.205360
G1 X112.223504 Y108.501056 E63.295770
G1 X112.922475 Y108.096129 E63.387157
G1 X113.670268 Y107.816165 E63.477492
G1 X114.490456 Y107.655986 E63.572035
G1 X114.995580 Y107.628690 E63.629265
G1 X115.761704 Y107.689145 E63.716208
G1 X116.559865 Y107.888219 E63.809272
G1 X117.320965 Y108.218995 E63.903158
G1 X117.988720 Y108.657713 E63.993549
G1 X118.583289 Y109.204447 E64.084929
G1 X119.070916 Y109.832925 E64.174923
G1 X119.459896 Y110.545602 E64.266777
G1 X119.718551 Y111.296627 E64.356641
G1 X119.855935 Y112.131262 E64.452336
G1 X119.848446 Y112.935621 E64.543339
G1 X119.705054 Y113.758204 E64.637804
G1 X119.558024 Y114.161366 E64.686353
;INFILL LAYER:1 Z:0.500000 HEIGHT:0.200000 OVERLAP:0.200000 WIDTH:0.480000
G0 X118.705328 Y113.953570 F2400.000000
G1 X113.546370 Y108.794612 F900.000000 E65.336654
G0 X113.074809 Y109.001874 F2400.000000
G1 X118.498174 Y114.425239 F900.000000 E66.020284
G0 X118.225447 Y114.831334 F2400.000000
G1 X112.668100 Y109.273988 F900.000000 E66.720802
G0 X112.295534 Y109.580244 F2400.000000
G1 X117.919658 Y115.204368 F900.000000 E67.429738
G0 X117.582279 Y115.545812 F2400.000000
G1 X111.953608 Y109.917140 F900.000000 E68.139248
G0 X111.672781 Y110.315136 F2400.000000
G1 X117.184234 Y115.826589 F900.000000 E68.833982
G0 X116.752190 Y116.073367 F2400.000000
G1 X111.426448 Y110.747625 F900.000000 E69.505306
G0 X111.217668 Y111.217668 F2400.000000
G1 X116.280520 Y116.280520 F900.000000 E70.143492
G0 X115.737142 Y116.415964 F2400.000000
G1 X111.084597 Y111.763419 F900.000000 E70.729958
G0 X111.021353 Y112.378998 F2400.000000
G1 X115.120790 Y116.478436 F900.000000 E71.246704
G0 X114.396605 Y116.433073 F2400.000000
G1 X111.066927 Y113.103395 F900.000000 E71.666419
G0 X111.318888 Y114.034178 F2400.000000
G1 X113.465680 Y116.180970 F900.000000 E71.937028
G0 X118.866467 Y113.435887 F2400.000000
G1 X114.064143 Y108.633563 F900.000000 E72.542374
G0 X114.637238 Y108.527835 F2400.000000
G1 X118.967024 Y112.857621 F900.000000 E73.088155
G0 X118.977385 Y112.189159 F2400.000000
G1 X115.323822 Y108.535597 F900.000000 E73.548697
G0 X116.164503 Y108.697455 F2400.000000
G1 X118.811325 Y111.344277 F900.000000 E73.882336
G0 X117.800886 Y109.655016 F2400.000000
G1 X117.755058 Y109.609188 F900.000000 E73.888113
;INFILL LAYER:1 Z:0.500000 HEIGHT:0.200000 OVERLAP:0.200000 WIDTH:0.480000
G0 X116.540180 Y108.818574 F2400.000000
G1 X116.117987 Y108.396380 F900.000000 E73.941331
G0 X113.833569 Y108.685831 F2400.000000
G1 X113.622464 Y108.474727 F900.000000 E73.967942
G0 X112.224248 Y109.650379 F2400.000000
G1 X112.019240 Y109.445372 F900.000000 E73.993783
G0 X111.014048 Y111.014048 F2400.000000
G1 X111.217668 Y111.217668 F900.000000 E74.019450
G0 X110.828275 Y113.402143 F2400.000000
G1 X111.245922 Y113.819791 F900.000000 E74.072096
G0 X113.679279 Y116.253148 F2400.000000
G1 X114.088707 Y116.662576 F900.000000 E74.123705
G0 X116.280520 Y116.280520 F2400.000000
G1 X116.487306 Y116.487306 F900.000000 E74.149771
G0 X117.849370 Y115.275501 F2400.000000
G1 X118.050758 Y115.476890 F900.000000 E74.175157
G0 X119.023523 Y113.875786 F2400.000000
G1 X118.815754 Y113.668016 F900.000000 E74.201347
G0 X119.118497 Y111.396891 F2400.000000
G1 X118.670348 Y110.948742 F900.000000 E74.257837
M106 S214.200000
G0 X118.670348 Y110.948742 Z0.700000 F2400.000000
;WALL LAYER:2 Z:0.700000 HEIGHT:0.200000 OVERLAP:0.200000 WIDTH:0.480000
;PERIMETER:1 LAYER:2 Z:0.700000 HEIGHT:0.200000 OVERLAP:0.200000 WIDTH:0.300000
G0 X119.891637 Y110.362387 F1800.000000
G1 X119.973965 Y110.533863 F600.000000 E74.267944
G1 X120.209896 Y111.282763 E74.309663
G1 X120.336142 Y112.095881 E74.353383
G1 X120.336768 Y112.882328 E74.395170
G1 X120.217409 Y113.686549 E74.438368
G1 X119.979107 Y114.457694 E74.481253
G1 X119.631044 Y115.179544 E74.523833
G1 X119.188066 Y115.827668 E74.565544
G1 X118.657125 Y116.405634 E74.607244
G1 X118.045518 Y116.897797 E74.648955
G1 X117.369967 Y117.297293 E74.690656
G1 X116.642101 Y117.591368 E74.732366
G1 X115.869709 Y117.780631 E74.774620
G1 X115.037919 Y117.852712 E74.818981
G1 X114.257074 Y117.799152 E74.860566
G1 X113.471305 Y117.628705 E74.903287
G1 X112.717530 Y117.340203 E74.946171
G1 X112.028670 Y116.949843 E74.988240
G1 X111.409465 Y116.467496 E75.029944
G1 X110.867806 Y115.899373 E75.071651
G1 X110.414746 Y115.258413 E75.113356
G1 X110.060737 Y114.557819 E75.155063
G1 X109.812633 Y113.813163 E75.196767
G1 X109.670395 Y113.004826 E75.240376
G1 X109.655657 Y112.226927 E75.281715
G1 X109.758738 Y111.412721 E75.325321
G1 X109.984420 Y110.637615 E75.368215
G1 X110.318071 Y109.906198 E75.410930
G1 X110.751172 Y109.251120 E75.452655
G1 X111.269542 Y108.662134 E75.494343
G1 X111.873627 Y108.160442 E75.536066
G1 X112.540387 Y107.746811 E75.577756
