;FLAVOR:UltiGCode
;MATERIAL:5562
;TIME:0
G0 X0.000000 Y0.000000 Z0.300000
;BRIM LAYER:0 Z:0.300000 HEIGHT:0.300000 OVERLAP:0.000000 WIDTH:0.000000
;PERIMETER:0 LAYER:0 Z:0.300000 HEIGHT:0.300000 OVERLAP:0.000000 WIDTH:0.480000
G10
G0 X80.759976 Y75.032789 F2400.000000
G11
G1 X149.239998 Y75.032640 F1500.000000 E8.538489
G1 X149.240000 Y106.712554 E12.488525
G1 X80.760027 Y106.712707 E21.027008
G1 X80.759976 Y75.132790 E24.964576
;PERIMETER:1 LAYER:0 Z:0.300000 HEIGHT:0.300000 OVERLAP:0.000000 WIDTH:0.480000
G0 X80.759975 Y74.552789 F2400.000000
G1 X149.719999 Y74.552638 F1500.000000 E33.562914
G1 X149.720000 Y107.192553 E37.632649
G1 X80.280027 Y107.192708 E46.290830
G1 X80.279975 Y74.552793 E50.360565
G1 X80.659975 Y74.552789 E50.407946
;PERIMETER:2 LAYER:0 Z:0.300000 HEIGHT:0.300000 OVERLAP:0.000000 WIDTH:0.480000
G0 X80.759974 Y74.072788 F2400.000000
G1 X150.199999 Y74.072637 F1500.000000 E59.066133
G1 X150.200001 Y107.672553 E63.255567
G1 X79.800026 Y107.672709 E72.033447
G1 X79.799973 Y74.072793 E76.222880
G1 X80.659974 Y74.072788 E76.330110
;WALL LAYER:0 Z:0.300000 HEIGHT:0.300000 OVERLAP:0.200000 WIDTH:0.480000
;PERIMETER:0 LAYER:0 Z:0.300000 HEIGHT:0.300000 OVERLAP:0.200000 WIDTH:0.300000
G10
G0 X96.150001 Y90.422756 F1800.000000
G11
G1 X133.849998 Y90.422673 F600.000000 E79.140595
G1 X133.850000 Y91.322479 E79.207674
G1 X96.150005 Y91.322673 E82.018158
G1 X96.150001 Y90.472756 E82.081519
;INFILL LAYER:0 Z:0.300000 HEIGHT:0.300000 OVERLAP:0.200000 WIDTH:0.480000
G0 X96.300002 Y91.055011 F2400.000000
G1 X96.782258 Y90.572755 F900.000000 E82.169190
G0 X96.861164 Y91.172671 F2400.000000
G1 X97.461082 Y90.572753 F900.000000 E82.278253
G0 X97.539989 Y91.172669 F2400.000000
G1 X98.139906 Y90.572752 F900.000000 E82.387315
G0 X98.218812 Y91.172668 F2400.000000
G1 X98.818730 Y90.572750 F900.000000 E82.496377
G0 X98.897636 Y91.172667 F2400.000000
G1 X99.497554 Y90.572749 F900.000000 E82.605439
G0 X99.576461 Y91.172665 F2400.000000
G1 X100.176378 Y90.572747 F900.000000 E82.714501
G0 X100.255284 Y91.172664 F2400.000000
G1 X100.855202 Y90.572746 F900.000000 E82.823564
G0 X100.934109 Y91.172662 F2400.000000
G1 X101.534026 Y90.572744 F900.000000 E82.932626
G0 X101.612932 Y91.172661 F2400.000000
G1 X102.212851 Y90.572742 F900.000000 E83.041688
G0 X102.291757 Y91.172659 F2400.000000
G1 X102.891674 Y90.572742 F900.000000 E83.150750
G0 X102.970580 Y91.172658 F2400.000000
G1 X103.570498 Y90.572740 F900.000000 E83.259813
G0 X103.649405 Y91.172656 F2400.000000
G1 X104.249322 Y90.572739 F900.000000 E83.368875
G0 X104.328228 Y91.172655 F2400.000000
G1 X104.928146 Y90.572737 F900.000000 E83.477937
G0 X105.007052 Y91.172653 F2400.000000
G1 X105.606970 Y90.572736 F900.000000 E83.586999
G0 X105.685877 Y91.172651 F2400.000000
G1 X106.285794 Y90.572734 F900.000000 E83.696061
G0 X106.364700 Y91.172650 F2400.000000
G1 X106.964619 Y90.572732 F900.000000 E83.805124
G0 X107.043525 Y91.172648 F2400.000000
G1 X107.643442 Y90.572731 F900.000000 E83.914186
G0 X107.722348 Y91.172647 F2400.000000
G1 X108.322267 Y90.572729 F900.000000 E84.023248
G0 X108.401173 Y91.172646 F2400.000000
G1 X109.001090 Y90.572728 F900.000000 E84.132310
G0 X109.079996 Y91.172645 F2400.000000
G1 X109.679914 Y90.572726 F900.000000 E84.241373
G0 X109.758821 Y91.172643 F2400.000000
G1 X110.358738 Y90.572725 F900.000000 E84.350435
G0 X110.437645 Y91.172641 F2400.000000
G1 X111.037562 Y90.572723 F900.000000 E84.459497
G0 X111.116468 Y91.172640 F2400.000000
G1 X111.716386 Y90.572722 F900.000000 E84.568559
G0 X111.795293 Y91.172638 F2400.000000
G1 X112.395210 Y90.572721 F900.000000 E84.677621
G0 X112.474116 Y91.172637 F2400.000000
G1 X113.074035 Y90.572719 F900.000000 E84.786683
G0 X113.152941 Y91.172635 F2400.000000
G1 X113.752858 Y90.572718 F900.000000 E84.895746
G0 X113.831764 Y91.172634 F2400.000000
G1 X114.431683 Y90.572716 F900.000000 E85.004808
G0 X114.510589 Y91.172632 F2400.000000
G1 X115.110506 Y90.572715 F900.000000 E85.113870
G0 X115.189412 Y91.172631 F2400.000000
G1 X115.789330 Y90.572713 F900.000000 E85.222932
G0 X115.868237 Y91.172629 F2400.000000
G1 X116.468154 Y90.572712 F900.000000 E85.331995
G0 X116.547061 Y91.172627 F2400.000000
G1 X117.146978 Y90.572710 F900.000000 E85.441057
G0 X117.225884 Y91.172626 F2400.000000
G1 X117.825802 Y90.572709 F900.000000 E85.550119
G0 X117.904709 Y91.172625 F2400.000000
G1 X118.504626 Y90.572707 F900.000000 E85.659181
G0 X118.583532 Y91.172624 F2400.000000
G1 X119.183451 Y90.572705 F900.000000 E85.768243
G0 X119.262357 Y91.172622 F2400.000000
G1 X119.862274 Y90.572704 F900.000000 E85.877305
G0 X119.941180 Y91.172621 F2400.000000
G1 X120.541099 Y90.572702 F900.000000 E85.986368
G0 X120.620005 Y91.172619 F2400.000000
G1 X121.219922 Y90.572701 F900.000000 E86.095430
G0 X121.298828 Y91.172618 F2400.000000
G1 X121.898746 Y90.572700 F900.000000 E86.204492
G0 X121.977653 Y91.172616 F2400.000000
G1 X122.577570 Y90.572699 F900.000000 E86.313554
G0 X122.656477 Y91.172614 F2400.000000
G1 X123.256394 Y90.572697 F900.000000 E86.422617
G0 X123.335300 Y91.172613 F2400.000000
G1 X123.935219 Y90.572695 F900.000000 E86.531679
G0 X124.014125 Y91.172611 F2400.000000
G1 X124.614042 Y90.572694 F900.000000 E86.640741
G0 X124.692948 Y91.172610 F2400.000000
G1 X125.292867 Y90.572692 F900.000000 E86.749803
G0 X125.371773 Y91.172608 F2400.000000
G1 X125.971690 Y90.572691 F900.000000 E86.858865
G0 X126.050595 Y91.172607 F2400.000000
G1 X126.650514 Y90.572689 F900.000000 E86.967928
G0 X126.729420 Y91.172606 F2400.000000
G1 X127.329337 Y90.572688 F900.000000 E87.076990
G0 X127.408244 Y91.172604 F2400.000000
G1 X128.008162 Y90.572686 F900.000000 E87.186052
G0 X128.087068 Y91.172603 F2400.000000
G1 X128.686985 Y90.572685 F900.000000 E87.295114
G0 X128.765892 Y91.172601 F2400.000000
G1 X129.365809 Y90.572683 F900.000000 E87.404176
G0 X129.444715 Y91.172600 F2400.000000
G1 X130.044634 Y90.572681 F900.000000 E87.513239
G0 X130.123540 Y91.172598 F2400.000000
G1 X130.723457 Y90.572680 F900.000000 E87.622301
G0 X130.802363 Y91.172597 F2400.000000
G1 X131.402282 Y90.572679 F900.000000 E87.731363
G0 X131.481188 Y91.172595 F2400.000000
G1 X132.081105 Y90.572678 F900.000000 E87.840425
G0 X132.160011 Y91.172594 F2400.000000
G1 X132.759930 Y90.572676 F900.000000 E87.949488
G0 X132.838836 Y91.172592 F2400.000000
G1 X133.438753 Y90.572675 F900.000000 E88.058550
G0 X133.700000 Y90.990251 F2400.000000
G1 X133.517660 Y91.172590 F900.000000 E88.091698
G0 X133.517660 Y91.172590 Z0.500000 F2400.000000
;WALL LAYER:1 Z:0.500000 HEIGHT:0.200000 OVERLAP:0.200000 WIDTH:0.480000
;PERIMETER:1 LAYER:1 Z:0.500000 HEIGHT:0.200000 OVERLAP:0.200000 WIDTH:0.300000
G0 X133.250000 Y91.172590 F1800.000000
G1 X133.250000 Y91.468696 F600.000000 E88.107431
G1 X96.750005 Y91.469082 E90.046776
G1 X96.750002 Y90.969333 E90.073329
G1 X133.249997 Y90.969085 E92.012674
G1 X133.250000 Y91.122590 E92.020830
;PERIMETER:0 LAYER:1 Z:0.500000 HEIGHT:0.200000 OVERLAP:0.200000 WIDTH:0.600000
G0 X133.700000 Y91.172590 F1800.000000
G1 X133.700000 Y91.918899 F600.000000 E92.105262
G1 X96.300006 Y91.919083 E96.336426
G1 X96.300001 Y90.519205 E96.494798
G1 X133.699997 Y90.519084 E100.725962
G1 X133.700000 Y91.122590 E100.794238
;INFILL LAYER:1 Z:0.500000 HEIGHT:0.200000 OVERLAP:0.200000 WIDTH:0.480000
G0 X132.727208 Y91.319035 F2400.000000
G1 X132.527260 Y91.119086 F900.000000 E100.819442
G0 X132.048386 Y91.319035 F2400.000000
G1 X131.848438 Y91.119087 F900.000000 E100.844646
G0 X131.369564 Y91.319036 F2400.000000
G1 X131.169617 Y91.119088 F900.000000 E100.869850
G0 X130.690742 Y91.319036 F2400.000000
G1 X130.490795 Y91.119089 F900.000000 E100.895054
G0 X130.011921 Y91.319037 F2400.000000
G1 X129.811974 Y91.119090 F900.000000 E100.920258
G0 X129.333099 Y91.319038 F2400.000000
G1 X129.133151 Y91.119090 F900.000000 E100.945462
G0 X128.654278 Y91.319039 F2400.000000
G1 X128.454329 Y91.119091 F900.000000 E100.970666
G0 X127.975456 Y91.319040 F2400.000000
G1 X127.775508 Y91.119092 F900.000000 E100.995870
G0 X127.296635 Y91.319041 F2400.000000
G1 X127.096686 Y91.119093 F900.000000 E101.021074
G0 X126.617813 Y91.319042 F2400.000000
G1 X126.417865 Y91.119094 F900.000000 E101.046278
G0 X125.938992 Y91.319043 F2400.000000
G1 X125.739043 Y91.119095 F900.000000 E101.071482
G0 X125.260170 Y91.319044 F2400.000000
G1 X125.060222 Y91.119096 F900.000000 E101.096686
G0 X124.581348 Y91.319045 F2400.000000
G1 X124.381400 Y91.119097 F900.000000 E101.121890
G0 X123.902527 Y91.319046 F2400.000000
G1 X123.702579 Y91.119098 F900.000000 E101.147094
G0 X123.223705 Y91.319047 F2400.000000
G1 X123.023757 Y91.119099 F900.000000 E101.172298
G0 X122.544884 Y91.319048 F2400.000000
G1 X122.344935 Y91.119100 F900.000000 E101.197502
G0 X121.866062 Y91.319049 F2400.000000
G1 X121.666114 Y91.119101 F900.000000 E101.222706
G0 X121.187240 Y91.319049 F2400.000000
G1 X120.987292 Y91.119102 F900.000000 E101.247910
G0 X120.508418 Y91.319050 F2400.000000
G1 X120.308471 Y91.119102 F900.000000 E101.273114
G0 X119.829597 Y91.319051 F2400.000000
G1 X119.629649 Y91.119103 F900.000000 E101.298318
G0 X119.150775 Y91.319052 F2400.000000
G1 X118.950828 Y91.119104 F900.000000 E101.323522
G0 X118.471953 Y91.319053 F2400.000000
G1 X118.272005 Y91.119104 F900.000000 E101.348726
G0 X117.793132 Y91.319054 F2400.000000
G1 X117.593184 Y91.119105 F900.000000 E101.373930
G0 X117.114310 Y91.319055 F2400.000000
G1 X116.914362 Y91.119106 F900.000000 E101.399134
G0 X116.435489 Y91.319056 F2400.000000
G1 X116.235540 Y91.119107 F900.000000 E101.424338
G0 X115.756667 Y91.319057 F2400.000000
G1 X115.556719 Y91.119108 F900.000000 E101.449542
G0 X115.077846 Y91.319057 F2400.000000
G1 X114.877897 Y91.119109 F900.000000 E101.474746
G0 X114.399024 Y91.319058 F2400.000000
G1 X114.199076 Y91.119110 F900.000000 E101.499950
G0 X113.720202 Y91.319059 F2400.000000
G1 X113.520254 Y91.119111 F900.000000 E101.525154
G0 X113.041381 Y91.319060 F2400.000000
G1 X112.841433 Y91.119112 F900.000000 E101.550358
G0 X112.362559 Y91.319061 F2400.000000
G1 X112.162611 Y91.119113 F900.000000 E101.575562
G0 X111.683738 Y91.319062 F2400.000000
G1 X111.483789 Y91.119114 F900.000000 E101.600766
G0 X111.004916 Y91.319063 F2400.000000
G1 X110.804968 Y91.119115 F900.000000 E101.625970
G0 X110.326094 Y91.319063 F2400.000000
G1 X110.126146 Y91.119116 F900.000000 E101.651174
G0 X109.647272 Y91.319064 F2400.000000
G1 X109.447325 Y91.119117 F900.000000 E101.676378
G0 X108.968451 Y91.319065 F2400.000000
G1 X108.768503 Y91.119118 F900.000000 E101.701582
G0 X108.289629 Y91.319066 F2400.000000
G1 X108.089682 Y91.119119 F900.000000 E101.726786
G0 X107.610807 Y91.319067 F2400.000000
G1 X107.410859 Y91.119119 F900.000000 E101.751990
G0 X106.931986 Y91.319068 F2400.000000
G1 X106.732038 Y91.119120 F900.000000 E101.777194
G0 X106.253164 Y91.319069 F2400.000000
G1 X106.053216 Y91.119121 F900.000000 E101.802398
G0 X105.574343 Y91.319070 F2400.000000
G1 X105.374394 Y91.119122 F900.000000 E101.827602
G0 X104.895521 Y91.319071 F2400.000000
G1 X104.695573 Y91.119123 F900.000000 E101.852806
G0 X104.216700 Y91.319072 F2400.000000
G1 X104.016751 Y91.119123 F900.000000 E101.878010
G0 X103.537878 Y91.319073 F2400.000000
G1 X103.337930 Y91.119124 F900.000000 E101.903214
G0 X102.859056 Y91.319074 F2400.000000
G1 X102.659108 Y91.119125 F900.000000 E101.928418
G0 X102.180235 Y91.319075 F2400.000000
G1 X101.980287 Y91.119126 F900.000000 E101.953622
G0 X101.501413 Y91.319076 F2400.000000
G1 X101.301465 Y91.119127 F900.000000 E101.978826
G0 X100.822592 Y91.319077 F2400.000000
G1 X100.622643 Y91.119128 F900.000000 E102.004030
G0 X100.143770 Y91.319077 F2400.000000
G1 X99.943822 Y91.119129 F900.000000 E102.029234
G0 X99.464948 Y91.319077 F2400.000000
G1 X99.265000 Y91.119130 F900.000000 E102.054438
G0 X98.786126 Y91.319078 F2400.000000
G1 X98.586179 Y91.119131 F900.000000 E102.079642
G0 X98.107305 Y91.319079 F2400.000000
G1 X97.907357 Y91.119132 F900.000000 E102.104846
G0 X97.428483 Y91.319080 F2400.000000
G1 X97.228536 Y91.119133 F900.000000 E102.130050
M106 S214.200000
G0 X97.228536 Y91.119133 Z0.700000 F2400.000000
;WALL LAYER:2 Z:0.700000 HEIGHT:0.200000 OVERLAP:0.200000 WIDTH:0.480000
;PERIMETER:1 LAYER:2 Z:0.700000 HEIGHT:0.200000 OVERLAP:0.200000 WIDTH:0.300000
G0 X97.228535 Y90.915527 F1800.000000
G1 X133.249997 Y90.915495 F600.000000 E104.043969
G1 X133.250000 Y92.215382 E104.113035
G1 X96.750005 Y92.215491 E106.052380
G1 X96.750002 Y90.915604 E106.121447
G1 X97.178535 Y90.915527 E106.144216
;PERIMETER:0 LAYER:2 Z:0.700000 HEIGHT:0.200000 OVERLAP:0.200000 WIDTH:0.600000
G0 X97.228535 Y90.465528 F1800.000000
G1 X133.699997 Y90.465494 F600.000000 E110.270332
G1 X133.700000 Y92.665412 E110.519215
G1 X96.300006 Y92.665492 E114.750379
G1 X96.300001 Y90.465574 E114.999262
G1 X97.178535 Y90.465528 E115.098653
;INFILL LAYER:2 Z:0.700000 HEIGHT:0.200000 OVERLAP:0.200000 WIDTH:0.480000
G0 X96.968307 Y91.065528 F2400.000000
G1 X96.900002 Y91.133833 F900.000000 E115.107263
G0 X96.900002 Y91.812655 F2400.000000
G1 X97.647131 Y91.065527 F900.000000 E115.201440
G0 X98.325953 Y91.065527 F2400.000000
G1 X97.325990 Y92.065491 F900.000000 E115.327489
G0 X98.004813 Y92.065490 F2400.000000
G1 X99.004777 Y91.065526 F900.000000 E115.453537
G0 X99.683600 Y91.065525 F2400.000000
G1 X98.683637 Y92.065489 F900.000000 E115.579585
G0 X99.362459 Y92.065489 F2400.000000
G1 X100.362423 Y91.065525 F900.000000 E115.705633
G0 X101.041246 Y91.065524 F2400.000000
G1 X100.041283 Y92.065488 F900.000000 E115.831681
G0 X100.720106 Y92.065487 F2400.000000
G1 X101.720070 Y91.065523 F900.000000 E115.957729
G0 X102.398892 Y91.065523 F2400.000000
G1 X101.398929 Y92.065487 F900.000000 E116.083778
G0 X102.077752 Y92.065486 F2400.000000
G1 X103.077716 Y91.065522 F900.000000 E116.209826
G0 X103.756538 Y91.065522 F2400.000000
G1 X102.756576 Y92.065485 F900.000000 E116.335874
G0 X103.435398 Y92.065485 F2400.000000
G1 X104.435362 Y91.065521 F900.000000 E116.461922
G0 X105.114185 Y91.065520 F2400.000000
G1 X104.114222 Y92.065484 F900.000000 E116.587970
G0 X104.793044 Y92.065484 F2400.000000
G1 X105.793008 Y91.065520 F900.000000 E116.714018
G0 X106.471831 Y91.065519 F2400.000000
G1 X105.471868 Y92.065483 F900.000000 E116.840066
G0 X106.150691 Y92.065482 F2400.000000
G1 X107.150655 Y91.065518 F900.000000 E116.966115
G0 X107.829477 Y91.065518 F2400.000000
G1 X106.829514 Y92.065482 F900.000000 E117.092163
G0 X107.508337 Y92.065481 F2400.000000
G1 X108.508301 Y91.065517 F900.000000 E117.218211
G0 X109.187124 Y91.065516 F2400.000000
G1 X108.187160 Y92.065480 F900.000000 E117.344259
G0 X108.865983 Y92.065480 F2400.000000
G1 X109.865947 Y91.065516 F900.000000 E117.470307
G0 X110.544770 Y91.065516 F2400.000000
G1 X109.544806 Y92.065479 F900.000000 E117.596355
G0 X110.223630 Y92.065478 F2400.000000
G1 X111.223593 Y91.065516 F900.000000 E117.722403
G0 X111.902416 Y91.065515 F2400.000000
G1 X110.902452 Y92.065478 F900.000000 E117.848452
G0 X111.581276 Y92.065477 F2400.000000
G1 X112.581240 Y91.065514 F900.000000 E117.974500
G0 X113.260062 Y91.065514 F2400.000000
G1 X112.260098 Y92.065477 F900.000000 E118.100548
G0 X112.938922 Y92.065476 F2400.000000
G1 X113.938886 Y91.065513 F900.000000 E118.226596
G0 X114.617709 Y91.065512 F2400.000000
G1 X113.617745 Y92.065475 F900.000000 E118.352644
G0 X114.296568 Y92.065475 F2400.000000
G1 X115.296532 Y91.065512 F900.000000 E118.478692
G0 X115.975355 Y91.065511 F2400.000000
G1 X114.975391 Y92.065475 F900.000000 E118.604741
G0 X115.654215 Y92.065474 F2400.000000
G1 X116.654179 Y91.065510 F900.000000 E118.730789
G0 X117.333001 Y91.065510 F2400.000000
G1 X116.333037 Y92.065474 F900.000000 E118.856837
G0 X117.011861 Y92.065473 F2400.000000
G1 X118.011825 Y91.065509 F900.000000 E118.982885
G0 X118.690647 Y91.065509 F2400.000000
G1 X117.690684 Y92.065472 F900.000000 E119.108933
G0 X118.369507 Y92.065472 F2400.000000
G1 X119.369471 Y91.065508 F900.000000 E119.234981
G0 X120.048294 Y91.065507 F2400.000000
G1 X119.048330 Y92.065471 F900.000000 E119.361029
G0 X119.727153 Y92.065471 F2400.000000
G1 X120.727117 Y91.065507 F900.000000 E119.487078
