;FLAVOR:UltiGCode
;MATERIAL:42687.000000
;TIME:165.000000
G0 X45.798872 Y115.000002 Z0.300000 F9000.000000
G11
G1 X65.335181 Y67.835181 F3000.000000 E6.365316
G1 X112.499998 Y48.298872 E12.730631
G1 X159.664809 Y67.835180 E19.095946
G1 X179.201128 Y114.999998 E25.461262
G1 X159.664812 Y162.164809 E31.826577
G1 X112.500001 Y181.701128 E38.191892
G1 X65.335183 Y162.164812 E44.557208
G1 X45.798872 Y115.000002 E50.922523
G0 X45.279324 Y115.000002 F9000.000000
G1 X64.967805 Y67.467805 F3000.000000 E57.337420
G1 X112.499998 Y47.779324 E63.752316
G1 X160.032186 Y67.467804 E70.167211
G1 X179.720676 Y114.999998 E76.582108
G1 X160.032188 Y162.532186 E82.997004
G1 X112.500002 Y182.220676 E89.411900
G1 X64.967807 Y162.532188 E95.826797
G1 X45.279324 Y115.000002 E102.241692
G0 X44.759775 Y115.000002 F9000.000000
G1 X64.600429 Y67.100429 F3000.000000 E108.706169
G1 X112.499998 Y47.259775 E115.170646
G1 X160.399562 Y67.100428 E121.635123
G1 X180.240225 Y114.999998 E128.099600
G1 X160.399565 Y162.899562 E134.564077
G1 X112.500002 Y182.740225 E141.028553
G1 X64.600430 Y162.899565 E147.493031
G1 X44.759775 Y115.000002 E153.957507
G10
G0 X65.455812 Y68.171103 F9000.000000
G11
G1 X159.328889 Y162.044179 F3000.000000 E170.510372
G0 X159.616889 Y161.653357 F9000.000000
G1 X65.846637 Y67.883104 F3000.000000 E187.045105
G0 X66.326636 Y67.684281 F9000.000000
G1 X159.815711 Y161.173356 F3000.000000 E203.530258
G0 X160.014534 Y160.693357 F9000.000000
G1 X66.806636 Y67.485458 F3000.000000 E219.965830
G0 X67.286636 Y67.286636 F9000.000000
G1 X160.213356 Y160.213356 F3000.000000 E236.351821
G0 X160.412179 Y159.733356 F9000.000000
G1 X67.766636 Y67.087813 F3000.000000 E252.688232
G0 X68.246636 Y66.888991 F9000.000000
G1 X160.611002 Y159.253357 F3000.000000 E268.975062
G0 X160.809824 Y158.773356 F9000.000000
G1 X68.726636 Y66.690168 F3000.000000 E285.212312
G0 X69.206636 Y66.491346 F9000.000000
G1 X161.008647 Y158.293357 F3000.000000 E301.399980
G0 X161.207469 Y157.813356 F9000.000000
G1 X69.686636 Y66.292523 F3000.000000 E317.538068
G0 X70.166636 Y66.093701 F9000.000000
G1 X161.406292 Y157.333357 F3000.000000 E333.626576
G0 X161.605115 Y156.853357 F9000.000000
G1 X70.646636 Y65.894878 F3000.000000 E349.665502
G0 X71.126637 Y65.696056 F9000.000000
G1 X161.803937 Y156.373357 F3000.000000 E365.654848
G0 X162.002760 Y155.893357 F9000.000000
G1 X71.606636 Y65.497233 F3000.000000 E381.594614
G0 X72.086637 Y65.298411 F9000.000000
G1 X162.201582 Y155.413357 F3000.000000 E397.484798
G0 X162.400405 Y154.933357 F9000.000000
G1 X72.566636 Y65.099588 F3000.000000 E413.325402
G0 X73.046637 Y64.900766 F9000.000000
G1 X162.599228 Y154.453358 F3000.000000 E429.116425
G0 X162.798050 Y153.973357 F9000.000000
G1 X73.526636 Y64.701943 F3000.000000 E444.857868
G0 X74.006636 Y64.503120 F9000.000000
G1 X162.996873 Y153.493358 F3000.000000 E460.549730
G0 X163.195695 Y153.013357 F9000.000000
G1 X74.486636 Y64.304298 F3000.000000 E476.192011
G0 X74.966636 Y64.105475 F9000.000000
G1 X163.394518 Y152.533358 F3000.000000 E491.784711
G0 X163.593341 Y152.053358 F9000.000000
G1 X75.446636 Y63.906653 F3000.000000 E507.327831
G0 X75.926636 Y63.707830 F9000.000000
G1 X163.792163 Y151.573358 F3000.000000 E522.821370
G0 X163.990986 Y151.093358 F9000.000000
G1 X76.406636 Y63.509008 F3000.000000 E538.265329
G0 X76.886636 Y63.310185 F9000.000000
G1 X164.189808 Y150.613358 F3000.000000 E553.659707
G0 X164.388631 Y150.133358 F9000.000000
G1 X77.366636 Y63.111363 F3000.000000 E569.004504
G0 X77.846636 Y62.912540 F9000.000000
G1 X164.587454 Y149.653358 F3000.000000 E584.299720
G0 X164.786276 Y149.173358 F9000.000000
G1 X78.326636 Y62.713718 F3000.000000 E599.545356
G0 X78.806636 Y62.514895 F9000.000000
G1 X164.985099 Y148.693358 F3000.000000 E614.741411
G0 X165.183921 Y148.213358 F9000.000000
G1 X79.286636 Y62.316073 F3000.000000 E629.887885
G0 X79.766636 Y62.117250 F9000.000000
G1 X165.382744 Y147.733358 F3000.000000 E644.984779
G0 X165.581567 Y147.253359 F9000.000000
G1 X80.246636 Y61.918428 F3000.000000 E660.032092
G0 X80.726636 Y61.719605 F9000.000000
G1 X165.780389 Y146.773358 F3000.000000 E675.029824
G0 X165.979212 Y146.293359 F9000.000000
G1 X81.206635 Y61.520782 F3000.000000 E689.977976
G0 X81.686636 Y61.321960 F9000.000000
G1 X166.178035 Y145.813359 F3000.000000 E704.876547
G0 X166.376857 Y145.333359 F9000.000000
G1 X82.166636 Y61.123137 F3000.000000 E719.725537
G0 X82.646636 Y60.924315 F9000.000000
G1 X166.575680 Y144.853359 F3000.000000 E734.524946
G0 X166.774502 Y144.373359 F9000.000000
G1 X83.126636 Y60.725492 F3000.000000 E749.274775
G0 X83.606636 Y60.526670 F9000.000000
G1 X166.973325 Y143.893359 F3000.000000 E763.975024
G0 X167.172148 Y143.413360 F9000.000000
G1 X84.086636 Y60.327847 F3000.000000 E778.625691
G0 X84.566636 Y60.129025 F9000.000000
G1 X167.370970 Y142.933359 F3000.000000 E793.226778
G0 X167.569793 Y142.453360 F9000.000000
G1 X85.046636 Y59.930202 F3000.000000 E807.778284
G0 X85.526636 Y59.731380 F9000.000000
G1 X167.768615 Y141.973359 F3000.000000 E822.280209
G0 X167.967438 Y141.493360 F9000.000000
G1 X86.006636 Y59.532557 F3000.000000 E836.732554
G0 X86.486636 Y59.333735 F9000.000000
G1 X168.166261 Y141.013360 F3000.000000 E851.135318
G0 X168.365083 Y140.533360 F9000.000000
G1 X86.966636 Y59.134912 F3000.000000 E865.488502
G0 X87.446636 Y58.936090 F9000.000000
G1 X168.563906 Y140.053360 F3000.000000 E879.792104
G0 X168.762728 Y139.573359 F9000.000000
G1 X87.926636 Y58.737267 F3000.000000 E894.046126
G0 X88.406635 Y58.538445 F9000.000000
G1 X168.961551 Y139.093360 F3000.000000 E908.250568
G0 X169.160374 Y138.613360 F9000.000000
G1 X88.886636 Y58.339622 F3000.000000 E922.405429
G0 X89.366635 Y58.140800 F9000.000000
G1 X169.359196 Y138.133360 F3000.000000 E936.510709
G0 X169.558019 Y137.653360 F9000.000000
G1 X89.846636 Y57.941978 F3000.000000 E950.566408
G0 X90.326635 Y57.743155 F9000.000000
G1 X169.756841 Y137.173360 F3000.000000 E964.572527
G0 X169.955664 Y136.693360 F9000.000000
G1 X90.806636 Y57.544333 F3000.000000 E978.529065
G0 X91.286635 Y57.345510 F9000.000000
G1 X170.154487 Y136.213361 F3000.000000 E992.436022
G0 X170.353309 Y135.733360 F9000.000000
G1 X91.766636 Y57.146688 F3000.000000 E1006.293398
G0 X92.246635 Y56.947865 F9000.000000
G1 X170.552132 Y135.253361 F3000.000000 E1020.101194
G0 X170.750954 Y134.773360 F9000.000000
G1 X92.726636 Y56.749043 F3000.000000 E1033.859409
G0 X93.206635 Y56.550220 F9000.000000
G1 X170.949777 Y134.293361 F3000.000000 E1047.568044
G0 X171.148600 Y133.813361 F9000.000000
G1 X93.686636 Y56.351398 F3000.000000 E1061.227098
G0 X94.166636 Y56.152575 F9000.000000
G1 X171.347422 Y133.333361 F3000.000000 E1074.836571
G0 X171.546245 Y132.853361 F9000.000000
G1 X94.646636 Y55.953753 F3000.000000 E1088.396463
G0 X95.126636 Y55.754930 F9000.000000
G1 X171.745067 Y132.373361 F3000.000000 E1101.906775
G0 X171.943890 Y131.893361 F9000.000000
G1 X95.606635 Y55.556107 F3000.000000 E1115.367506
G0 X96.086636 Y55.357285 F9000.000000
G1 X172.142713 Y131.413362 F3000.000000 E1128.778657
G0 X172.341535 Y130.933361 F9000.000000
G1 X96.566635 Y55.158462 F3000.000000 E1142.140227
G0 X97.046636 Y54.959640 F9000.000000
G1 X172.540358 Y130.453362 F3000.000000 E1155.452216
G0 X172.739180 Y129.973361 F9000.000000
G1 X97.526635 Y54.760817 F3000.000000 E1168.714624
G0 X98.006635 Y54.561995 F9000.000000
G1 X172.938003 Y129.493362 F3000.000000 E1181.927452
G0 X173.136825 Y129.013362 F9000.000000
G1 X98.486635 Y54.363173 F3000.000000 E1195.090699
G0 X98.966635 Y54.164350 F9000.000000
G1 X173.335648 Y128.533362 F3000.000000 E1208.204365
G0 X173.534470 Y128.053362 F9000.000000
G1 X99.446634 Y53.965527 F3000.000000 E1221.268451
G0 X99.926635 Y53.766705 F9000.000000
G1 X173.733293 Y127.573362 F3000.000000 E1234.282956
G0 X173.932116 Y127.093363 F9000.000000
G1 X100.406634 Y53.567882 F3000.000000 E1247.247880
G0 X100.886635 Y53.369060 F9000.000000
G1 X174.130938 Y126.613362 F3000.000000 E1260.163224
G0 X174.329761 Y126.133363 F9000.000000
G1 X101.366634 Y53.170237 F3000.000000 E1273.028987
G0 X101.846635 Y52.971415 F9000.000000
G1 X174.528583 Y125.653362 F3000.000000 E1285.845169
G0 X174.727406 Y125.173363 F9000.000000
G1 X102.326634 Y52.772592 F3000.000000 E1298.611771
G0 X102.806635 Y52.573770 F9000.000000
G1 X174.926229 Y124.693363 F3000.000000 E1311.328792
G0 X175.125051 Y124.213363 F9000.000000
G1 X103.286634 Y52.374947 F3000.000000 E1323.996232
G0 X103.766635 Y52.176125 F9000.000000
G1 X175.323874 Y123.733363 F3000.000000 E1336.614091
G0 X175.522696 Y123.253364 F9000.000000
G1 X104.246634 Y51.977302 F3000.000000 E1349.182370
G0 X104.726635 Y51.778480 F9000.000000
G1 X175.721519 Y122.773363 F3000.000000 E1361.701068
G0 X175.920341 Y122.293364 F9000.000000
G1 X105.206635 Y51.579657 F3000.000000 E1374.170186
G0 X105.686635 Y51.380835 F9000.000000
G1 X176.119164 Y121.813363 F3000.000000 E1386.589723
G0 X176.317986 Y121.333364 F9000.000000
G1 X106.166635 Y51.182012 F3000.000000 E1398.959679
G0 X106.646634 Y50.983189 F9000.000000
G1 X176.516809 Y120.853364 F3000.000000 E1411.280054
G0 X176.715631 Y120.373363 F9000.000000
G1 X107.126635 Y50.784367 F3000.000000 E1423.550849
G0 X107.606634 Y50.585544 F9000.000000
G1 X176.914454 Y119.893364 F3000.000000 E1435.772063
G0 X177.113276 Y119.413363 F9000.000000
G1 X108.086635 Y50.386722 F3000.000000 E1447.943697
G0 X108.566634 Y50.187899 F9000.000000
G1 X177.312099 Y118.933364 F3000.000000 E1460.065749
G0 X177.510922 Y118.453364 F9000.000000
G1 X109.046635 Y49.989077 F3000.000000 E1472.138222
G0 X109.526634 Y49.790254 F9000.000000
G1 X177.709744 Y117.973364 F3000.000000 E1484.161113
G0 X177.908567 Y117.493364 F9000.000000
G1 X110.006635 Y49.591432 F3000.000000 E1496.134424
G0 X110.486634 Y49.392609 F9000.000000
G1 X178.107389 Y117.013364 F3000.000000 E1508.058153
G0 X178.306212 Y116.533364 F9000.000000
G1 X110.966635 Y49.193787 F3000.000000 E1519.932303
G0 X111.446634 Y48.994964 F9000.000000
G1 X178.505035 Y116.053365 F3000.000000 E1531.756871
G0 X178.703857 Y115.573364 F9000.000000
G1 X111.926635 Y48.796142 F3000.000000 E1543.531859
G0 X112.406634 Y48.597319 F9000.000000
G1 X178.902680 Y115.093365 F3000.000000 E1555.257267
G0 X178.554720 Y114.066582 F9000.000000
G1 X113.433421 Y48.945283 F3000.000000 E1566.740261
G0 X114.592243 Y49.425282 F9000.000000
G1 X178.074719 Y112.907759 F3000.000000 E1577.934279
G0 X177.594719 Y111.748936 F9000.000000
G1 X115.751066 Y49.905283 F3000.000000 E1588.839318
G0 X116.909889 Y50.385283 F9000.000000
G1 X177.114718 Y110.590113 F3000.000000 E1599.455380
G0 X176.634718 Y109.431290 F9000.000000
G1 X118.068711 Y50.865283 F3000.000000 E1609.782465
G0 X119.227534 Y51.345284 F9000.000000
G1 X176.154717 Y108.272467 F3000.000000 E1619.820571
G0 X175.674717 Y107.113644 F9000.000000
G1 X120.386357 Y51.825284 F3000.000000 E1629.569700
G0 X121.545179 Y52.305284 F9000.000000
G1 X175.194716 Y105.954821 F3000.000000 E1639.029852
G0 X174.714716 Y104.795998 F9000.000000
G1 X122.704002 Y52.785284 F3000.000000 E1648.201026
G0 X123.862825 Y53.265285 F9000.000000
G1 X174.234715 Y103.637175 F3000.000000 E1657.083222
G0 X173.754715 Y102.478352 F9000.000000
G1 X125.021647 Y53.745284 F3000.000000 E1665.676441
G0 X126.180470 Y54.225285 F9000.000000
G1 X173.274714 Y101.319529 F3000.000000 E1673.980682
G0 X172.794714 Y100.160706 F9000.000000
G1 X127.339293 Y54.705285 F3000.000000 E1681.995945
G0 X128.498116 Y55.185285 F9000.000000
G1 X172.314713 Y99.001883 F3000.000000 E1689.722231
G0 X171.834713 Y97.843060 F9000.000000
G1 X129.656939 Y55.665285 F3000.000000 E1697.159539
G0 X130.815762 Y56.145286 F9000.000000
G1 X171.354712 Y96.684237 F3000.000000 E1704.307869
G0 X170.874712 Y95.525414 F9000.000000
G1 X131.974584 Y56.625285 F3000.000000 E1711.167222
G0 X133.133407 Y57.105286 F9000.000000
G1 X170.394711 Y94.366590 F3000.000000 E1717.737598
G0 X169.914711 Y93.207767 F9000.000000
G1 X134.292230 Y57.585286 F3000.000000 E1724.018995
G0 X135.451052 Y58.065286 F9000.000000
G1 X169.434711 Y92.048944 F3000.000000 E1730.011415
G0 X168.954710 Y90.890121 F9000.000000
G1 X136.609875 Y58.545286 F3000.000000 E1735.714858
G0 X137.768698 Y59.025287 F9000.000000
G1 X168.474710 Y89.731298 F3000.000000 E1741.129322
G0 X167.994709 Y88.572475 F9000.000000
G1 X138.927520 Y59.505286 F3000.000000 E1746.254810
G0 X140.086343 Y59.985287 F9000.000000
G1 X167.514709 Y87.413652 F3000.000000 E1751.091319
G0 X167.034708 Y86.254829 F9000.000000
G1 X141.245166 Y60.465287 F3000.000000 E1755.638851
G0 X142.403988 Y60.945287 F9000.000000
G1 X166.554708 Y85.096006 F3000.000000 E1759.897405
G0 X166.074707 Y83.937183 F9000.000000
G1 X143.562811 Y61.425287 F3000.000000 E1763.866982
G0 X144.721633 Y61.905287 F9000.000000
G1 X165.594707 Y82.778360 F3000.000000 E1767.547581
G0 X165.114706 Y81.619537 F9000.000000
G1 X145.880456 Y62.385287 F3000.000000 E1770.939202
G0 X147.039279 Y62.865288 F9000.000000
G1 X164.634706 Y80.460714 F3000.000000 E1774.041846
G0 X164.154705 Y79.301891 F9000.000000
G1 X148.198101 Y63.345287 F3000.000000 E1776.855512
G0 X149.356924 Y63.825288 F9000.000000
G1 X163.674705 Y78.143068 F3000.000000 E1779.380201
G0 X163.194704 Y76.984245 F9000.000000
G1 X150.515747 Y64.305288 F3000.000000 E1781.615912
G0 X151.674569 Y64.785288 F9000.000000
G1 X162.714704 Y75.825422 F3000.000000 E1783.562645
G0 X162.234703 Y74.666599 F9000.000000
G1 X152.833392 Y65.265288 F3000.000000 E1785.220401
G0 X153.992215 Y65.745289 F9000.000000
G1 X161.754703 Y73.507776 F3000.000000 E1786.589179
G0 X161.274702 Y72.348953 F9000.000000
G1 X155.151037 Y66.225288 F3000.000000 E1787.668980
G0 X156.309860 Y66.705289 F9000.000000
G1 X160.794702 Y71.190130 F3000.000000 E1788.459802
G0 X160.314701 Y70.031307 F9000.000000
G1 X157.468683 Y67.185289 F3000.000000 E1788.961648
G0 X158.627505 Y67.665289 F9000.000000
G1 X159.834701 Y68.872484 F3000.000000 E1789.174515
G10
G0 X158.848889 Y162.243002 F9000.000000
G11
G1 X65.256989 Y68.651102 F3000.000000 E1805.677799
G0 X65.058167 Y69.131103 F9000.000000
G1 X158.368889 Y162.441824 F3000.000000 E1822.131503
G0 X157.888889 Y162.640647 F9000.000000
G1 X64.859344 Y69.611102 F3000.000000 E1838.535625
G0 X64.660522 Y70.091103 F9000.000000
G1 X157.408889 Y162.839469 F3000.000000 E1854.890167
G0 X156.928889 Y163.038292 F9000.000000
G1 X64.461699 Y70.571102 F3000.000000 E1871.195129
G0 X64.262877 Y71.051103 F9000.000000
G1 X156.448890 Y163.237115 F3000.000000 E1887.450509
G0 X155.968889 Y163.435937 F9000.000000
G1 X64.064054 Y71.531102 F3000.000000 E1903.656309
G0 X63.865232 Y72.011103 F9000.000000
G1 X155.488890 Y163.634760 F3000.000000 E1919.812528
G0 X155.008890 Y163.833583 F9000.000000
G1 X63.666409 Y72.491102 F3000.000000 E1935.919167
G0 X63.467587 Y72.971103 F9000.000000
G1 X154.528890 Y164.032405 F3000.000000 E1951.976225
G0 X154.048890 Y164.231228 F9000.000000
G1 X63.268764 Y73.451102 F3000.000000 E1967.983702
G0 X63.069942 Y73.931103 F9000.000000
G1 X153.568890 Y164.430050 F3000.000000 E1983.941599
G0 X153.088890 Y164.628873 F9000.000000
G1 X62.871119 Y74.411102 F3000.000000 E1999.849915
G0 X62.672297 Y74.891103 F9000.000000
G1 X152.608891 Y164.827696 F3000.000000 E2015.708650
G0 X152.128890 Y165.026518 F9000.000000
G1 X62.473475 Y75.371102 F3000.000000 E2031.517804
G0 X62.274652 Y75.851103 F9000.000000
G1 X151.648890 Y165.225341 F3000.000000 E2047.277378
G0 X151.168891 Y165.424164 F9000.000000
G1 X62.075830 Y76.331102 F3000.000000 E2062.987371
G0 X61.877007 Y76.811103 F9000.000000
G1 X150.688890 Y165.622986 F3000.000000 E2078.647783
G0 X150.208891 Y165.821809 F9000.000000
G1 X61.678185 Y77.291102 F3000.000000 E2094.258615
G0 X61.479362 Y77.771103 F9000.000000
G1 X149.728891 Y166.020632 F3000.000000 E2109.819866
G0 X149.248891 Y166.219454 F9000.000000
G1 X61.280540 Y78.251102 F3000.000000 E2125.331537
G0 X61.081717 Y78.731102 F9000.000000
G1 X148.768891 Y166.418277 F3000.000000 E2140.793627
G0 X148.288891 Y166.617099 F9000.000000
G1 X60.882895 Y79.211102 F3000.000000 E2156.206136
G0 X60.684072 Y79.691102 F9000.000000
G1 X147.808891 Y166.815922 F3000.000000 E2171.569064
